!!!!SEGMENT: pl-wtm--r-704-m--015_moniuszko-stanislaw--widma-no-9.krn
!!!cenid: 18xx:3070
!!!COM: Moniuszko, Stanisław
!!!COM-rismID:
!!!CDT: 1819/05/05-1872/06/04
!!!CNT: Polish
!!!GTL: Widma
!!!OTL: No. 9
!!!OMV: 015
!!!PDT: 1852
!!!AGN: Secular
!!!SMS-siglum: PL-Wtm
!!!SMS-shelfmark: R 704/M
!!!SMS-shelfwork: G
!!!SMS-variant:
!!!SMS-altvar:
!!!NIFC-rismSourceID: 1001093778
!!!NIFC-islandoraID:
!!!URL-pdf-islandora:
!!!URL-scan:
!!!ONB-nifc: UWAGA: skany 0053-0058. Nie wpisywać tekstu rosyjskiego i samodzielnych dialogów poza krótkimi didaskaliami.
!!!AIN: 1 alto 3 empty 1 soprn 1 tenor 1 vox
!!!key:
**kern	**kern	**dynam	**fing	**kern	**text	**text	**text	**dynam	**kern	**text	**text	**text	**dynam	**kern	**text	**text	**dynam	**kern	**text	**text	**dynam	**kern	**text	**text	**dynam	**kern	**text	**text	**dynam
*part7	*part7	*part7	*part7	*part6	*part6	*part6	*part6	*part6	*part5	*part5	*part5	*part5	*part5	*part4	*part4	*part4	*part4	*part3	*part3	*part3	*part3	*part2	*part2	*part2	*part2	*part1	*part1	*part1	*part1
*staff8	*staff7	*	*	*staff6	*staff6	*staff6	*staff6	*	*staff5	*staff5	*staff5	*staff5	*	*staff4	*staff4	*staff4	*	*staff3	*staff3	*staff3	*	*staff2	*staff2	*staff2	*	*staff1	*staff1	*staff1	*
*	*	*	*	*group1	*	*	*	*	*group1	*	*	*	*	*group1	*	*	*	*group1	*	*	*	*	*	*	*	*	*	*	*
*Iempty	*Iempty	*	*	*Iempty	*	*	*	*	*Itenor	*	*	*	*	*Ialto	*	*	*	*Isoprn	*	*	*	*Ivox	*	*	*	*Iempty	*	*	*
*I"Forte-Piano.	*I"Forte-Piano.	*	*	*I"Bassi.	*	*	*	*	*I"Tenori.	*	*	*	*	*I"Alto.	*	*	*	*I"Sopr.	*	*	*	*I"Guślarz	*	*	*	*I"Dziewczyna	*	*	*
*clefF4	*clefG2	*	*	*clefF4	*	*	*	*	*clefG2	*	*	*	*	*clefG2	*	*	*	*clefG2	*	*	*	*clefF4	*	*	*	*clefG2	*	*	*
*	*	*	*	*	*	*	*	*	*ITrd8c12	*	*	*	*	*	*	*	*	*	*	*	*	*	*	*	*	*	*	*	*
*k[f#]	*k[f#]	*	*	*k[f#]	*	*	*	*	*k[f#]	*	*	*	*	*k[f#]	*	*	*	*k[f#]	*	*	*	*k[f#]	*	*	*	*k[f#]	*	*	*
*e:	*e:	*	*	*e:	*	*	*	*	*e:	*	*	*	*	*e:	*	*	*	*e:	*	*	*	*e:	*	*	*	*e:	*	*	*
*M6/8	*M6/8	*	*	*M6/8	*	*	*	*	*M6/8	*	*	*	*	*M6/8	*	*	*	*M6/8	*	*	*	*M6/8	*	*	*	*M6/8	*	*	*
*	*	*	*	*	*	*color:red	*	*	*	*	*color:red	*	*	*	*	*color:red	*	*	*	*color:red	*	*	*	*color:red	*	*	*	*color:red	*
=1	=1	=1	=1	=1	=1	=1	=1	=1	=1	=1	=1	=1	=1	=1	=1	=1	=1	=1	=1	=1	=1	=1	=1	=1	=1	=1	=1	=1	=1
*^	*	*	*	*	*	*	*	*	*	*	*	*	*	*	*	*	*	*	*	*	*	*	*	*	*	*	*	*	*
!	!	!	!	!	!	!	!	!	!	!	!	!	!	!	!	!	!	!	!	!	!	!	!	!	!	!	!LO:TX:a:i:t=N° 9. Duittino i Chór,	!	!	!
!	!	!LO:TX:a:Bi:t=Andantino.	!LO:DY:rj:t=p	!	!	!	!	!	!	!	!	!	!	!	!	!	!	!	!	!	!	!	!	!	!	!	!LO:TX:t=P:problem=przy kluczu f#	!	!	!
!	!	!	!	!	!	!	!	!	!	!	!	!	!	!	!	!	!	!	!	!	!	!	!	!	!	!	!LO:TX:t=P:global:problem=tekst polski w I spinie, tekst włoski w II	!	!	!
8E/	(4.EE\	8e 8B 8G/	p	.	2.ryy	.	.	.	.	2.ryy	.	.	.	.	2.ryy	.	.	.	2.ryy	.	.	.	2.r	.	.	.	2.r	.	.	.
8r	.	8r	.	.	.	.	.	.	.	.	.	.	.	.	.	.	.	.	.	.	.	.	.	.	.	.	.	.	.	.
8E/	.	8e 8B 8G/	.	.	.	.	.	.	.	.	.	.	.	.	.	.	.	.	.	.	.	.	.	.	.	.	.	.	.	.
8C/	4.CC\	8e 8c 8G/	.	.	.	.	.	.	.	.	.	.	.	.	.	.	.	.	.	.	.	.	.	.	.	.	.	.	.	.
8r	.	8r	.	.	.	.	.	.	.	.	.	.	.	.	.	.	.	.	.	.	.	.	.	.	.	.	.	.	.	.
8C/	.	8e 8c 8G/	.	.	.	.	.	.	.	.	.	.	.	.	.	.	.	.	.	.	.	.	.	.	.	.	.	.	.	.
=2	=2	=2	=2	=2	=2	=2	=2	=2	=2	=2	=2	=2	=2	=2	=2	=2	=2	=2	=2	=2	=2	=2	=2	=2	=2	=2	=2	=2	=2	=2
*	*	*^	*	*	*	*	*	*	*	*	*	*	*	*	*	*	*	*	*	*	*	*	*	*	*	*	*	*	*	*
8AA/	4.AAA\	8e 8c#X 8G/	4.ryy	.	.	2.ryy	.	.	.	.	2.ryy	.	.	.	.	2.ryy	.	.	.	2.ryy	.	.	.	2.r	.	.	.	2.r	.	.	.
8r	.	8r	.	.	.	.	.	.	.	.	.	.	.	.	.	.	.	.	.	.	.	.	.	.	.	.	.	.	.	.	.
8AA/	.	8e 8c# 8G/	.	.	.	.	.	.	.	.	.	.	.	.	.	.	.	.	.	.	.	.	.	.	.	.	.	.	.	.	.
!	!	!	!	!LO:HP:a	!	!	!	!	!	!	!	!	!	!	!	!	!	!	!	!	!	!	!	!	!	!	!	!	!	!	!
(<4D/	(4DD\	8.f#/L	(4d 4F#\	>	.	.	.	.	.	.	.	.	.	.	.	.	.	.	.	.	.	.	.	.	.	.	.	.	.	.	.
.	.	16g/K	.	.	.	.	.	.	.	.	.	.	.	.	.	.	.	.	.	.	.	.	.	.	.	.	.	.	.	.	.
8BB/)	8BBB\))	8f#/J	8d#X 8A\)	]	.	.	.	.	.	.	.	.	.	.	.	.	.	.	.	.	.	.	.	.	.	.	.	.	.	.	.
*	*	*v	*v	*	*	*	*	*	*	*	*	*	*	*	*	*	*	*	*	*	*	*	*	*	*	*	*	*	*	*	*
=3	=3	=3	=3	=3	=3	=3	=3	=3	=3	=3	=3	=3	=3	=3	=3	=3	=3	=3	=3	=3	=3	=3	=3	=3	=3	=3	=3	=3	=3	=3
8E/	(4.EE\	8e 8B 8G/	.	.	2.ryy	.	.	.	.	2.ryy	.	.	.	.	2.ryy	.	.	.	2.ryy	.	.	.	2.r	.	.	.	2.r	.	.	.
8r	.	8r	.	.	.	.	.	.	.	.	.	.	.	.	.	.	.	.	.	.	.	.	.	.	.	.	.	.	.	.
8E/	.	8e 8B 8G/	.	.	.	.	.	.	.	.	.	.	.	.	.	.	.	.	.	.	.	.	.	.	.	.	.	.	.	.
8C/	4.CC\	8e 8c 8G/	.	.	.	.	.	.	.	.	.	.	.	.	.	.	.	.	.	.	.	.	.	.	.	.	.	.	.	.
8r	.	8r	.	.	.	.	.	.	.	.	.	.	.	.	.	.	.	.	.	.	.	.	.	.	.	.	.	.	.	.
8C/	.	8e 8c 8G/	.	.	.	.	.	.	.	.	.	.	.	.	.	.	.	.	.	.	.	.	.	.	.	.	.	.	.	.
!!LO:LB:g=original
=4	=4	=4	=4	=4	=4	=4	=4	=4	=4	=4	=4	=4	=4	=4	=4	=4	=4	=4	=4	=4	=4	=4	=4	=4	=4	=4	=4	=4	=4	=4
*	*	*^	*	*	*	*	*	*	*	*	*	*	*	*	*	*	*	*	*	*	*	*	*	*	*	*	*	*	*	*
8AA/	4.AAA\	8e 8c#X 8G/	4.ryy	.	.	2.ryy	.	.	.	.	2.ryy	.	.	.	.	2.ryy	.	.	.	2.ryy	.	.	.	2.r	.	.	.	2.r	.	.	.
8r	.	8r	.	.	.	.	.	.	.	.	.	.	.	.	.	.	.	.	.	.	.	.	.	.	.	.	.	.	.	.	.
8AA/	.	8e 8c# 8G/	.	.	.	.	.	.	.	.	.	.	.	.	.	.	.	.	.	.	.	.	.	.	.	.	.	.	.	.	.
!	!	!	!LO:S:s=1:note:problem=note-level slur	!LO:HP:a	!	!	!	!	!	!	!	!	!	!	!	!	!	!	!	!	!	!	!	!	!	!	!	!	!	!	!
(<4D/	(4DD\	8.f#/L	(4d 4F#\	>	.	.	.	.	.	.	.	.	.	.	.	.	.	.	.	.	.	.	.	.	.	.	.	.	.	.	.
.	.	16g/K	.	]	.	.	.	.	.	.	.	.	.	.	.	.	.	.	.	.	.	.	.	.	.	.	.	.	.	.	.
8BB/)	8BBB\))	8f#/J	8d#X 8A\)	.	.	.	.	.	.	.	.	.	.	.	.	.	.	.	.	.	.	.	.	.	.	.	.	.	.	.	.
*v	*v	*	*	*	*	*	*	*	*	*	*	*	*	*	*	*	*	*	*	*	*	*	*	*	*	*	*	*	*	*	*
*	*v	*v	*	*	*	*	*	*	*	*	*	*	*	*	*	*	*	*	*	*	*	*	*	*	*	*	*	*	*	*
=5	=5	=5	=5	=5	=5	=5	=5	=5	=5	=5	=5	=5	=5	=5	=5	=5	=5	=5	=5	=5	=5	=5	=5	=5	=5	=5	=5	=5	=5
*	*	*	*	*	*	*	*	*	*	*	*	*	*	*	*	*	*	*	*	*	*	*^	*	*	*	*	*	*	*
!	!	!	!	!	!	!	!	!	!	!	!	!	!	!	!	!	!	!	!	!	!	!LO:TX:a:i:t=Guślarz	!	!	!	!	!	!	!	!
!	!	!	!	!	!	!	!	!	!	!	!	!	!	!	!	!	!	!	!	!	!	!LO:TX:t=P:stem.color=dodgerblue:problem	!	!	!	!	!	!	!	!
8E 8EE\	8e 8B 8G/	.	.	2.ryy	.	.	.	.	2.ryy	.	.	.	.	2.ryy	.	.	.	2.ryy	.	.	.	4E/	4.E\	Na	La	.	2.r	.	.	.
8r	8r	.	.	.	.	.	.	.	.	.	.	.	.	.	.	.	.	.	.	.	.	.	.	.	.	.	.	.	.	.
8E\	8g 8e 8B/	.	.	.	.	.	.	.	.	.	.	.	.	.	.	.	.	.	.	.	.	8E/@	.	.	.	.	.	.	.	.
8E\	8g 8e 8B/	.	.	.	.	.	.	.	.	.	.	.	.	.	.	.	.	.	.	.	.	[4.B\	4.ryy	gło-	fron-	.	.	.	.	.
8r	8r	.	.	.	.	.	.	.	.	.	.	.	.	.	.	.	.	.	.	.	.	.	.	.	.	.	.	.	.	.
8E\	8g 8e 8B/	.	.	.	.	.	.	.	.	.	.	.	.	.	.	.	.	.	.	.	.	.	.	.	.	.	.	.	.	.
*	*	*	*	*	*	*	*	*	*	*	*	*	*	*	*	*	*	*	*	*	*	*v	*v	*	*	*	*	*	*	*
=6	=6	=6	=6	=6	=6	=6	=6	=6	=6	=6	=6	=6	=6	=6	=6	=6	=6	=6	=6	=6	=6	=6	=6	=6	=6	=6	=6	=6	=6
!	!	!	!	!	!	!	!	!	!	!	!	!	!	!	!	!	!	!	!	!	!	!LO:S:color=dodgerblue	!	!	!	!	!	!	!
8E\	8g 8e 8B/	.	.	2.ryy	.	.	.	.	2.ryy	.	.	.	.	2.ryy	.	.	.	2.ryy	.	.	.	(8B\]	.	.	.	2.r	.	.	.
8r	8r	.	.	.	.	.	.	.	.	.	.	.	.	.	.	.	.	.	.	.	.	8A\)	-wie	-te_ha-	.	.	.	.	.
8E\	8g 8B/	.	.	.	.	.	.	.	.	.	.	.	.	.	.	.	.	.	.	.	.	8G\	ma	-di	.	.	.	.	.
8E\	8f# 8B 8A/	.	.	.	.	.	.	.	.	.	.	.	.	.	.	.	.	.	.	.	.	8F#\L	kra-	fio-	.	.	.	.	.
8r	8r	.	.	.	.	.	.	.	.	.	.	.	.	.	.	.	.	.	.	.	.	8E\J	.	.	.	.	.	.	.
8E\	8f# 8B 8A/	.	.	.	.	.	.	.	.	.	.	.	.	.	.	.	.	.	.	.	.	8D#X\	-śny	-ri_a-	.	.	.	.	.
=7	=7	=7	=7	=7	=7	=7	=7	=7	=7	=7	=7	=7	=7	=7	=7	=7	=7	=7	=7	=7	=7	=7	=7	=7	=7	=7	=7	=7	=7
*^	*	*	*	*	*	*	*	*	*	*	*	*	*	*	*	*	*	*	*	*	*	*	*	*	*	*^	*	*	*
*	*	*	*	*	*	*	*	*	*	*	*	*	*	*	*	*	*	*	*	*	*	*	*2\right	*	*	*	*	*	*	*	*
!	!	!	!	!	!	!	!	!	!	!	!	!	!	!	!	!	!	!	!	!	!	!	!	!	!	!	!LO:TX:a:i:t=dolcissimo.	!	!	!	!LO:DY:a:rj
8E/	(4.EE\	8e 8B 8G/	.	.	2.ryy	.	.	.	.	2.ryy	.	.	.	.	2.ryy	.	.	.	2.ryy	.	.	.	2.E\	wia-	-dor-	.	4.e/	4e/	Na	La	p
8r	.	8r	.	.	.	.	.	.	.	.	.	.	.	.	.	.	.	.	.	.	.	.	.	.	.	.	.	.	.	.	.
8E/	.	8e 8B 8G/	.	.	.	.	.	.	.	.	.	.	.	.	.	.	.	.	.	.	.	.	.	.	.	.	.	8e/@	.	.	.
8C/	4.CC\	8e 8c 8G/	.	.	.	.	.	.	.	.	.	.	.	.	.	.	.	.	.	.	.	.	.	.	.	.	[4.ee\	4.ryy	gło-	fron-	.
8r	.	8r	.	.	.	.	.	.	.	.	.	.	.	.	.	.	.	.	.	.	.	.	.	.	.	.	.	.	.	.	.
8C/	.	8e 8c 8G/	.	.	.	.	.	.	.	.	.	.	.	.	.	.	.	.	.	.	.	.	.	.	.	.	.	.	.	.	.
*	*	*	*	*	*	*	*	*	*	*	*	*	*	*	*	*	*	*	*	*	*	*	*	*	*	*	*v	*v	*	*	*
!!LO:PB:g=original
=8	=8	=8	=8	=8	=8	=8	=8	=8	=8	=8	=8	=8	=8	=8	=8	=8	=8	=8	=8	=8	=8	=8	=8	=8	=8	=8	=8	=8	=8	=8
8AA/	4.AAA\	8e 8c 8F#/	.	.	2.ryy	.	.	.	.	2.ryy	.	.	.	.	2.ryy	.	.	.	2.ryy	.	.	.	4E\	-nek	-na,	.	8ee\]	.	.	.
8r	.	8r	.	.	.	.	.	.	.	.	.	.	.	.	.	.	.	.	.	.	.	.	.	.	.	.	8f#/	-wie	-te_ho-	.
8AA/	.	8e 8c 8F#/	.	.	.	.	.	.	.	.	.	.	.	.	.	.	.	.	.	.	.	.	8r	.	.	.	8g/	mam	-di	.
.	.	.	.	.	.	.	.	.	.	.	.	.	.	.	.	.	.	.	.	.	.	.	.	.	.	.	(16qqf#/LL	.	.	.
.	.	.	.	.	.	.	.	.	.	.	.	.	.	.	.	.	.	.	.	.	.	.	.	.	.	.	16qqg/JJ	.	.	.
4BB 4BBB/	4.ryy	4d#X 4B 4F#/	.	.	.	.	.	.	.	.	.	.	.	.	.	.	.	.	.	.	.	.	4r	.	.	.	8a/L)	kra-	fio-	.
.	.	.	.	.	.	.	.	.	.	.	.	.	.	.	.	.	.	.	.	.	.	.	.	.	.	.	8g/J	.	.	.
8BB/)	.	8f# 8B 8A/	.	.	.	.	.	.	.	.	.	.	.	.	.	.	.	.	.	.	.	.	8r	.	.	.	8f#/	-śny	-ri_a-	.
*v	*v	*	*	*	*	*	*	*	*	*	*	*	*	*	*	*	*	*	*	*	*	*	*	*	*	*	*	*	*	*
=9	=9	=9	=9	=9	=9	=9	=9	=9	=9	=9	=9	=9	=9	=9	=9	=9	=9	=9	=9	=9	=9	=9	=9	=9	=9	=9	=9	=9	=9
*	*	*	*	*	*	*	*	*	*	*	*	*	*	*	*	*	*	*	*	*	*	*^	*	*	*	*	*	*	*
8E 8EE/	8e 8B 8G/	.	.	2.ryy	.	.	.	.	2.ryy	.	.	.	.	2.ryy	.	.	.	2.ryy	.	.	.	(4.E/	4E\	a	In	.	4g/	wia-	-dor-	.
8r	8r	.	.	.	.	.	.	.	.	.	.	.	.	.	.	.	.	.	.	.	.	.	.	.	.	.	.	.	.	.
8E\	8g 8e 8B/	.	.	.	.	.	.	.	.	.	.	.	.	.	.	.	.	.	.	.	.	.	8E\@	.	.	.	8e/	-nek,	-na,	.
8E\	8g 8e 8B/	.	.	.	.	.	.	.	.	.	.	.	.	.	.	.	.	.	.	.	.	[4.B\)	4.ryy	w_rę-	man	.	4r	.	.	.
8r	8r	.	.	.	.	.	.	.	.	.	.	.	.	.	.	.	.	.	.	.	.	.	.	.	.	.	.	.	.	.
8E\	8g 8e 8B/	.	.	.	.	.	.	.	.	.	.	.	.	.	.	.	.	.	.	.	.	.	.	.	.	.	8r	.	.	.
=10	=10	=10	=10	=10	=10	=10	=10	=10	=10	=10	=10	=10	=10	=10	=10	=10	=10	=10	=10	=10	=10	=10	=10	=10	=10	=10	=10	=10	=10	=10
!	!	!	!	!	!	!	!	!	!	!	!	!	!	!	!	!	!	!	!	!	!	!	!LO:TX:t=P:stem.color=dodgerblue:problem	!	!	!	!	!	!	!
8E\	8g 8e 8B/	.	.	2.ryy	.	.	.	.	2.ryy	.	.	.	.	2.ryy	.	.	.	2.ryy	.	.	.	8B\]	8B\L	.	.	.	2.r	.	.	.
8r	8r	.	.	.	.	.	.	.	.	.	.	.	.	.	.	.	.	.	.	.	.	8A\	8A\J	-ku	reg-	.	.	.	.	.
8E\	8g 8B/	.	.	.	.	.	.	.	.	.	.	.	.	.	.	.	.	.	.	.	.	8G\	8ryy	zie-	-ge<.>	.	.	.	.	.
8E\	8f# 8B 8A/	.	.	.	.	.	.	.	.	.	.	.	.	.	.	.	.	.	.	.	.	(<8F#\	4ryy	-lo-	ia	.	.	.	.	.
.	.	.	.	.	.	.	.	.	.	.	.	.	.	.	.	.	.	.	.	.	.	16qqG/LL	.	.	.	.	.	.	.	.
.	.	.	.	.	.	.	.	.	.	.	.	.	.	.	.	.	.	.	.	.	.	16qqF#/JJ)	.	.	.	.	.	.	.	.
8r	8r	.	.	.	.	.	.	.	.	.	.	.	.	.	.	.	.	.	.	.	.	8E\	.	-ny	.	.	.	.	.	.
8E\	8d#X 8B 8F#/	.	.	.	.	.	.	.	.	.	.	.	.	.	.	.	.	.	.	.	.	8D#X\	8ryy	ba-	sno-	.	.	.	.	.
*	*	*	*	*	*	*	*	*	*	*	*	*	*	*	*	*	*	*	*	*	*	*v	*v	*	*	*	*	*	*	*
=11	=11	=11	=11	=11	=11	=11	=11	=11	=11	=11	=11	=11	=11	=11	=11	=11	=11	=11	=11	=11	=11	=11	=11	=11	=11	=11	=11	=11	=11
*^	*	*	*	*	*	*	*	*	*	*	*	*	*	*	*	*	*	*	*	*	*	*	*	*	*	*^	*	*	*
!	!	!	!	!	!	!	!	!	!	!	!	!	!	!	!	!	!	!	!	!	!	!	!LO:T:color=grey	!	!	!	!	!	!	!	!
8E/	(4.EE\	8e 8B 8G/	.	.	2.ryy	.	.	.	.	2.ryy	.	.	.	.	2.ryy	.	.	.	2.ryy	.	.	.	[2.E\	-dy-	-scel-	.	(4.e/	4e/	w_rę-	in	.
8r	.	8r	.	.	.	.	.	.	.	.	.	.	.	.	.	.	.	.	.	.	.	.	.	.	.	.	.	.	.	.	.
8E/	.	8e 8B 8G/	.	.	.	.	.	.	.	.	.	.	.	.	.	.	.	.	.	.	.	.	.	.	.	.	.	8e/@	.	.	.
8C/	4.CC\	8e 8c 8G/	.	.	.	.	.	.	.	.	.	.	.	.	.	.	.	.	.	.	.	.	.	.	.	.	[4.ee\)	4.ryy	.	man	.
8r	.	8r	.	.	.	.	.	.	.	.	.	.	.	.	.	.	.	.	.	.	.	.	.	.	.	.	.	.	.	.	.
8C/	.	8e 8c 8G/	.	.	.	.	.	.	.	.	.	.	.	.	.	.	.	.	.	.	.	.	.	.	.	.	.	.	.	.	.
=12	=12	=12	=12	=12	=12	=12	=12	=12	=12	=12	=12	=12	=12	=12	=12	=12	=12	=12	=12	=12	=12	=12	=12	=12	=12	=12	=12	=12	=12	=12	=12
*2\right	*	*	*	*	*	*	*	*	*	*	*	*	*	*	*	*	*	*	*	*	*	*	*	*	*	*	*	*	*	*	*
!	!	!	!	!	!	!	!	!	!	!	!	!	!	!	!	!	!	!	!	!	!	!	!	!	!	!	!LO:S:color=dodgerblue	!LO:TX:t=P:stem.color=dodgerblue:problem	!	!	!
8D/	2.DD\)	8d 8A 8F#/	.	.	2.ryy	.	.	.	.	2.ryy	.	.	.	.	2.ryy	.	.	.	2.ryy	.	.	.	4E\]	-lek,	-lo	.	(8ee\]	8ee\L	.	.	.
8r	.	8r	.	.	.	.	.	.	.	.	.	.	.	.	.	.	.	.	.	.	.	.	.	.	.	.	8a/)	8a/J	-ku	reg-	.
8D/	.	8d 8A 8F#/	.	.	.	.	.	.	.	.	.	.	.	.	.	.	.	.	.	.	.	.	8r	.	.	.	8b/	8ryy	zie-	-go	.
.	.	.	.	.	.	.	.	.	.	.	.	.	.	.	.	.	.	.	.	.	.	.	.	.	.	.	(16qqa/LL	.	.	.	.
.	.	.	.	.	.	.	.	.	.	.	.	.	.	.	.	.	.	.	.	.	.	.	.	.	.	.	16qqb/JJ	.	.	.	.
!	!	!	!	!	!	!	!	!	!	!	!	!	!	!	!	!	!	!	!	!	!	!	!	!	!	!	!	!LO:TX:t=P:stem.color=dodgerblue:problem	!	!	!
8D/	.	4e 4c 4G/	.	.	.	.	.	.	.	.	.	.	.	.	.	.	.	.	.	.	.	.	4r	.	.	.	8cc\)	8cc\L	-lo-	un	.
8r	.	.	.	.	.	.	.	.	.	.	.	.	.	.	.	.	.	.	.	.	.	.	.	.	.	.	8b\	8b\J	-ny	ra-	.
8D/	.	8f# 8c 8A/	.	.	.	.	.	.	.	.	.	.	.	.	.	.	.	.	.	.	.	.	8r	.	.	.	8a\	8ryy	ba-	-mo-	.
*v	*v	*	*	*	*	*	*	*	*	*	*	*	*	*	*	*	*	*	*	*	*	*	*	*	*	*	*v	*v	*	*	*
!!LO:LB:g=original
=13	=13	=13	=13	=13	=13	=13	=13	=13	=13	=13	=13	=13	=13	=13	=13	=13	=13	=13	=13	=13	=13	=13	=13	=13	=13	=13	=13	=13	=13
*	*	*	*	*	*	*	*	*	*	*	*	*	*	*	*	*	*	*	*	*	*	*^	*	*	*	*	*	*	*
8GG 8GGG/	8g 8d 8B/	.	.	2.ryy	.	.	.	.	2.ryy	.	.	.	.	2.ryy	.	.	.	2.ryy	.	.	.	4.G\	4G\	a	al	.	2.g/	-dy-	-scel-	.
8r	8r	.	.	.	.	.	.	.	.	.	.	.	.	.	.	.	.	.	.	.	.	.	.	.	.	.	.	.	.	.
8G\	8b 8g 8d/	.	.	.	.	.	.	.	.	.	.	.	.	.	.	.	.	.	.	.	.	.	8G\@	.	.	.	.	.	.	.
8G\	(>4b 4g 4d/	.	.	.	.	.	.	.	.	.	.	.	.	.	.	.	.	.	.	.	.	[4.d\	4.ryy	przed	fian-	.	.	.	.	.
8r	.	.	.	.	.	.	.	.	.	.	.	.	.	.	.	.	.	.	.	.	.	.	.	.	.	.	.	.	.	.
8G\	8cc 8a 8d/	.	.	.	.	.	.	.	.	.	.	.	.	.	.	.	.	.	.	.	.	.	.	.	.	.	.	.	.	.
*	*	*	*	*	*	*	*	*	*	*	*	*	*	*	*	*	*	*	*	*	*	*v	*v	*	*	*	*	*	*	*
=14	=14	=14	=14	=14	=14	=14	=14	=14	=14	=14	=14	=14	=14	=14	=14	=14	=14	=14	=14	=14	=14	=14	=14	=14	=14	=14	=14	=14	=14
8G\	8dd 8b 8d/)	.	.	2.ryy	.	.	.	.	2.ryy	.	.	.	.	2.ryy	.	.	.	2.ryy	.	.	.	8d\L]	.	.	.	4d/	-lek	-lo,	.
8r	8r	.	.	.	.	.	.	.	.	.	.	.	.	.	.	.	.	.	.	.	.	8B\J	.	.	.	.	.	.	.
8G\	8d/	.	.	.	.	.	.	.	.	.	.	.	.	.	.	.	.	.	.	.	.	8A\	nią	-co	.	8r	.	.	.
!	!	!	!	!	!	!	!	!	!	!	!	!	!	!	!	!	!	!	!	!	!	!LO:S:color=dodgerblue	!	!	!	!	!	!	!
4G\	4g 4d 4B/	.	.	.	.	.	.	.	.	.	.	.	.	.	.	.	.	.	.	.	.	(8G\	bie-	can-	.	4r	.	.	.
.	.	.	.	.	.	.	.	.	.	.	.	.	.	.	.	.	.	.	.	.	.	8F#\)	-ży	-di-	.	.	.	.	.
8G\	8g 8d 8B/	.	.	.	.	.	.	.	.	.	.	.	.	.	.	.	.	.	.	.	.	8E\	ba-	-do_a-	.	8r	.	.	.
=15	=15	=15	=15	=15	=15	=15	=15	=15	=15	=15	=15	=15	=15	=15	=15	=15	=15	=15	=15	=15	=15	=15	=15	=15	=15	=15	=15	=15	=15
*	*	*	*	*	*	*	*	*	*	*	*	*	*	*	*	*	*	*	*	*	*	*	*	*	*	*^	*	*	*
4G\	8a 8d 8c/	.	.	2.ryy	.	.	.	.	2.ryy	.	.	.	.	2.ryy	.	.	.	2.ryy	.	.	.	2.D\	-ra-	-gnel-	.	8r	4f#/@	.	.	.
.	8r	.	.	.	.	.	.	.	.	.	.	.	.	.	.	.	.	.	.	.	.	.	.	.	.	8r	.	.	.	.
8G\	8a 8e 8c/	.	.	.	.	.	.	.	.	.	.	.	.	.	.	.	.	.	.	.	.	.	.	.	.	8ee\	8ryy	prze-	af	.
8G\	8a 8f# 8d 8c/	.	.	.	.	.	.	.	.	.	.	.	.	.	.	.	.	.	.	.	.	.	.	.	.	[4.dd\	4.ryy	-de	fian-	.
8r	8r	.	.	.	.	.	.	.	.	.	.	.	.	.	.	.	.	.	.	.	.	.	.	.	.	.	.	.	.	.
8G\	8a 8f# 8d 8c/	.	.	.	.	.	.	.	.	.	.	.	.	.	.	.	.	.	.	.	.	.	.	.	.	.	.	.	.	.
*	*	*	*	*	*	*	*	*	*	*	*	*	*	*	*	*	*	*	*	*	*	*	*	*	*	*v	*v	*	*	*
=16	=16	=16	=16	=16	=16	=16	=16	=16	=16	=16	=16	=16	=16	=16	=16	=16	=16	=16	=16	=16	=16	=16	=16	=16	=16	=16	=16	=16	=16
4G\	4a 4f# 4d 4c/	.	.	2.ryy	.	.	.	.	2.ryy	.	.	.	.	2.ryy	.	.	.	2.ryy	.	.	.	4D\	-nek,	-lo	.	8dd\L]	.	.	.
.	.	.	.	.	.	.	.	.	.	.	.	.	.	.	.	.	.	.	.	.	.	.	.	.	.	8a\J	.	-co	.
8B 8G\	8b 8f# 8d/	.	.	.	.	.	.	.	.	.	.	.	.	.	.	.	.	.	.	.	.	8r	.	.	.	8b\	mną	un	.
4A 4G\	4cc 4f# 4d/	.	.	.	.	.	.	.	.	.	.	.	.	.	.	.	.	.	.	.	.	4r	.	.	.	8cc\	bie-	can-	.
.	.	.	.	.	.	.	.	.	.	.	.	.	.	.	.	.	.	.	.	.	.	.	.	.	.	8b\	-ży	-di-	.
8c 8G\	8a 8f# 8d/	.	.	.	.	.	.	.	.	.	.	.	.	.	.	.	.	.	.	.	.	8r	.	.	.	8a\	ba-	-do_a-	.
=17	=17	=17	=17	=17	=17	=17	=17	=17	=17	=17	=17	=17	=17	=17	=17	=17	=17	=17	=17	=17	=17	=17	=17	=17	=17	=17	=17	=17	=17
8B 8G\	8g 8d/	.	.	2.ryy	.	.	.	.	2.ryy	.	.	.	.	2.ryy	.	.	.	2.ryy	.	.	.	8r	.	.	.	4.g/	-ra-	-gnel-	.
8r	8r	.	.	.	.	.	.	.	.	.	.	.	.	.	.	.	.	.	.	.	.	8r	.	.	.	.	.	.	.
[>8GG/	8g 8e 8B/	.	.	.	.	.	.	.	.	.	.	.	.	.	.	.	.	.	.	.	.	8E\	a	scor-	.	.	.	.	.
8GG] 8GGG/	4g 4d 4B/	.	.	.	.	.	.	.	.	.	.	.	.	.	.	.	.	.	.	.	.	[4.D\	nad	-raz-	.	4b/	-nek.	-lo	.
8r	.	.	.	.	.	.	.	.	.	.	.	.	.	.	.	.	.	.	.	.	.	.	.	.	.	.	.	.	.
8D| 8GG/	8g 8d 8B/	.	.	.	.	.	.	.	.	.	.	.	.	.	.	.	.	.	.	.	.	.	.	.	.	8r	.	.	.
!!LO:LB:g=original
=18	=18	=18	=18	=18	=18	=18	=18	=18	=18	=18	=18	=18	=18	=18	=18	=18	=18	=18	=18	=18	=18	=18	=18	=18	=18	=18	=18	=18	=18
4D 4GG/	4g 4d 4B/	.	.	2.ryy	.	.	.	.	2.ryy	.	.	.	.	2.ryy	.	.	.	2.ryy	.	.	.	8D\L]	.	.	.	4r	.	.	.
.	.	.	.	.	.	.	.	.	.	.	.	.	.	.	.	.	.	.	.	.	.	8E\J	.	.	.	.	.	.	.
8D 8GG/	8d 8B/	.	.	.	.	.	.	.	.	.	.	.	.	.	.	.	.	.	.	.	.	8F#\	nią	-za,	.	8r	.	.	.
.	.	.	.	.	.	.	.	.	.	.	.	.	.	.	.	.	.	.	.	.	.	8qA/	.	.	.	.	.	.	.
8D 8GG/	8g 8B/	.	.	.	.	.	.	.	.	.	.	.	.	.	.	.	.	.	.	.	.	8G\	le-	va	.	4r	.	.	.
8r	8r	.	.	.	.	.	.	.	.	.	.	.	.	.	.	.	.	.	.	.	.	8F#\	-ci	e	.	.	.	.	.
8G 8GG/	8g 8d 8B/	.	.	.	.	.	.	.	.	.	.	.	.	.	.	.	.	.	.	.	.	8G\	mo-	ri-	.	8g/	na-	scor-	.
=19	=19	=19	=19	=19	=19	=19	=19	=19	=19	=19	=19	=19	=19	=19	=19	=19	=19	=19	=19	=19	=19	=19	=19	=19	=19	=19	=19	=19	=19
*^	*	*	*	*	*	*	*	*	*	*	*	*	*	*	*	*	*	*	*	*	*	*^	*	*	*	*^	*	*	*
!	!	!	!	!	!	!	!	!	!	!	!	!	!	!	!	!	!	!	!	!	!	!	!	!	!	!	!	!LO:TX:t=P:problem=mixed beam	!	!	!	!
8F#/	(2.GG\	4a 4d 4c/	.	.	2.ryy	.	.	.	.	2.ryy	.	.	.	.	2.ryy	.	.	.	2.ryy	.	.	.	4.A\	4A\	-ty-	-tor-	.	(8f#/L	8ryy	-de	-raz-	.
!	!	!	!	!	!	!	!	!	!	!	!	!	!	!	!	!	!	!	!	!	!	!	!	!	!	!	!	!	!LO:TX:t=P:stem.color=red:problem	!	!	!
8r	.	.	.	.	.	.	.	.	.	.	.	.	.	.	.	.	.	.	.	.	.	.	.	.	.	.	.	8ff#\J)	8ff#\L	.	.	.
8F#/	.	8a 8d 8c/	.	.	.	.	.	.	.	.	.	.	.	.	.	.	.	.	.	.	.	.	.	8D\§	.	.	.	8ee\	8ee\J	mną	.	.
8F#/	.	4a 4d 4c/	.	.	.	.	.	.	.	.	.	.	.	.	.	.	.	.	.	.	.	.	4D\	4ryy	-lek	-na	.	[4.dd\	4.ryy	le-	-za	.
8r	.	.	.	.	.	.	.	.	.	.	.	.	.	.	.	.	.	.	.	.	.	.	.	.	.	.	.	.	.	.	.	.
8F#/	.	8a 8d 8c/	.	.	.	.	.	.	.	.	.	.	.	.	.	.	.	.	.	.	.	.	8r	8ryy	.	.	.	.	.	.	.	.
*v	*v	*	*	*	*	*	*	*	*	*	*	*	*	*	*	*	*	*	*	*	*	*	*v	*v	*	*	*	*	*	*	*	*
=20	=20	=20	=20	=20	=20	=20	=20	=20	=20	=20	=20	=20	=20	=20	=20	=20	=20	=20	=20	=20	=20	=20	=20	=20	=20	=20	=20	=20	=20	=20
8F# 8FF#/)	8a 8d 8c/	.	.	2.ryy	.	.	.	.	2.ryy	.	.	.	.	2.ryy	.	.	.	2.ryy	.	.	.	2.r	.	.	.	8dd\L]	4.ryy	.	.	.
8r	8r	.	.	.	.	.	.	.	.	.	.	.	.	.	.	.	.	.	.	.	.	.	.	.	.	8a\J	.	.	.	.
[8D/	8d/	.	.	.	.	.	.	.	.	.	.	.	.	.	.	.	.	.	.	.	.	.	.	.	.	8b\	.	-ci,	zen	.
!	!	!	!	!	!	!	!	!	!	!	!	!	!	!	!	!	!	!	!	!	!	!	!	!	!	!	!LO:TX:t=P:stem.color=grey:problem	!	!	!
4.D] 4.DD/	4a 4f#/	.	.	.	.	.	.	.	.	.	.	.	.	.	.	.	.	.	.	.	.	.	.	.	.	(<8cc\	8cc\L	le-	va	.
.	.	.	.	.	.	.	.	.	.	.	.	.	.	.	.	.	.	.	.	.	.	.	.	.	.	16qqdd/LL	.	.	.	.
.	.	.	.	.	.	.	.	.	.	.	.	.	.	.	.	.	.	.	.	.	.	.	.	.	.	16qqcc/JJ	.	.	.	.
.	.	.	.	.	.	.	.	.	.	.	.	.	.	.	.	.	.	.	.	.	.	.	.	.	.	8b\)	8b\J	-ci	e	.
.	8cc 8a/	.	.	.	.	.	.	.	.	.	.	.	.	.	.	.	.	.	.	.	.	.	.	.	.	8a/	8ryy	mo-	ri-	.
=21	=21	=21	=21	=21	=21	=21	=21	=21	=21	=21	=21	=21	=21	=21	=21	=21	=21	=21	=21	=21	=21	=21	=21	=21	=21	=21	=21	=21	=21	=21
8D 8GG/	8b 8g/	.	.	2.ryy	.	.	.	.	2.ryy	.	.	.	.	2.ryy	.	.	.	2.ryy	.	.	.	8r	.	.	.	8cc\	4b\§	-ty-	-tor-	.
8r	8r	.	.	.	.	.	.	.	.	.	.	.	.	.	.	.	.	.	.	.	.	8r	.	.	.	8b\	.	-lek,	-na,	.
!	!	!LO:HP:b=2	!	!	!	!	!	!	!	!	!	!	!	!	!	!	!	!	!	!	!	!	!	!	!LO:DY:a	!	!	!	!	!
8D\	8r	mf <	.	.	.	.	.	.	.	.	.	.	.	.	.	.	.	.	.	.	.	8BB/	a	al	mf	8r	8ryy	.	.	.
!	!	!	!	!	!	!	!	!	!	!	!	!	!	!	!	!	!	!	!	!	!	!	!	!	!	!	!LO:TX:t=P:stem.color=grey:problem	!	!	!LO:DY:a
(4B\	(>4b^/	.	.	.	.	.	.	.	.	.	.	.	.	.	.	.	.	.	.	.	.	4B\	przed	fian-	.	8b\	4b/	prze-	al	mf
.	.	.	.	.	.	.	.	.	.	.	.	.	.	.	.	.	.	.	.	.	.	.	.	.	.	8b\	.	-de	fian-	.
!	!	!	!	!	!	!	!	!	!	!	!	!	!	!	!	!	!	!	!	!	!	!	!	!	!	!	!LO:TX:t=P:stem.color=grey:problem	!	!	!
8A\	8dd#X 8b/	.	.	.	.	.	.	.	.	.	.	.	.	.	.	.	.	.	.	.	.	8A\	nią	-co_un	.	8dd#X\	8dd#/	mną	-co_un	.
=22	=22	=22	=22	=22	=22	=22	=22	=22	=22	=22	=22	=22	=22	=22	=22	=22	=22	=22	=22	=22	=22	=22	=22	=22	=22	=22	=22	=22	=22	=22
*	*	*	*	*	*	*	*	*	*	*	*	*	*	*	*	*	*	*	*	*	*	*^	*	*	*	*	*	*	*	*
!	!	!	!	!	!	!	!	!	!	!	!	!	!	!	!	!	!	!	!	!	!	!	!LO:TX:t=P:stem.color=grey:problem	!	!	!	!	!	!	!	!
4G\	4.ee 4.b/	.	.	2.ryy	.	.	.	.	2.ryy	.	.	.	.	2.ryy	.	.	.	2.ryy	.	.	.	8G\	8G\L	bie-	can-	.	4.ee\	4.ryy	bie-	can-	.
.	.	.	.	.	.	.	.	.	.	.	.	.	.	.	.	.	.	.	.	.	.	8BB/	8BB/J	-ży	-di-	.	.	.	.	.	.
8BB/	.	.	.	.	.	.	.	.	.	.	.	.	.	.	.	.	.	.	.	.	.	8E\	8ryy	ba-	-do	.	.	.	.	.	.
!	!	!	!	!	!	!	!	!	!	!	!	!	!	!	!	!	!	!	!	!	!	!	!	!	!	!	!	!LO:TX:t=P:stem.color=grey:problem	!	!	!
4G\	4b^/	.	.	.	.	.	.	.	.	.	.	.	.	.	.	.	.	.	.	.	.	(4G\	4.ryy	-ra-	a-	.	4b\	8b\	-ży	-di-	.
.	.	.	.	.	.	.	.	.	.	.	.	.	.	.	.	.	.	.	.	.	.	.	.	.	.	.	.	8b\§	.	.	.
8F#\	8dd#X 8a/	[[	.	.	.	.	.	.	.	.	.	.	.	.	.	.	.	.	.	.	.	8F#\)	.	.	-gnel-	.	8dd#X\	8ryy	ba-	-do_a-	.
*	*	*	*	*	*	*	*	*	*	*	*	*	*	*	*	*	*	*	*	*	*	*v	*v	*	*	*	*	*	*	*	*
*	*	*	*	*	*	*	*	*	*	*	*	*	*	*	*	*	*	*	*	*	*	*	*	*	*	*v	*v	*	*	*
!!LO:LB:g=original
=23	=23	=23	=23	=23	=23	=23	=23	=23	=23	=23	=23	=23	=23	=23	=23	=23	=23	=23	=23	=23	=23	=23	=23	=23	=23	=23	=23	=23	=23
*	*^	*^	*	*	*	*	*	*	*	*	*	*	*	*	*	*	*	*	*	*	*	*	*	*	*	*	*	*	*
!	!	!	!	!LO:HP:b=2	!	!	!	!	!	!	!	!	!	!	!	!	!	!	!	!	!	!	!	!	!	!	!LO:HP:a	!	!	!	!LO:HP:b
4E\	4ee 4g/	4.ryy	>	>	.	2.ryy	.	.	.	.	2.ryy	.	.	.	.	2.ryy	.	.	.	2.ryy	.	.	.	4E\	-nek,	-lo,	>	(4.ee\	-ra-	-gnel-	>
8D\	8f#/	.	]	]	.	.	.	.	.	.	.	.	.	.	.	.	.	.	.	.	.	.	.	8G\	a	scor-	]	.	.	.	.
4C^\	4g/	4.e\	.	.	.	.	.	.	.	.	.	.	.	.	.	.	.	.	.	.	.	.	.	4E\	nad	-raz-	.	4g/)	-nek,	-lo	]
!	!	!	!	!LO:DY:rj	!	!	!	!	!	!	!	!	!	!	!	!	!	!	!	!	!	!	!	!	!	!	!LO:DY:a:rj	!	!	!	!LO:DY:a:rj
8E\	8cc/	.	.	pp	.	.	.	.	.	.	.	.	.	.	.	.	.	.	.	.	.	.	.	8C/	nią	-za	pp	8cc\	na-	scor-	pp
*	*	*	*v	*v	*	*	*	*	*	*	*	*	*	*	*	*	*	*	*	*	*	*	*	*	*	*	*	*	*	*	*
*	*v	*v	*	*	*	*	*	*	*	*	*	*	*	*	*	*	*	*	*	*	*	*	*	*	*	*	*	*	*	*
=24	=24	=24	=24	=24	=24	=24	=24	=24	=24	=24	=24	=24	=24	=24	=24	=24	=24	=24	=24	=24	=24	=24	=24	=24	=24	=24	=24	=24	=24
*	*	*	*	*	*	*	*	*	*	*	*	*	*	*	*	*	*	*	*	*	*	*^	*	*	*	*^	*	*	*
!	!	!	!	!	!	!	!	!	!	!	!	!	!	!	!	!	!	!	!	!	!	!	!	!	!	!	!LO:S:color=grey	!LO:TX:t=P:stem.color=grey:problem	!	!	!
8G\)	4.b 4.g 4.d/	.	.	2.ryy	.	.	.	.	2.ryy	.	.	.	.	2.ryy	.	.	.	2.ryy	.	.	.	4.GG/	4GG/	le-	va,	.	(<8b/	8b/L	-de	-raz-	.
8r	.	.	.	.	.	.	.	.	.	.	.	.	.	.	.	.	.	.	.	.	.	.	.	.	.	.	8a/)	8a/J	mną	-za_e	.
8GG/	.	.	.	.	.	.	.	.	.	.	.	.	.	.	.	.	.	.	.	.	.	.	8GG/§	.	.	.	8g/	8ryy	mo-	ri-	.
!	!	!	!	!	!	!	!	!	!	!	!	!	!	!	!	!	!	!	!	!	!	!	!	!	!	!	!LO:TX:t=P:problem=mixed beam	!	!	!	!
4.AA;</	4.a 4.f# 4.c^;/	.	.	.	.	.	.	.	.	.	.	.	.	.	.	.	.	.	.	.	.	4AA;/	4.ryy	-ci	e	.	(8f#/L	4ryy	-ty-	-tor-	.
.	.	.	.	.	.	.	.	.	.	.	.	.	.	.	.	.	.	.	.	.	.	.	.	.	.	.	8dd;\J	.	.	.	.
.	.	.	.	.	.	.	.	.	.	.	.	.	.	.	.	.	.	.	.	.	.	8AA/	.	mo-	ri-	.	8cc\)	8ryy	.	.	.
*	*	*	*	*	*	*	*	*	*	*	*	*	*	*	*	*	*	*	*	*	*	*v	*v	*	*	*	*	*	*	*	*
*	*	*	*	*	*	*	*	*	*	*	*	*	*	*	*	*	*	*	*	*	*	*	*	*	*	*v	*v	*	*	*
=25	=25	=25	=25	=25	=25	=25	=25	=25	=25	=25	=25	=25	=25	=25	=25	=25	=25	=25	=25	=25	=25	=25	=25	=25	=25	=25	=25	=25	=25
*^	*	*	*	*	*	*	*	*	*	*	*	*	*	*	*	*	*	*	*	*	*	*	*	*	*	*	*	*	*
!	!	!	!	!	!	!	!	!	!	!	!	!	!	!	!	!	!	!	!	!	!	!	!	!	!	!LO:HP:b	!	!	!	!
N(8.BB;/L	2.BBB\	4f# 4d#X/)	.	.	2.ryy	.	.	.	.	2.ryy	.	.	.	.	2.ryy	.	.	.	2.ryy	.	.	.	2.BB;/	-ty-	-tor-	>]	4b\	-lek.	-na.	.
!	!	!	!LO:DY:b=2	!	!	!	!	!	!	!	!	!	!	!	!	!	!	!	!	!	!	!	!	!	!	!	!	!	!	!
16D#X/L	.	.	p	.	.	.	.	.	.	.	.	.	.	.	.	.	.	.	.	.	.	.	.	.	.	.	.	.	.	.
!LO:TX:b:i:t=dolce.	!	!	!	!	!	!	!	!	!	!	!	!	!	!	!	!	!	!	!	!	!	!	!	!	!	!	!	!	!	!
16F#/	.	8r	.	.	.	.	.	.	.	.	.	.	.	.	.	.	.	.	.	.	.	.	.	.	.	.	8r;	.	.	.
16A/JJ	.	.	.	.	.	.	.	.	.	.	.	.	.	.	.	.	.	.	.	.	.	.	.	.	.	.	.	.	.	.
!LO:TX:t=P:problem=mixed beam	!	!	!	!	!	!	!	!	!	!	!	!	!	!	!	!	!	!	!	!	!	!	!	!	!	!	!	!	!	!
16B/LL	.	4ryy	.	.	.	.	.	.	.	.	.	.	.	.	.	.	.	.	.	.	.	.	.	.	.	.	4r	.	.	.
16d#X>\	.	.	.	.	.	.	.	.	.	.	.	.	.	.	.	.	.	.	.	.	.	.	.	.	.	.	.	.	.	.
16f#>\	.	.	.	.	.	.	.	.	.	.	.	.	.	.	.	.	.	.	.	.	.	.	.	.	.	.	.	.	.	.
16g>\	.	.	.	.	.	.	.	.	.	.	.	.	.	.	.	.	.	.	.	.	.	.	.	.	.	.	.	.	.	.
16b>\	.	8ryy	.	.	.	.	.	.	.	.	.	.	.	.	.	.	.	.	.	.	.	.	.	.	.	.	8r	.	.	.
16dd#X>\JJ	.	.	.	.	.	.	.	.	.	.	.	.	.	.	.	.	.	.	.	.	.	.	.	.	.	.	.	.	.	.
*v	*v	*	*	*	*	*	*	*	*	*	*	*	*	*	*	*	*	*	*	*	*	*	*	*	*	*	*	*	*	*
=26	=26	=26	=26	=26	=26	=26	=26	=26	=26	=26	=26	=26	=26	=26	=26	=26	=26	=26	=26	=26	=26	=26	=26	=26	=26	=26	=26	=26	=26
2.r	16ff#\LL	.	.	2.ryy	.	.	.	.	2.ryy	.	.	.	.	2.ryy	.	.	.	2.ryy	.	.	.	4BB/	-lek.	-na!	.	2.r	.	.	.
.	16gg\	.	.	.	.	.	.	.	.	.	.	.	.	.	.	.	.	.	.	.	.	.	.	.	.	.	.	.	.
.	16bb\	.	.	.	.	.	.	.	.	.	.	.	.	.	.	.	.	.	.	.	.	.	.	.	.	.	.	.	.
.	16aa\	.	.	.	.	.	.	.	.	.	.	.	.	.	.	.	.	.	.	.	.	.	.	.	.	.	.	.	.
.	16ff#\	.	.	.	.	.	.	.	.	.	.	.	.	.	.	.	.	.	.	.	.	8r	.	.	.	.	.	.	.
.	16dd#X\JJ	.	.	.	.	.	.	.	.	.	.	.	.	.	.	.	.	.	.	.	.	.	.	.	.	.	.	.	.
.	16b/LL	.	.	.	.	.	.	.	.	.	.	.	.	.	.	.	.	.	.	.	.	4r	.	.	.	.	.	.	.
.	16a#X/	.	.	.	.	.	.	.	.	.	.	.	.	.	.	.	.	.	.	.	.	.	.	.	.	.	.	.	.
.	16an/	.	.	.	.	.	.	.	.	.	.	.	.	.	.	.	.	.	.	.	.	.	.	.	.	.	.	.	.
.	16f#/	.	.	.	.	.	.	.	.	.	.	.	.	.	.	.	.	.	.	.	.	.	.	.	.	.	.	.	.
!	!	!	!	!	!	!	!	!	!	!	!	!	!	!	!	!	!	!	!	!	!	!LO:TX:a:t=V&colon; S&colon;	!	!	!	!	!	!	!
.	16d#X/	.	.	.	.	.	.	.	.	.	.	.	.	.	.	.	.	.	.	.	.	8r	.	.	.	.	.	.	.
!	!LO:TX:b:t=V&colon; S&colon;	!	!	!	!	!	!	!	!	!	!	!	!	!	!	!	!	!	!	!	!	!	!	!	!	!	!	!	!
.	16B/JJN)	.	.	.	.	.	.	.	.	.	.	.	.	.	.	.	.	.	.	.	.	.	.	.	.	.	.	.	.
!!LO:PB:g=original
=27	=27	=27	=27	=27	=27	=27	=27	=27	=27	=27	=27	=27	=27	=27	=27	=27	=27	=27	=27	=27	=27	=27	=27	=27	=27	=27	=27	=27	=27
!	!	!LO:DY:rj:b=2	!	!	!	!	!	!	!	!	!	!	!	!	!	!	!	!	!	!	!	!	!	!	!	!	!	!	!
8BB 8EE'/	4r	pp	.	2.ryy	.	.	.	.	2.ryy	.	.	.	.	2.ryy	.	.	.	2.ryy	.	.	.	4r	.	.	.	4r	.	.	.
8r	.	.	.	.	.	.	.	.	.	.	.	.	.	.	.	.	.	.	.	.	.	.	.	.	.	.	.	.	.
8B 8E'\	8r	.	.	.	.	.	.	.	.	.	.	.	.	.	.	.	.	.	.	.	.	8r	.	.	.	8r	.	.	.
!	!LO:TX:b:i:t=dolcissimo.	!	!	!	!	!	!	!	!	!	!	!	!	!	!	!	!	!	!	!	!	!	!	!	!	!LO:TX:a:i:t=dolcissimo	!	!	!
8B 8E'\	(4gg#X 4ee 4g#X\	.	.	.	.	.	.	.	.	.	.	.	.	.	.	.	.	.	.	.	.	4E\	Na	.	.	4g#X/	Na	Far-	.
8r	.	.	.	.	.	.	.	.	.	.	.	.	.	.	.	.	.	.	.	.	.	.	.	.	.	.	.	.	.
8BB 8EE'/	8aa 8ff# 8a\	.	.	.	.	.	.	.	.	.	.	.	.	.	.	.	.	.	.	.	.	8F#\	ba-	.	.	8a/	ba-	-fal-	.
=28	=28	=28	=28	=28	=28	=28	=28	=28	=28	=28	=28	=28	=28	=28	=28	=28	=28	=28	=28	=28	=28	=28	=28	=28	=28	=28	=28	=28	=28
8BB 8EE'/	4bb 4gg#X 4b\)	.	.	2.ryy	.	.	.	.	2.ryy	.	.	.	.	2.ryy	.	.	.	2.ryy	.	.	.	4G#X\	-ran-	.	.	4b\	-ran-	-let-	.
8r	.	.	.	.	.	.	.	.	.	.	.	.	.	.	.	.	.	.	.	.	.	.	.	.	.	.	.	.	.
8B 8E'\	(8eee 8gg# 8ee\	.	.	.	.	.	.	.	.	.	.	.	.	.	.	.	.	.	.	.	.	8G#\	-ka	.	.	8ee\	-ka	-ta	.
8B 8E'\	4ddd#X 4gg# 4dd#X\	.	.	.	.	.	.	.	.	.	.	.	.	.	.	.	.	.	.	.	.	4F#\	bez	.	.	4dd#X\	bez	lu-	.
8r	.	.	.	.	.	.	.	.	.	.	.	.	.	.	.	.	.	.	.	.	.	.	.	.	.	.	.	.	.
!	!LO:SIC:v:s=8ccc# 8gg# 8cc#\	!	!	!	!	!	!	!	!	!	!	!	!	!	!	!	!	!	!	!	!	!	!	!	!	!	!	!	!
8B 8E'\	8ccc 8gg# 8cc\	.	.	.	.	.	.	.	.	.	.	.	.	.	.	.	.	.	.	.	.	8E\	u-	.	.	8cc#X\	u-	-mi-	.
=29	=29	=29	=29	=29	=29	=29	=29	=29	=29	=29	=29	=29	=29	=29	=29	=29	=29	=29	=29	=29	=29	=29	=29	=29	=29	=29	=29	=29	=29
.	8qddd#X/	.	.	.	.	.	.	.	.	.	.	.	.	.	.	.	.	.	.	.	.	.	.	.	.	.	.	.	.
8BB 8EE'/	4ccc#X 4aa 4cc#X\	.	.	2.ryy	.	.	.	.	2.ryy	.	.	.	.	2.ryy	.	.	.	2.ryy	.	.	.	4E\	-stan-	.	.	4cc#X\	-stan-	-no-	.
8r	.	.	.	.	.	.	.	.	.	.	.	.	.	.	.	.	.	.	.	.	.	.	.	.	.	.	.	.	.
8B 8A 8F# 8E'\	8bb 8b\)	.	.	.	.	.	.	.	.	.	.	.	.	.	.	.	.	.	.	.	.	8D#X\	-ku	.	.	8b\	-ku	-sa	.
8B 8A 8F# 8E'\	(4dd#X 4b\	.	.	.	.	.	.	.	.	.	.	.	.	.	.	.	.	.	.	.	.	4B\	wo-	sul	.	4d#X/	wo-	sul	.
8r	.	.	.	.	.	.	.	.	.	.	.	.	.	.	.	.	.	.	.	.	.	.	.	.	.	.	.	.	.
8BB 8EE'/	8ee 8cc#X\	.	.	.	.	.	.	.	.	.	.	.	.	.	.	.	.	.	.	.	.	8A#X\	-ła:	suo	.	8e/	-łam:	suo	.
=30	=30	=30	=30	=30	=30	=30	=30	=30	=30	=30	=30	=30	=30	=30	=30	=30	=30	=30	=30	=30	=30	=30	=30	=30	=30	=30	=30	=30	=30
*rep	*	*	*	*	*	*	*	*	*	*	*	*	*	*	*	*	*	*	*	*	*	*	*	*	*	*	*	*	*
8BB 8EE'/	4ff# 4dd#X\	.	.	2.ryy	.	.	.	.	2.ryy	.	.	.	.	2.ryy	.	.	.	2.ryy	.	.	.	4An\	baś,	crin	.	4f#/	baś,	crin	.
8r	.	.	.	.	.	.	.	.	.	.	.	.	.	.	.	.	.	.	.	.	.	.	.	.	.	.	.	.	.
8B 8A 8F# 8E'\	[8aa [8ee [8cc#X\	.	.	.	.	.	.	.	.	.	.	.	.	.	.	.	.	.	.	.	.	[8C#X^>/	baś	.	.	[8a^>/	baś!	vi-	.
8B 8A 8F# 8E'\	8aa]L 8ee] 8cc#\]	.	.	.	.	.	.	.	.	.	.	.	.	.	.	.	.	.	.	.	.	8C#/]	.	.	.	8a/]	.	.	.
8r	8gg#X 8ee 8b'\	.	.	.	.	.	.	.	.	.	.	.	.	.	.	.	.	.	.	.	.	8BB/	mój	.	.	8g#X/	mój	-spa	.
8BB 8EE'/	8ff#J 8dd#X 8b 8a'\	.	.	.	.	.	.	.	.	.	.	.	.	.	.	.	.	.	.	.	.	8D#X/	ba-	.	.	8f#/	ba-	si	.
*Xrep	*	*	*	*	*	*	*	*	*	*	*	*	*	*	*	*	*	*	*	*	*	*	*	*	*	*	*	*	*
!!LO:LB:g=original
=31	=31	=31	=31	=31	=31	=31	=31	=31	=31	=31	=31	=31	=31	=31	=31	=31	=31	=31	=31	=31	=31	=31	=31	=31	=31	=31	=31	=31	=31
8BB 8EE'/	4ee 4g#X\	.	.	2.ryy	.	.	.	.	2.ryy	.	.	.	.	2.ryy	.	.	.	2.ryy	.	.	.	4E\	-ran-	.	.	4e/	-ran-	po-	.
8r	.	.	.	.	.	.	.	.	.	.	.	.	.	.	.	.	.	.	.	.	.	.	.	.	.	.	.	.	.
8B 8E'\	8b 8g#/)	.	.	.	.	.	.	.	.	.	.	.	.	.	.	.	.	.	.	.	.	8BB/	-ku!	.	.	8b\	-ku,	-sa,	.
!	!	!	!	!	!	!	!	!	!	!	!	!	!	!	!	!	!	!	!	!	!	!	!	!	!	!	!	!	!LO:DY:a
8B 8E'\	(4g#X 4e/	mf	.	.	.	.	.	.	.	.	.	.	.	.	.	.	.	.	.	.	.	4G#X\	na	.	.	4ee\	na	far-	pp
8r	.	.	.	.	.	.	.	.	.	.	.	.	.	.	.	.	.	.	.	.	.	.	.	.	.	.	.	.	.
8BB 8EE'/	8a 8f#/	.	.	.	.	.	.	.	.	.	.	.	.	.	.	.	.	.	.	.	.	8A\	ba-	.	.	8ff#\	ba-	-fal-	.
=32	=32	=32	=32	=32	=32	=32	=32	=32	=32	=32	=32	=32	=32	=32	=32	=32	=32	=32	=32	=32	=32	=32	=32	=32	=32	=32	=32	=32	=32
*	*^	*	*	*	*	*	*	*	*	*	*	*	*	*	*	*	*	*	*	*	*	*	*	*	*	*	*	*	*
*rep	*	*	*	*	*	*	*	*	*	*	*	*	*	*	*	*	*	*	*	*	*	*	*	*	*	*	*	*	*	*
8BB 8EE'/	4b 4g#X/	4.ryy	.	.	2.ryy	.	.	.	.	2.ryy	.	.	.	.	2.ryy	.	.	.	2.ryy	.	.	.	4B\	-ran-	.	.	4gg#X\	-ran-	-let-	.
8r	.	.	.	.	.	.	.	.	.	.	.	.	.	.	.	.	.	.	.	.	.	.	.	.	.	.	.	.	.	.
8B 8E'\	[8ee 8g#/	.	.	.	.	.	.	.	.	.	.	.	.	.	.	.	.	.	.	.	.	.	8e\	-ka	.	.	8ee\	-ka	-ta	.
8B 8E'\	8ee/L]	4g# 4e\	.	.	.	.	.	.	.	.	.	.	.	.	.	.	.	.	.	.	.	.	8e\L	bez	.	.	4b\	bez	lu-	.
8r	8dd#X/	.	.	.	.	.	.	.	.	.	.	.	.	.	.	.	.	.	.	.	.	.	8d#X\J	.	.	.	.	.	.	.
8BB 8EE'/	8cc#X/J)	8g# 8e\	.	.	.	.	.	.	.	.	.	.	.	.	.	.	.	.	.	.	.	.	8c#X\	u-	.	.	8ee\	u-	-mi-	.
*Xrep	*	*	*	*	*	*	*	*	*	*	*	*	*	*	*	*	*	*	*	*	*	*	*	*	*	*	*	*	*	*
*	*v	*v	*	*	*	*	*	*	*	*	*	*	*	*	*	*	*	*	*	*	*	*	*	*	*	*	*	*	*	*
=33	=33	=33	=33	=33	=33	=33	=33	=33	=33	=33	=33	=33	=33	=33	=33	=33	=33	=33	=33	=33	=33	=33	=33	=33	=33	=33	=33	=33	=33
.	(8qdd#X/	.	.	.	.	.	.	.	.	.	.	.	.	.	.	.	.	.	.	.	.	(8qd#X/	.	.	.	(8qff#X/	.	.	.
*^	*	*	*	*	*	*	*	*	*	*	*	*	*	*	*	*	*	*	*	*	*	*	*	*	*	*	*	*	*
8BB 8BBB/	4.ryy	(>4cc#X 4a 4d#X/)	.	.	2.ryy	.	.	.	.	2.ryy	.	.	.	.	2.ryy	.	.	.	2.ryy	.	.	.	4c#X\)	-stan-	.	.	4ee\)	-stan-	-no-	.
8r	.	.	.	.	.	.	.	.	.	.	.	.	.	.	.	.	.	.	.	.	.	.	.	.	.	.	.	.	.	.
8B 8A 8F#\	.	8b 8a 8d#/)	.	.	.	.	.	.	.	.	.	.	.	.	.	.	.	.	.	.	.	.	8B\	-ku	.	.	8dd#X\	-ku	-sa	.
4A 4F#/	4.BB\	(4f# 4d#/	.	.	.	.	.	.	.	.	.	.	.	.	.	.	.	.	.	.	.	.	4D#X\	wo-	sul	.	4f#/	wo-	sul	.
8G#X 8E/	.	8g#X 8e/	.	.	.	.	.	.	.	.	.	.	.	.	.	.	.	.	.	.	.	.	8E\	-ła:	suo	.	8g#X/	-łam:	suo	.
=34	=34	=34	=34	=34	=34	=34	=34	=34	=34	=34	=34	=34	=34	=34	=34	=34	=34	=34	=34	=34	=34	=34	=34	=34	=34	=34	=34	=34	=34	=34
8F# 8D#X/	8BB\	8a 8f#/)	.	.	2.ryy	.	.	.	.	2.ryy	.	.	.	.	2.ryy	.	.	.	2.ryy	.	.	.	8F#'\	baś,	crin	.	8a/	baś,	crin	.
8r	8ryy	[4cc#X [>4a [4d#X^>/	.	.	.	.	.	.	.	.	.	.	.	.	.	.	.	.	.	.	.	.	[4A^\	baś,	vi-	.	[4cc#X^\	baś,	vi-	.
16B'\LL	8ryy	.	.	.	.	.	.	.	.	.	.	.	.	.	.	.	.	.	.	.	.	.	.	.	.	.	.	.	.	.
16B'\JJ	.	.	.	.	.	.	.	.	.	.	.	.	.	.	.	.	.	.	.	.	.	.	.	.	.	.	.	.	.	.
!	!	!	!	!	!	!	!	!	!	!	!	!	!	!	!	!	!	!	!	!	!	!	!	!	!	!	!LO:TX:a:i:t=rallentando.	!	!	!
[4B^\	4.ryy	8cc#]L 8a] 8d#/]	.	.	.	.	.	.	.	.	.	.	.	.	.	.	.	.	.	.	.	.	8A\]	.	.	.	8cc#\]	.	.	.
!	!	!LO:TX:b:i:t=rall&colon;	!	!	!	!	!	!	!	!	!	!	!	!	!	!	!	!	!	!	!	!	!LO:TX:a:i:t=rall&colon;	!	!	!	!	!	!	!
.	.	8b 8g#X 8d#/	.	.	.	.	.	.	.	.	.	.	.	.	.	.	.	.	.	.	.	.	8G#X\	mój	-spa	.	8b\	mój	spa	.
8B_ 8BB\	.	8aJ 8f# 8d#/	.	.	.	.	.	.	.	.	.	.	.	.	.	.	.	.	.	.	.	.	8F#\	ba-	.	.	8a\	ba-	si	.
*v	*v	*	*	*	*	*	*	*	*	*	*	*	*	*	*	*	*	*	*	*	*	*	*	*	*	*	*	*	*	*
!!LO:LB:g=original
=35	=35	=35	=35	=35	=35	=35	=35	=35	=35	=35	=35	=35	=35	=35	=35	=35	=35	=35	=35	=35	=35	=35	=35	=35	=35	=35	=35	=35	=35
*	*	*	*	*	*	*	*	*	*	*	*	*	*	*	*	*	*	*	*	*	*	*	*	*	*	*	*	*above	*
4B] 4E\	4g#X 4e/	.	.	2.ryy	.	.	.	.	2.ryy	.	.	.	.	2.ryy	.	.	.	2.ryy	.	.	.	4E\	-ran-	.	.	4g#X/	-ran-	po-	.
8r	8r	.	.	.	.	.	.	.	.	.	.	.	.	.	.	.	.	.	.	.	.	16E\	-ku!	.	.	16e/	-ku!	-sa.	.
.	.	.	.	.	.	.	.	.	.	.	.	.	.	.	.	.	.	.	.	.	.	16r	.	.	.	16r	.	.	.
*	*	*	*	*	*	*	*	*	*	*	*	*	*	*	*	*	*	*	*	*	*	*	*	*	*	*	*	*below	*
!	!	!LO:DY:rj:t=più f.	!	!	!	!	!	!	!	!	!	!	!	!	!	!	!	!	!	!	!	!	!	!	!LO:DY:a:rj:t=più f.	!LO:TX:a:Bi:t=Meno:color=dodgerblue	!	!	!LO:DY:a:rj:t=più f.
!	!	!LO:HP:b=2	!	!	!	!	!	!	!	!	!	!	!	!	!	!	!	!	!	!	!	!	!	!	!	!	!	!	!
(4G 4E\	(4gn 4e/	f <	.	.	.	.	.	.	.	.	.	.	.	.	.	.	.	.	.	.	.	8E\	Ba-	Vez-	f	8gn/	Ba-	Vez-	f
.	.	.	.	.	.	.	.	.	.	.	.	.	.	.	.	.	.	.	.	.	.	8E\	-ra-	-zo-	.	8g/	-ra-	-zo-	.
8A 8F#\	8a 8f#/	.	.	.	.	.	.	.	.	.	.	.	.	.	.	.	.	.	.	.	.	8F#\	-nek	-sa_im-	.	8a/	-nek	-sa_im-	.
=36	=36	=36	=36	=36	=36	=36	=36	=36	=36	=36	=36	=36	=36	=36	=36	=36	=36	=36	=36	=36	=36	=36	=36	=36	=36	=36	=36	=36	=36
!	!	!	!	!	!	!	!	!	!	!	!	!	!	!	!	!	!	!	!	!	!	!	!	!	!LO:HP:a	!	!	!	!LO:HP:a
8B 8G\	8b 8g/	.	.	2.ryy	.	.	.	.	2.ryy	.	.	.	.	2.ryy	.	.	.	2.ryy	.	.	.	(8G\	zaw-	-ma-	<	8b\	zaw-	-ma-	<
4g 4B\)	[4gg [4b/)	[	.	.	.	.	.	.	.	.	.	.	.	.	.	.	.	.	.	.	.	[4B\)	.	-gin	[	[4gg\	.	-gin	[
8AA 8AAA'/	8gg]L 8b/]	.	.	.	.	.	.	.	.	.	.	.	.	.	.	.	.	.	.	.	.	8B\]	.	.	.	8gg\]	.	.	.
4A^\	8ff#| 8cc#X 8a/	.	.	.	.	.	.	.	.	.	.	.	.	.	.	.	.	.	.	.	.	8A\	-sze	di	.	8ff#\	-sze	di	.
.	8ee|J 8cc# 8a 8g/	.	.	.	.	.	.	.	.	.	.	.	.	.	.	.	.	.	.	.	.	8G\	z_da-	can-	.	8ee\	z_da-	can-	.
=37	=37	=37	=37	=37	=37	=37	=37	=37	=37	=37	=37	=37	=37	=37	=37	=37	=37	=37	=37	=37	=37	=37	=37	=37	=37	=37	=37	=37	=37
*^	*^	*	*	*	*	*	*	*	*	*	*	*	*	*	*	*	*	*	*	*	*	*	*	*	*	*	*	*	*
!	!	!	!	!	!	!	!	!	!	!	!	!	!	!	!	!	!	!	!	!	!	!	!	!	!	!	!	!	!	!	!LO:HP:a
4.A/	(4.D\	([<4.dd/	4.f#\	.	.	2.ryy	.	.	.	.	2.ryy	.	.	.	.	2.ryy	.	.	.	2.ryy	.	.	.	8F#\	-le-	-dor,	.	[4.dd\	-le-	-dor	>
.	.	.	.	.	.	.	.	.	.	.	.	.	.	.	.	.	.	.	.	.	.	.	.	8D\	-ka,	si	.	.	.	.	.
.	.	.	.	.	.	.	.	.	.	.	.	.	.	.	.	.	.	.	.	.	.	.	.	8E\	ba-	vez-	.	.	.	.	.
4.B/	4.GG\	8dd/L]	4.fn\	.	.	.	.	.	.	.	.	.	.	.	.	.	.	.	.	.	.	.	.	4.Fn\	-ra-	-zo-	.	8dd\]	.	.	]
.	.	8cc/	.	.	.	.	.	.	.	.	.	.	.	.	.	.	.	.	.	.	.	.	.	.	.	.	.	8cc\	-ka,	si	.
.	.	8dd/J	.	.	.	.	.	.	.	.	.	.	.	.	.	.	.	.	.	.	.	.	.	.	.	.	.	8dd\	ba-	vez-	.
=38	=38	=38	=38	=38	=38	=38	=38	=38	=38	=38	=38	=38	=38	=38	=38	=38	=38	=38	=38	=38	=38	=38	=38	=38	=38	=38	=38	=38	=38	=38	=38
!	!	!	!	!	!	!	!	!	!	!	!	!	!	!	!	!	!	!	!	!	!	!	!	!	!	!	!	!	!	!	!LO:DY:a
8c/	8C\)	8ee/)	8e\	.	.	2.ryy	.	.	.	.	2.ryy	.	.	.	.	2.ryy	.	.	.	2.ryy	.	.	.	8E\	-nek	-sa	.	8ee\	-ra-	-zo-	p
8r	8ryy	8r	8ryy	.	.	.	.	.	.	.	.	.	.	.	.	.	.	.	.	.	.	.	.	8r	.	.	.	16e/LL	-nek	-sa	.
.	.	.	.	.	.	.	.	.	.	.	.	.	.	.	.	.	.	.	.	.	.	.	.	.	.	.	.	16f#/JJ	.	.	.
8E 8C\	8ryy	(16g/LL	8e\	.	.	.	.	.	.	.	.	.	.	.	.	.	.	.	.	.	.	.	.	8E\	z_da-	di	.	16g/LL	z_da-	di	.
.	.	16a/JJ	.	.	.	.	.	.	.	.	.	.	.	.	.	.	.	.	.	.	.	.	.	.	.	.	.	16a/JJ	.	.	.
8E 8BB\	4.ryy	8b/)	8g\	.	.	.	.	.	.	.	.	.	.	.	.	.	.	.	.	.	.	.	.	4.BB/	-le-	can-	.	4.b\	-le-	can-	.
8r	.	8r	8ryy	.	.	.	.	.	.	.	.	.	.	.	.	.	.	.	.	.	.	.	.	.	.	.	.	.	.	.	.
8BB 8BBB/	.	8b 8f# 8B/	8ryy	.	.	.	.	.	.	.	.	.	.	.	.	.	.	.	.	.	.	.	.	.	.	.	.	.	.	.	.
*v	*v	*	*	*	*	*	*	*	*	*	*	*	*	*	*	*	*	*	*	*	*	*	*	*	*	*	*	*	*	*	*
*	*v	*v	*	*	*	*	*	*	*	*	*	*	*	*	*	*	*	*	*	*	*	*	*	*	*	*	*	*	*	*
!!LO:PB:g=original
=39	=39	=39	=39	=39	=39	=39	=39	=39	=39	=39	=39	=39	=39	=39	=39	=39	=39	=39	=39	=39	=39	=39	=39	=39	=39	=39	=39	=39	=39
!	!	!	!	!	!	!	!	!	!	!	!	!	!	!	!	!	!	!LO:TX:t=P:problem=przy kluczu f#	!	!	!	!	!	!	!	!	!	!	!
!	!	!	!	!LO:TX:a:t=tempo 1°:color=dodgerblue:note=podkreślone	!	!	!	!	!LO:TX:t=P:problem=przy kluczu F#	!	!	!	!	!LO:TX:t=P:problem=przy kluczu f#	!	!	!	!LO:TX:a:B:t=Chór.:note=podkreślone	!	!	!	!	!	!	!	!	!	!	!
8E 8EE/	4b 4g 4e/	.	.	2.r	.	.	.	.	2.r	.	.	.	.	4r	.	.	.	4r	.	.	.	4E\	-ka.	-dor.	.	4e/	-ka.	-dor.	.
8r	.	.	.	.	.	.	.	.	.	.	.	.	.	.	.	.	.	.	.	.	.	.	.	.	.	.	.	.	.
8B 8E\	8r	.	.	.	.	.	.	.	.	.	.	.	.	8r	.	.	.	8r	.	.	.	8r	.	.	.	8r	.	.	.
!	!	!	!	!	!	!	!	!	!	!	!	!	!	!	!	!	!LO:DY:a:rj	!	!	!	!LO:DY:a:rj	!	!	!	!	!	!	!	!
4B 4E\	(4b 4g/	.	.	.	.	.	.	.	.	.	.	.	.	4g/	wo-	.	pp	4b\	wo-	Qual	pp	4r	.	.	.	4r	.	.	.
8B 8E\	8dd#X 8a 8f#/	.	.	.	.	.	.	.	.	.	.	.	.	8f#/	-ła:	.	.	8dd#X\	-ła:	can-	.	8r	.	.	.	8r	.	.	.
=40	=40	=40	=40	=40	=40	=40	=40	=40	=40	=40	=40	=40	=40	=40	=40	=40	=40	=40	=40	=40	=40	=40	=40	=40	=40	=40	=40	=40	=40
4B 4E\	4.ee 4.g 4.e/)	.	.	4r	.	.	.	.	4r	.	.	.	.	[4.e/	baś!	.	.	[4.ee\	baś!	-dor!	.	2.r	.	.	.	2.r	.	.	.
8B 8E\	.	.	.	8r	.	.	.	.	8r	.	.	.	.	.	.	.	.	.	.	.	.	.	.	.	.	.	.	.	.
!	!	!	!	!	!	!	!	!LO:DY:a:rj	!	!	!	!	!LO:DY:a:rj	!	!	!	!	!	!	!	!	!	!	!	!	!	!	!	!
(4E 4EE/	(>4g 4e/	.	.	4E\	.	.	.	pp	4G/	wo-	qual	.	pp	4e/]	.	.	.	4ee\]	.	.	.	.	.	.	.	.	.	.	.
8C 8CC/	8cc 8g 8e/	.	.	8C\	.	.	.	.	8c\	-ła:	can-	.	.	8r	.	.	.	8r	.	.	.	.	.	.	.	.	.	.	.
=41	=41	=41	=41	=41	=41	=41	=41	=41	=41	=41	=41	=41	=41	=41	=41	=41	=41	=41	=41	=41	=41	=41	=41	=41	=41	=41	=41	=41	=41
8G 8GG/)	4b 4g 4d/)	.	.	[4.GG/	.	.	.	.	[4.B\	baś!	-dor!	.	.	4r	.	.	.	4r	.	.	.	2.r	.	.	.	2.r	.	.	.
8r	.	.	.	.	.	.	.	.	.	.	.	.	.	.	.	.	.	.	.	.	.	.	.	.	.	.	.	.	.
8B 8G\	8r	.	.	.	.	.	.	.	.	.	.	.	.	8r	.	.	.	8r	.	.	.	.	.	.	.	.	.	.	.
(<4B 4G\	(4b 4g/	.	.	4GG/]	.	.	.	.	4B\]	.	.	.	.	8g/	baś,	.	.	8b\	baś,	la	.	.	.	.	.	.	.	.	.
.	.	.	.	.	.	.	.	.	.	.	.	.	.	8g/	baś,	.	.	8b\	baś,	for-	.	.	.	.	.	.	.	.	.
8B 8F#\	8dd#X 8a/	.	.	8r	.	.	.	.	8r	.	.	.	.	8f#/	ba-	.	.	8dd#X\	ba-	-fal-	.	.	.	.	.	.	.	.	.
=42	=42	=42	=42	=42	=42	=42	=42	=42	=42	=42	=42	=42	=42	=42	=42	=42	=42	=42	=42	=42	=42	=42	=42	=42	=42	=42	=42	=42	=42
4B 4E\	4.ee 4.g/)	.	.	4r	.	.	.	.	4r	.	.	.	.	[4e/	-ran-	.	.	(4ee\	-ran-	-let-	.	2.r	.	.	.	2.r	.	.	.
8B 8D\	.	.	.	8r	.	.	.	.	8r	.	.	.	.	8e/]	-ku!	.	.	8g/)	-ku!	-ta	.	.	.	.	.	.	.	.	.
4c 4C\	4g 4e/	.	.	8E\	ba-	.	[[baś,	.	8G/	ba-	e	[[baś,	.	4r	.	.	.	4r	.	.	.	.	.	.	.	.	.	.	.
.	.	.	.	8E\	-ran-	.	baś,	.	8G/	-ran-	l'ag-	baś,	.	.	.	.	.	.	.	.	.	.	.	.	.	.	.	.	.
8c 8E\)	8cc 8g 8e/	.	.	8C\	-ku	.	ba]]	.	8c\	-ku	-nel-	ba]]	.	8r	.	.	.	8r	.	.	.	.	.	.	.	.	.	.	.
!!LO:LB:g=original
=43	=43	=43	=43	=43	=43	=43	=43	=43	=43	=43	=43	=43	=43	=43	=43	=43	=43	=43	=43	=43	=43	=43	=43	=43	=43	=43	=43	=43	=43
4.d 4.G;\	4.b 4.g;/	.	.	4.GG;/	baś	.	.	.	4.B;\	baś	-li<..>	.	.	4r;	.	.	.	4r;	.	.	.	2.r	.	.	.	2.r	.	.	.
.	.	.	.	.	.	.	.	.	.	.	.	.	.	8r	.	.	.	8r	.	.	.	.	.	.	.	.	.	.	.
!	!	!LO:DY:rj	!	!	!	!	!	!LO:DY:a:rj	!	!	!	!	!LO:DY:a:rj	!	!	!	!LO:DY:a:rj	!	!	!	!LO:DY:a:rj	!	!	!	!	!	!	!	!
8G|L 8E\	8g|L 8e/	f	.	8E\	ba-	vez-	.	f	8G/	ba-	Vez-	.	f	8e/	ba-	.	f	8g/	ba-	Vez-	f	.	.	.	.	.	.	.	.
8G| 8E\	8g| 8e/	.	.	8G\	-ra-	-zo-	.	.	8G/	-ra-	-zo-	.	.	8e/	-ra-	.	.	8g/	-ra-	-zosa	.	.	.	.	.	.	.	.	.
8A|J 8F#\	8a|J 8f#/	.	.	8F#\	-nek	-sa_im-	.	.	8A/	-nek	-sa_im-	.	.	8f#/	-nek	.	.	8a/	-nek	im-	.	.	.	.	.	.	.	.	.
=44	=44	=44	=44	=44	=44	=44	=44	=44	=44	=44	=44	=44	=44	=44	=44	=44	=44	=44	=44	=44	=44	=44	=44	=44	=44	=44	=44	=44	=44
*^	*^	*	*	*	*	*	*	*	*	*	*	*	*	*	*	*	*	*	*	*	*	*	*	*	*	*	*	*	*
!	!	!	!	!	!	!	!	!	!	!	!	!	!	!	!LO:HP:a	!	!	!	!LO:HP:a	!	!	!	!LO:HP:a	!	!	!	!	!	!	!	!
8B| 8G\	4.ryy	8b| 8g 8e/	4.ryy	.	.	4.E\	zaw-	-ma-	.	.	(8B\	zaw-	-ma-	.	<	(8g/	zaw-	.	<	8b/	zaw-	-ma-	<	2.r	.	.	.	2.r	.	.	.
4.g> 4.e> 4.B^^<\	.	(4.bb 4.gg 4.ee 4.b^^/	.	.	.	.	.	.	.	.	[4e\)	.	-gin	.	[	[4b/)	.	.	[	[4gg\	.	-gin	[	.	.	.	.	.	.	.	.
*ped	*	*	*	*	*	*	*	*	*	*	*	*	*	*	*	*	*	*	*	*	*	*	*	*	*	*	*	*	*	*	*
.	.	.	.	.	.	.	.	.	.	.	.	.	.	.	.	.	.	.	.	.	.	.	.	.	.	.	.	.	.	.	.
.	8AA 8AAA|/	.	8A|/	.	.	4A 4AA\	-sze	-gin	.	.	8e\]	.	.	.	.	8b/]	.	.	.	8gg\]	.	.	.	.	.	.	.	.	.	.	.
8f#>L 8c#X 8A\	8ryy	8aaL 8ff# 8cc#X 8a^^/)	8ryy	.	.	.	.	.	.	.	8c#X\	-sze	di	.	.	8a/	-sze	.	.	8ff#\	-sze	di	.	.	.	.	.	.	.	.	.
8e>J 8c# 8A\	8ryy	8ggJ 8ee 8a 8g^^/	8ryy	.	.	8A\	z_da-	vez-	.	.	8A/	z_da-	can-	.	.	8g/	z_da-	.	.	8ee\	z_da-	can-	.	.	.	.	.	.	.	.	.
*Xped	*	*	*	*	*	*	*	*	*	*	*	*	*	*	*	*	*	*	*	*	*	*	*	*	*	*	*	*	*	*	*
=45	=45	=45	=45	=45	=45	=45	=45	=45	=45	=45	=45	=45	=45	=45	=45	=45	=45	=45	=45	=45	=45	=45	=45	=45	=45	=45	=45	=45	=45	=45	=45
!	!	!	!	!	!	!	!	!	!	!	!LO:S:color=grey	!	!	!	!	!	!	!	!	!	!	!	!	!	!	!	!	!	!	!	!
(<4.d 4.A 4.D\	4.ryy	(4.ff#/	8ddL 8f#\	.	.	4.D\	-le-	-zo-	.	.	(4.A\	-le-	-dor	.	.	4.f#X/	-le-	.	.	[4.dd\	-le-	-dor,	.	2.r	.	.	.	2.r	.	.	.
!	!	!	!	!	!	!	!	!	!	!LO:HP:a	!	!	!	!	!	!	!	!	!LO:HP:a	!	!	!	!LO:HP:a	!	!	!	!	!	!	!	!
.	.	.	8a\	.	.	.	.	.	.	>	.	.	.	.	.	.	.	.	>	.	.	.	>	.	.	.	.	.	.	.	.
.	.	.	8cc\J	.	.	.	.	.	.	.	.	.	.	.	.	.	.	.	.	.	.	.	.	.	.	.	.	.	.	.	.
8g/L	4.G\	4ffn/	4.b\	.	.	8GG/	-ka,	-sa	.	.	8B\)	-ka,	.	.	.	4.fn/	-ka,	.	.	8dd\]	.	.	.	.	.	.	.	.	.	.	.
8d/	.	.	.	.	.	8r	.	.	.	.	8r	.	.	.	.	.	.	.	.	8cc\	-ka,	vez-	.	.	.	.	.	.	.	.	.
8fn/J	.	8dd/	.	.	.	8G\	ba-	im-	.	.	8B\	ba-	im-	.	.	.	.	.	.	8dd\	ba-	-zo_im-	.	.	.	.	.	.	.	.	.
*v	*v	*	*	*	*	*	*	*	*	*	*	*	*	*	*	*	*	*	*	*	*	*	*	*	*	*	*	*	*	*	*
*	*v	*v	*	*	*	*	*	*	*	*	*	*	*	*	*	*	*	*	*	*	*	*	*	*	*	*	*	*	*	*
=46	=46	=46	=46	=46	=46	=46	=46	=46	=46	=46	=46	=46	=46	=46	=46	=46	=46	=46	=46	=46	=46	=46	=46	=46	=46	=46	=46	=46	=46
*	*	*	*	*	*	*	*	*	*^	*	*	*	*	*	*	*	*	*^	*	*	*	*	*	*	*	*	*	*	*
*	*	*	*	*	*	*	*	*	*	*	*	*	*	*	*	*	*	*	*	*^	*	*	*	*	*	*	*	*	*	*	*
!	!	!	!	!	!	!	!	!	!	!	!	!	!	!	!	!	!	!	!	!	!	!	!	!	!	!	!	!	!LO:TX:b:t=V&colon; S&colon;	!	!	!
8e 8c\)	8ee 8cc/)	.	.	8C/	-ra-	-ma-	.	.	8c\	4.ryy	-ra-	-ma-	.	.	8e/	zaw-	.	.	8ee\	4.ryy	4.ryy	-ra-	-ma-	.	2.r	.	.	.	2.r	.	.	.
(16E\LL	(16e/LL	>	.	8E\	-nek	-gin	.	.	8E/	.	-nek	-gin	.	.	8e/	-sze	.	.	8e/	.	.	-nek	-gin	.	.	.	.	.	.	.	.	.
16F#\	16f#/	.	.	.	.	.	.	.	.	.	.	.	.	.	.	.	.	.	.	.	.	.	.	.	.	.	.	.	.	.	.	.
16G\	16g/	.	.	8G\	z_da-	di	.	.	8G/	.	z_da-	di	.	.	8g/	z_da-	.	.	8g/	.	.	z_da-	di	.	.	.	.	.	.	.	.	.
16A\JJ	16a/JJ	.	.	.	.	.	.	.	.	.	.	.	.	.	.	.	.	.	.	.	.	.	.	.	.	.	.	.	.	.	.	.
!	!	!	!	!	!	!	!	!	!	!	!	!	!	!	!LO:TX:b:t=V&colon; S&colon;	!	!	!	!	!	!	!	!	!	!	!	!	!	!	!	!	!
8B 8BB\)	8b/)	.	.	(4.BB/	-le-	can	.	]]	(<4.B/	(>4.B\	-le-	can-	.	.	(4.b/	-le-	.	]]	4.b/	[(>4.b\	4b/	-le-	can-	.	.	.	.	.	.	.	.	.
8r	8r	]	.	.	.	.	.	.	.	.	.	.	.	.	.	.	.	.	.	.	.	.	.	.	.	.	.	.	.	.	.	.
!	!LO:TX:b:t=V&colon; S&colon;	!	!	!	!	!	!	!	!	!	!	!	!	!	!	!	!	!	!	!	!	!	!	!	!	!	!	!	!	!	!	!
8BB| 8BBB/	8d#X| 8B 8F#/	.	.	.	.	.	.	.	.	.	.	.	.	.	.	.	.	.	.	.	8b/§	.	.	]]	.	.	.	.	.	.	.	.
*	*	*	*	*	*	*	*	*	*	*	*	*	*	*	*	*	*	*	*	*v	*v	*	*	*	*	*	*	*	*	*	*	*
!!LO:PB:g=original
=47	=47	=47	=47	=47	=47	=47	=47	=47	=47	=47	=47	=47	=47	=47	=47	=47	=47	=47	=47	=47	=47	=47	=47	=47	=47	=47	=47	=47	=47	=47	=47
*^	*	*	*	*	*	*	*	*	*	*	*	*	*	*	*	*	*	*	*	*	*	*	*	*	*	*	*	*	*	*	*
*	*	*	*	*	*	*	*	*	*	*2\right	*	*	*	*	*	*	*	*	*	*2\right	*	*	*	*	*	*	*	*	*	*	*	*
!	!	!	!LO:DY:rj	!	!	!	!	!	!LO:DY:a	!	!	!	!	!	!LO:DY:a	!	!	!	!LO:DY:a	!	!	!	!	!LO:DY:a	!	!	!	!	!	!	!	!
8E/	[2.EE\	8e 8G/	mf	.	(<4.E\)	.	.	.	ppp	((4.B/)	(2.G\)	.	.	.	ppp	[2.e/)	.	.	ppp	(2.b/]	(2.g\)	.	.	ppp	2.r	.	.	.	2.r	.	.	.
8r	.	8r	.	.	.	.	.	.	.	.	.	.	.	.	.	.	.	.	.	.	.	.	.	.	.	.	.	.	.	.	.	.
8E/	.	8e 8B 8G/	.	.	.	.	.	.	.	.	.	.	.	.	.	.	.	.	.	.	.	.	.	.	.	.	.	.	.	.	.	.
8C/	.	8e 8c 8G/	.	.	4.C\	.	.	.	.	(4.c/)	.	.	.	.	.	.	.	.	.	.	.	.	.	.	.	.	.	.	.	.	.	.
8r	.	8r	.	.	.	.	.	.	.	.	.	.	.	.	.	.	.	.	.	.	.	.	.	.	.	.	.	.	.	.	.	.
8C/	.	8e 8c 8G/	.	.	.	.	.	.	.	.	.	.	.	.	.	.	.	.	.	.	.	.	.	.	.	.	.	.	.	.	.	.
=48	=48	=48	=48	=48	=48	=48	=48	=48	=48	=48	=48	=48	=48	=48	=48	=48	=48	=48	=48	=48	=48	=48	=48	=48	=48	=48	=48	=48	=48	=48	=48	=48
*	*	*^	*	*	*	*	*	*	*	*	*	*	*	*	*	*	*	*	*	*	*	*	*	*	*	*	*	*	*	*	*	*
!	!	!LO:S:s=1:note:problem=note-level slur	!	!	!	!	!	!	!	!	!	!	!	!	!	!	!	!	!	!	!	!	!	!	!	!	!	!	!	!	!	!	!
8AA/	2.EE\]	(8eL 8c#X 8G/	4.ryy	.	.	4.AA/	.	.	.	.	(4.c#X/)	2.A\)	.	.	.	.	(4.e/]	.	.	.	(2.a/)	(4.a\)	.	.	.	2.r	.	.	.	2.r	.	.	.
8r	.	8a/	.	.	.	.	.	.	.	.	.	.	.	.	.	.	.	.	.	.	.	.	.	.	.	.	.	.	.	.	.	.	.
8AA/	.	8gJ 8c#/)	.	.	.	.	.	.	.	.	.	.	.	.	.	.	.	.	.	.	.	.	.	.	.	.	.	.	.	.	.	.	.
8BB/	.	8.f#/L	4d#X\	.	.	4.BB/)	.	.	.	.	4.d#X/))	.	.	.	.	.	4.B/)	.	.	.	.	4.f#\)	.	.	.	.	.	.	.	.	.	.	.
8r	.	.	.	.	.	.	.	.	.	.	.	.	.	.	.	.	.	.	.	.	.	.	.	.	.	.	.	.	.	.	.	.	.
.	.	16g/K	.	.	.	.	.	.	.	.	.	.	.	.	.	.	.	.	.	.	.	.	.	.	.	.	.	.	.	.	.	.	.
8BB/	.	8f#/J	8d#\	.	.	.	.	.	.	.	.	.	.	.	.	.	.	.	.	.	.	.	.	.	.	.	.	.	.	.	.	.	.
*	*	*v	*v	*	*	*	*	*	*	*	*	*	*	*	*	*	*	*	*	*	*	*	*	*	*	*	*	*	*	*	*	*	*
=49	=49	=49	=49	=49	=49	=49	=49	=49	=49	=49	=49	=49	=49	=49	=49	=49	=49	=49	=49	=49	=49	=49	=49	=49	=49	=49	=49	=49	=49	=49	=49	=49
*	*	*	*	*	*2\right	*	*	*	*	*	*	*	*	*	*	*	*	*	*	*	*	*	*	*	*	*	*	*	*	*	*	*
8E/	(4.EE\	8e/	p	.	[2.E\	-ka.	.	.	.	4e/	4e\	-ka.	-dor	.	.	[4.e/	-ka.	.	.	[4.e/)	[>4.e\	ka.	dor.	.	2.r	.	.	.	2.r	.	.	.
8r	.	8r	.	.	.	.	.	.	.	.	.	.	.	.	.	.	.	.	.	.	.	.	.	.	.	.	.	.	.	.	.	.
8E/	.	8e 8B 8G/	.	.	.	.	.	.	.	8r	8ryy	.	.	.	.	.	.	.	.	.	.	.	.	.	.	.	.	.	.	.	.	.
8C/	4.CC\	8e 8c 8G/	.	.	.	.	.	.	.	4r	4ryy	.	.	.	.	4e/]	.	.	.	4e/]	4e\]	.	.	.	.	.	.	.	.	.	.	.
8r	.	8r	.	.	.	.	.	.	.	.	.	.	.	.	.	.	.	.	.	.	.	.	.	.	.	.	.	.	.	.	.	.
8C/	.	8e 8c 8G/	.	.	.	.	.	.	.	8r	8ryy	.	.	.	.	8r	.	.	.	8r	8ryy	.	.	.	.	.	.	.	.	.	.	.
*	*	*	*	*	*	*	*	*	*	*v	*v	*	*	*	*	*	*	*	*	*v	*v	*	*	*	*	*	*	*	*	*	*	*
=50	=50	=50	=50	=50	=50	=50	=50	=50	=50	=50	=50	=50	=50	=50	=50	=50	=50	=50	=50	=50	=50	=50	=50	=50	=50	=50	=50	=50	=50	=50
*	*	*^	*^	*	*	*	*	*	*	*	*	*	*	*	*	*	*	*	*	*	*	*	*	*	*	*	*	*	*	*
8AA/	4.AAA\)	8e 8c#X 8G/	4.ryy	.	.	.	4E\]	.	.	.	.	2.r	.	.	.	.	2.r	.	.	.	2.r	.	.	.	2.r	.	.	.	2.r	.	.	.
8r	.	8r	.	.	.	.	.	.	.	.	.	.	.	.	.	.	.	.	.	.	.	.	.	.	.	.	.	.	.	.	.	.
8AA/	.	8e 8c# 8G/	.	.	.	.	8r	.	.	.	.	.	.	.	.	.	.	.	.	.	.	.	.	.	.	.	.	.	.	.	.	.
!	!	!	!	!LO:HP:a	!	!	!	!	!	!	!	!	!	!	!	!	!	!	!	!	!	!	!	!	!	!	!	!	!	!	!	!
(4D/	(4DD\	8.f#/L	4d 4F#\	>	>	.	4r	.	.	.	.	.	.	.	.	.	.	.	.	.	.	.	.	.	.	.	.	.	.	.	.	.
.	.	16g/K	.	.	.	.	.	.	.	.	.	.	.	.	.	.	.	.	.	.	.	.	.	.	.	.	.	.	.	.	.	.
8BB 8BBB/))	8ryy	8f#/J	8d#X 8A\	]	]	.	8r	.	.	.	.	.	.	.	.	.	.	.	.	.	.	.	.	.	.	.	.	.	.	.	.	.
*v	*v	*	*	*v	*v	*	*	*	*	*	*	*	*	*	*	*	*	*	*	*	*	*	*	*	*	*	*	*	*	*	*	*
*	*v	*v	*	*	*	*	*	*	*	*	*	*	*	*	*	*	*	*	*	*	*	*	*	*	*	*	*	*	*	*
!!LO:LB:g=original
=51	=51	=51	=51	=51	=51	=51	=51	=51	=51	=51	=51	=51	=51	=51	=51	=51	=51	=51	=51	=51	=51	=51	=51	=51	=51	=51	=51	=51	=51
*	*	*	*	*^	*	*	*	*	*	*	*	*	*	*^	*	*	*	*	*	*	*	*	*	*	*	*	*	*	*
8E 8EE/	8e 8G/	.	.	4.E\	4E\	Na	La	.	.	2.r	.	.	.	.	4.e/	4e/	Na	La	.	2.r	.	.	.	2.r	.	.	.	2.r	.	.	.
8r	8r	.	.	.	.	.	.	.	.	.	.	.	.	.	.	.	.	.	.	.	.	.	.	.	.	.	.	.	.	.	.
8E 8EE/	8g 8e 8B/	.	.	.	8E\§	.	.	.	.	.	.	.	.	.	.	8e/§	.	.	.	.	.	.	.	.	.	.	.	.	.	.	.
8E 8EE/	8g 8e 8B/	.	.	[4.B\	4.ryy	gło-	fron-	.	.	.	.	.	.	.	[4.b\	4.ryy	gło-	fron-	.	.	.	.	.	.	.	.	.	.	.	.	.
8r	8r	.	.	.	.	.	.	.	.	.	.	.	.	.	.	.	.	.	.	.	.	.	.	.	.	.	.	.	.	.	.
8E 8EE/	8g 8e 8B/	.	.	.	.	.	.	.	.	.	.	.	.	.	.	.	.	.	.	.	.	.	.	.	.	.	.	.	.	.	.
*	*	*	*	*v	*v	*	*	*	*	*	*	*	*	*	*v	*v	*	*	*	*	*	*	*	*	*	*	*	*	*	*	*
=52	=52	=52	=52	=52	=52	=52	=52	=52	=52	=52	=52	=52	=52	=52	=52	=52	=52	=52	=52	=52	=52	=52	=52	=52	=52	=52	=52	=52	=52
!	!	!	!	!	!	!	!	!	!	!	!	!	!	!LO:S:color=grey	!	!	!	!	!	!	!	!	!	!	!	!	!	!	!
8E 8EE/	8g 8e 8B/	.	.	8B\]	.	.	.	.	2.r	.	.	.	.	(8b\]	.	.	.	2.r	.	.	.	2.r	.	.	.	2.r	.	.	.
!	!	!	!	!LO:ART:color=grey	!	!	!	!	!	!	!	!	!	!	!	!	!	!	!	!	!	!	!	!	!	!	!	!	!
8r	8r	.	.	8A\|	-wie	-te_ha-	.	.	.	.	.	.	.	8a\)	-wie	-te_ha-	.	.	.	.	.	.	.	.	.	.	.	.	.
!	!	!	!	!LO:ART:color=grey	!	!	!	!	!	!	!	!	!	!	!	!	!	!	!	!	!	!	!	!	!	!	!	!	!
8E\	8g 8e 8B/	.	.	8G\|	ma	-di	.	.	.	.	.	.	.	8g\	ma	-di	.	.	.	.	.	.	.	.	.	.	.	.	.
8E\	8f# 8B 8A/	.	.	8F#\L	kraś-	fio-	.	.	.	.	.	.	.	8f#/L	kraś-	fio-	.	.	.	.	.	.	.	.	.	.	.	.	.
8r	8r	.	.	8E\J	.	.	.	.	.	.	.	.	.	8e/J	.	.	.	.	.	.	.	.	.	.	.	.	.	.	.
!	!	!	!	!LO:ART:color=grey	!	!	!	!	!	!	!	!	!	!	!	!	!	!	!	!	!	!	!	!	!	!	!	!	!
8E\	8f# 8B 8A/	.	.	8D#X'\	-ny	-ri_a-	.	.	.	.	.	.	.	8d#X/	-ny	-ri_a-	.	.	.	.	.	.	.	.	.	.	.	.	.
=53	=53	=53	=53	=53	=53	=53	=53	=53	=53	=53	=53	=53	=53	=53	=53	=53	=53	=53	=53	=53	=53	=53	=53	=53	=53	=53	=53	=53	=53
*	*	*	*	*	*	*	*	*	*^	*	*	*	*	*	*	*	*	*^	*	*	*	*	*	*	*	*	*	*	*
4e 4B 4G 4E\	16r	.	.	(4.E\	wia-	-dor-	.	.	4.B\	4B\	Ma	La	.	.	[2.e/	wia-	-dor-	.	4.e/	4e/	Na	La	.	2.r	.	.	.	2.r	.	.	.
.	(16bb\LL	.	.	.	.	.	.	.	.	.	.	.	.	.	.	.	.	.	.	.	.	.	.	.	.	.	.	.	.	.	.
.	16aa\	.	.	.	.	.	.	.	.	.	.	.	.	.	.	.	.	.	.	.	.	.	.	.	.	.	.	.	.	.	.
.	16bb\	.	.	.	.	.	.	.	.	.	.	.	.	.	.	.	.	.	.	.	.	.	.	.	.	.	.	.	.	.	.
8G 8E\	16gg\	.	.	.	.	.	.	.	.	8B\§	.	.	.	.	.	.	.	.	.	8e/§	.	.	.	.	.	.	.	.	.	.	.
.	16ff#\JJ	.	.	.	.	.	.	.	.	.	.	.	.	.	.	.	.	.	.	.	.	.	.	.	.	.	.	.	.	.	.
4c 4G 4C\	16ee\)	.	.	4.C\	.	.	.	.	[4.c\	4.ryy	kraś-	fron-	.	.	.	.	.	.	[4.ee\	4.ryy	gło-	fron-	.	.	.	.	.	.	.	.	.
.	(16ee\LL	.	.	.	.	.	.	.	.	.	.	.	.	.	.	.	.	.	.	.	.	.	.	.	.	.	.	.	.	.	.
.	16dd\	.	.	.	.	.	.	.	.	.	.	.	.	.	.	.	.	.	.	.	.	.	.	.	.	.	.	.	.	.	.
.	16ee\	.	.	.	.	.	.	.	.	.	.	.	.	.	.	.	.	.	.	.	.	.	.	.	.	.	.	.	.	.	.
8E 8C\	16cc\	.	.	.	.	.	.	.	.	.	.	.	.	.	.	.	.	.	.	.	.	.	.	.	.	.	.	.	.	.	.
.	16b\JJ	.	.	.	.	.	.	.	.	.	.	.	.	.	.	.	.	.	.	.	.	.	.	.	.	.	.	.	.	.	.
*	*	*	*	*	*	*	*	*	*v	*v	*	*	*	*	*	*	*	*	*	*	*	*	*	*	*	*	*	*	*	*	*
=54	=54	=54	=54	=54	=54	=54	=54	=54	=54	=54	=54	=54	=54	=54	=54	=54	=54	=54	=54	=54	=54	=54	=54	=54	=54	=54	=54	=54	=54	=54
!	!	!	!	!	!	!	!	!	!	!	!	!	!	!	!	!	!	!	!LO:TX:t=P:stem.color=grey:problem	!	!	!	!	!	!	!	!	!	!	!
4F# 4C 4FF#\	16a/)|	.	.	4.AA/)	.	.	.	.	4.c\]	.	.	.	.	4.e/]	.	.	.	8ee/]	8ee\L	.	.	.	2.r	.	.	.	2.r	.	.	.
.	(<16a/LL	.	.	.	.	.	.	.	.	.	.	.	.	.	.	.	.	.	.	.	.	.	.	.	.	.	.	.	.	.
.	16g/	.	.	.	.	.	.	.	.	.	.	.	.	.	.	.	.	8f#/	8f#/J	-wie	te_ha-	.	.	.	.	.	.	.	.	.
.	16a/	.	.	.	.	.	.	.	.	.	.	.	.	.	.	.	.	.	.	.	.	.	.	.	.	.	.	.	.	.
8F# 8FF#\	16f#/	.	.	.	.	.	.	.	.	.	.	.	.	.	.	.	.	8g/	8ryy	ma	-di	.	.	.	.	.	.	.	.	.
.	16e/JJ	.	.	.	.	.	.	.	.	.	.	.	.	.	.	.	.	.	.	.	.	.	.	.	.	.	.	.	.	.
4F# 4BB\	16d#X/LL	.	.	8BB/	-nek.	-na	.	.	4.B\	-ny	-te_a-	.	.	4.d#X/	-nek,	-na	.	8a/L	4.ryy	kraś-	fio-	.	.	.	.	.	.	.	.	.
.	16f#/	.	.	.	.	.	.	.	.	.	.	.	.	.	.	.	.	.	.	.	.	.	.	.	.	.	.	.	.	.
.	16b/	.	.	8r	.	.	.	.	.	.	.	.	.	.	.	.	.	8g/J	.	.	.	.	.	.	.	.	.	.	.	.
.	16dd#X/	.	.	.	.	.	.	.	.	.	.	.	.	.	.	.	.	.	.	.	.	.	.	.	.	.	.	.	.	.
8B 8BB\	16ff#/	.	.	8r	.	.	.	.	.	.	.	.	.	.	.	.	.	8f#/	.	-ny	-ri_a-	.	.	.	.	.	.	.	.	.
.	16bb/JJ)	.	.	.	.	.	.	.	.	.	.	.	.	.	.	.	.	.	.	.	.	.	.	.	.	.	.	.	.	.
*	*	*	*	*	*	*	*	*	*	*	*	*	*	*	*	*	*	*v	*v	*	*	*	*	*	*	*	*	*	*	*
!!LO:PB:g=original
=55	=55	=55	=55	=55	=55	=55	=55	=55	=55	=55	=55	=55	=55	=55	=55	=55	=55	=55	=55	=55	=55	=55	=55	=55	=55	=55	=55	=55	=55
*	*	*	*	*^	*	*	*	*	*	*	*	*	*	*^	*	*	*	*	*	*	*	*	*	*	*	*	*	*	*
!	!LO:TX:a:t=P:problem=zbędny koniec łuku na górze	!	!	!	!	!	!	!	!	!	!	!	!	!	!	!	!	!	!	!	!	!	!	!	!	!	!	!	!	!	!
8E 8EE/	8gg 8ee\	.	.	(4.E\	4E\	w_rę-	In	.	.	4B/	wia-	-dor-	.	.	(4.e/	4e/	w_rę-	In	.	4g/	wia-	-dor-	.	2.r	.	.	.	2.r	.	.	.
8r	8r	.	.	.	.	.	.	.	.	.	.	.	.	.	.	.	.	.	.	.	.	.	.	.	.	.	.	.	.	.	.
8E 8EE/	8g 8e 8B/	.	.	.	8E\§	.	.	.	.	8G/	-nek.	-na	.	.	.	8e/§	.	.	.	8e/	-nek,	-na	.	.	.	.	.	.	.	.	.
8E 8EE/	8g 8e 8B/	.	.	[4.B\)	4.ryy	.	man	.	.	4r	.	.	.	.	[4.b\)	4.ryy	.	man	.	4r	.	.	.	.	.	.	.	.	.	.	.
8r	8r	.	.	.	.	.	.	.	.	.	.	.	.	.	.	.	.	.	.	.	.	.	.	.	.	.	.	.	.	.	.
8E 8EE/	8g 8e 8B/	.	.	.	.	.	.	.	.	8r	.	.	.	.	.	.	.	.	.	8r	.	.	.	.	.	.	.	.	.	.	.
=56	=56	=56	=56	=56	=56	=56	=56	=56	=56	=56	=56	=56	=56	=56	=56	=56	=56	=56	=56	=56	=56	=56	=56	=56	=56	=56	=56	=56	=56	=56	=56
.	(16qqg 16qqeLL	.	.	.	.	.	.	.	.	.	.	.	.	.	.	.	.	.	.	.	.	.	.	.	.	.	.	.	.	.	.
.	16qqf# 16aJJ	.	.	.	.	.	.	.	.	.	.	.	.	.	.	.	.	.	.	.	.	.	.	.	.	.	.	.	.	.	.
!	!	!	!	!	!	!	!	!	!	!	!	!	!	!	!	!LO:TX:t=P:stem.color=grey:problem	!	!	!	!	!	!	!	!	!	!	!	!	!	!	!
8E 8EE/	8b 8g/)	.	.	8B\]	4.ryy	.	.	.	.	2.r	.	.	.	.	8b\]	8b\L	.	.	.	2.r	.	.	.	2.r	.	.	.	2.r	.	.	.
!	!	!	!	!LO:ART:color=grey	!	!	!	!	!	!	!	!	!	!	!LO:ART:color=grey	!	!	!	!	!	!	!	!	!	!	!	!	!	!	!	!
8r	8r	.	.	8A|\	.	-ku	re-	.	.	.	.	.	.	.	8a|\	8a\J	-ku	re-	.	.	.	.	.	.	.	.	.	.	.	.	.
!	!	!	!	!LO:ART:color=grey	!	!	!	!	!	!	!	!	!	!	!LO:ART:color=grey	!	!	!	!	!	!	!	!	!	!	!	!	!	!	!	!
8E\	8g 8e 8B/	.	.	8G|\	.	zie-	-ge_un	.	.	.	.	.	.	.	8g|\	8ryy	zie-	-ge_un	.	.	.	.	.	.	.	.	.	.	.	.	.
!	!	!	!	!LO:ART:color=grey	!LO:TX:t=P:stem.color=red:problem	!	!	!	!	!	!	!	!	!	!LO:ART:color=grey	!LO:TX:t=P:stem.color=red:problem	!	!	!	!	!	!	!	!	!	!	!	!	!	!	!
4E\	(4f# 4B 4A/	.	.	8F#|\	8F#/L	-lo-	ra-	.	.	.	.	.	.	.	8f#|/	8f#/L	-lo-	ra-	.	.	.	.	.	.	.	.	.	.	.	.	.
!	!	!	!	!LO:ART:color=grey	!	!	!	!	!	!	!	!	!	!	!LO:ART:color=grey	!	!	!	!	!	!	!	!	!	!	!	!	!	!	!	!
.	.	.	.	8E|\	8E/J	-ny	.	.	.	.	.	.	.	.	8e|/	8e/J	-ny	.	.	.	.	.	.	.	.	.	.	.	.	.	.
!	!	!	!	!LO:ART:color=grey	!	!	!	!	!	!	!	!	!	!	!LO:ART:color=grey	!	!	!	!	!	!	!	!	!	!	!	!	!	!	!	!
8E\	8d#X 8B 8F#/)	.	.	8D#X|\	8ryy	ba-	-mo-	.	.	.	.	.	.	.	8d#X|>/	8ryy	ba-	-mo-	.	.	.	.	.	.	.	.	.	.	.	.	.
*	*	*	*	*v	*v	*	*	*	*	*	*	*	*	*	*v	*v	*	*	*	*	*	*	*	*	*	*	*	*	*	*	*
=57	=57	=57	=57	=57	=57	=57	=57	=57	=57	=57	=57	=57	=57	=57	=57	=57	=57	=57	=57	=57	=57	=57	=57	=57	=57	=57	=57	=57	=57
*	*	*	*	*	*	*	*	*	*	*	*	*	*	*	*	*	*	*^	*	*	*	*	*	*	*	*	*	*	*
4e 4B 4G 4E\	16r	.	.	(2.E\	-dy-	-scel-	.	.	4.G/	w_rę-	In	.	.	[2.e/	-dy-	-scel-	.	(4.e/	4e/	w_rę-	In	.	2.r	.	.	.	2.r	.	.	.
.	(16bb\LL	.	.	.	.	.	.	.	.	.	.	.	.	.	.	.	.	.	.	.	.	.	.	.	.	.	.	.	.	.
.	16aa\	.	.	.	.	.	.	.	.	.	.	.	.	.	.	.	.	.	.	.	.	.	.	.	.	.	.	.	.	.
.	16bb\	.	.	.	.	.	.	.	.	.	.	.	.	.	.	.	.	.	.	.	.	.	.	.	.	.	.	.	.	.
8B 8E\	16gg\	.	.	.	.	.	.	.	.	.	.	.	.	.	.	.	.	.	8e/§	.	.	.	.	.	.	.	.	.	.	.
.	16ff#\JJ	.	.	.	.	.	.	.	.	.	.	.	.	.	.	.	.	.	.	.	.	.	.	.	.	.	.	.	.	.
4B 4G 4E\	16ee'\)	.	.	.	.	.	.	.	4G/	-ku	ma-	.	.	.	.	.	.	[4.ee\)	4.ryy	.	man	.	.	.	.	.	.	.	.	.
.	(16ee\LL	.	.	.	.	.	.	.	.	.	.	.	.	.	.	.	.	.	.	.	.	.	.	.	.	.	.	.	.	.
.	16dd\	.	.	.	.	.	.	.	.	.	.	.	.	.	.	.	.	.	.	.	.	.	.	.	.	.	.	.	.	.
.	16ee\	.	.	.	.	.	.	.	.	.	.	.	.	.	.	.	.	.	.	.	.	.	.	.	.	.	.	.	.	.
8G 8E\	16cc\	.	.	.	.	.	.	.	8G/	zie-	-no	.	.	.	.	.	.	.	.	.	.	.	.	.	.	.	.	.	.	.
.	16b\JJ	.	.	.	.	.	.	.	.	.	.	.	.	.	.	.	.	.	.	.	.	.	.	.	.	.	.	.	.	.
=58	=58	=58	=58	=58	=58	=58	=58	=58	=58	=58	=58	=58	=58	=58	=58	=58	=58	=58	=58	=58	=58	=58	=58	=58	=58	=58	=58	=58	=58	=58
*	*	*	*	*	*	*	*	*	*	*	*	*	*	*	*	*	*	*	*^	*	*	*	*	*	*	*	*	*	*	*
!	!	!	!	!	!	!	!	!	!	!	!	!	!	!	!	!	!	!	!LO:TX:t=P:stem.color=grey:problem	!	!	!	!	!	!	!	!	!	!	!	!
4A 4E 4C\	16a/)|	.	.	4.C/)	.	.	.	.	4.A/	-lo-	un	.	.	(4.e/]	.	.	.	8ee/]	8ee\L	4.ryy	.	.	.	2.r	.	.	.	2.r	.	.	.
.	(16a/LL	.	.	.	.	.	.	.	.	.	.	.	.	.	.	.	.	.	.	.	.	.	.	.	.	.	.	.	.	.	.
.	16g/	.	.	.	.	.	.	.	.	.	.	.	.	.	.	.	.	8a/	8a/J	.	-ku	reg-	.	.	.	.	.	.	.	.	.
.	16a/	.	.	.	.	.	.	.	.	.	.	.	.	.	.	.	.	.	.	.	.	.	.	.	.	.	.	.	.	.	.
8A 8C\	16f#/	.	.	.	.	.	.	.	.	.	.	.	.	.	.	.	.	8b/	8ryy	.	zie-	-ge_un	.	.	.	.	.	.	.	.	.
.	16e/JJ	.	.	.	.	.	.	.	.	.	.	.	.	.	.	.	.	.	.	.	.	.	.	.	.	.	.	.	.	.	.
!	!	!	!	!	!	!	!	!	!	!	!	!	!	!	!	!	!	!	!LO:TX:t=P:stem.color=red:problem	!LO:TX:t=P:stem.color=grey:problem	!	!	!	!	!	!	!	!	!	!	!
4F# 4D\	16d/LL	.	.	8D/	-lek,	-lo	.	.	(8F#/L	-ny	ra-	.	.	4d/)	.	.	.	8cc\	8cc\L	8cc/L	-lo-	ra-	.	.	.	.	.	.	.	.	.
.	16f#/	.	.	.	.	.	.	.	.	.	.	.	.	.	.	.	.	.	.	.	.	.	.	.	.	.	.	.	.	.	.
.	16a/	.	.	8r	.	.	.	.	8A/J)	.	.	.	.	.	.	.	.	8b\	8b\J	8b/J	-ny	.	.	.	.	.	.	.	.	.	.
.	16dd/	.	.	.	.	.	.	.	.	.	.	.	.	.	.	.	.	.	.	.	.	.	.	.	.	.	.	.	.	.	.
8D 8DD/	16ff#/	.	.	8r	.	.	.	.	8c\	ba	-mo-	.	.	8f#/	-lek	-lo	.	8a\	8ryy	8ryy	ba-	-mo-	.	.	.	.	.	.	.	.	.
.	16ddd/JJ)	.	.	.	.	.	.	.	.	.	.	.	.	.	.	.	.	.	.	.	.	.	.	.	.	.	.	.	.	.	.
*	*	*	*	*	*	*	*	*	*	*	*	*	*	*	*	*	*	*v	*v	*v	*	*	*	*	*	*	*	*	*	*	*
!!LO:LB:g=original
=59	=59	=59	=59	=59	=59	=59	=59	=59	=59	=59	=59	=59	=59	=59	=59	=59	=59	=59	=59	=59	=59	=59	=59	=59	=59	=59	=59	=59	=59
*	*	*	*	*	*	*	*	*	*	*	*	*	*	*^	*	*	*	*	*	*	*	*	*	*	*	*	*	*	*
8G 8GG\	8bb 8gg\	.	.	4.G\	a	al	.	.	4B/	.	-scel-	.	.	4.g/	4g/	a	al	.	4g/	-dy-	-scel-	.	2.r	.	.	.	2.r	.	.	.
8r	8r	.	.	.	.	.	.	.	.	.	.	.	.	.	.	.	.	.	.	.	.	.	.	.	.	.	.	.	.	.
8G 8GG\	8b 8g 8d/	.	.	.	.	.	.	.	8G/	.	-lo	.	.	.	8g/§	.	.	.	8b/	-lek,	-lo	.	.	.	.	.	.	.	.	.
8G 8GG\	8b 8g 8d/	.	.	[4.d\	przed	fian-	.	.	4r	.	.	.	.	[4.dd\	4.ryy	przed	fian-	.	4r	.	.	.	.	.	.	.	.	.	.	.
8r	8r	.	.	.	.	.	.	.	.	.	.	.	.	.	.	.	.	.	.	.	.	.	.	.	.	.	.	.	.	.
8G 8GG\	8b 8g 8d/	.	.	.	.	.	.	.	8r	.	.	.	.	.	.	.	.	.	8r	.	.	.	.	.	.	.	.	.	.	.
=60	=60	=60	=60	=60	=60	=60	=60	=60	=60	=60	=60	=60	=60	=60	=60	=60	=60	=60	=60	=60	=60	=60	=60	=60	=60	=60	=60	=60	=60	=60
8G 8GG\	8b 8g 8d/	.	.	8d\L]	.	.	.	.	2.r	.	.	.	.	8dd\L]	4.ryy	.	.	.	2.r	.	.	.	2.r	.	.	.	2.r	.	.	.
8r	8r	.	.	8B\J	.	.	.	.	.	.	.	.	.	8b\J	.	.	.	.	.	.	.	.	.	.	.	.	.	.	.	.
8D 8GG\	8a 8d 8c/	.	.	8A\	nią	-co_un	.	.	.	.	.	.	.	8a/	.	nią	-co_un	.	.	.	.	.	.	.	.	.	.	.	.	.
8D 8GG\	(4g 4d 4B/	.	.	8G\	bie-	can-	.	.	.	.	.	.	.	8g\	8g/L	bie-	can-	.	.	.	.	.	.	.	.	.	.	.	.	.
8r	.	.	.	8F#\	-ży	-di-	.	.	.	.	.	.	.	8f#\	8f#/J	-ży	-di-	.	.	.	.	.	.	.	.	.	.	.	.	.
8GG/	8e 8c#X 8A/	.	.	8E\	ba-	-do_a-	.	.	.	.	.	.	.	8e/	8ryy	ba-	-do_a-	.	.	.	.	.	.	.	.	.	.	.	.	.
*	*	*	*	*	*	*	*	*	*	*	*	*	*	*v	*v	*	*	*	*	*	*	*	*	*	*	*	*	*	*	*
=61	=61	=61	=61	=61	=61	=61	=61	=61	=61	=61	=61	=61	=61	=61	=61	=61	=61	=61	=61	=61	=61	=61	=61	=61	=61	=61	=61	=61	=61
*	*	*	*	*	*	*	*	*	*	*	*	*	*	*	*	*	*	*^	*	*	*	*	*	*	*	*	*	*	*
8DD/	16d 16A/)	.	.	[2.D\	-ra-	-gnel-	.	.	4r	.	.	.	.	[2.f#/	-ra-	-gnel-	.	8r	4f#/@	.	.	.	2.r	.	.	.	2.r	.	.	.
.	(16aa\LL	.	.	.	.	.	.	.	.	.	.	.	.	.	.	.	.	.	.	.	.	.	.	.	.	.	.	.	.	.
8r	16ff#\	.	.	.	.	.	.	.	.	.	.	.	.	.	.	.	.	8r	.	.	.	.	.	.	.	.	.	.	.	.
.	16gg\	.	.	.	.	.	.	.	.	.	.	.	.	.	.	.	.	.	.	.	.	.	.	.	.	.	.	.	.	.
8c 8G 8D\	16ee\	.	.	.	.	.	.	.	8r	.	.	.	.	.	.	.	.	8ee\	8ryy	a	al	.	.	.	.	.	.	.	.	.
.	16ff#\JJ	.	.	.	.	.	.	.	.	.	.	.	.	.	.	.	.	.	.	.	.	.	.	.	.	.	.	.	.	.
8c 8F# 8D\	16dd'\)	.	.	.	.	.	.	.	[4.A/	przed	ed	.	.	.	.	.	.	[4.dd\	4ryy	przed	fian-	.	.	.	.	.	.	.	.	.
.	(16ff#\LL	.	.	.	.	.	.	.	.	.	.	.	.	.	.	.	.	.	.	.	.	.	.	.	.	.	.	.	.	.
8r	16dd\	.	.	.	.	.	.	.	.	.	.	.	.	.	.	.	.	.	.	.	.	.	.	.	.	.	.	.	.	.
.	16ee\	.	.	.	.	.	.	.	.	.	.	.	.	.	.	.	.	.	.	.	.	.	.	.	.	.	.	.	.	.
8A 8D\	16cc\	.	.	.	.	.	.	.	.	.	.	.	.	.	.	.	.	.	8ryy	.	.	.	.	.	.	.	.	.	.	.
.	16dd\JJ	.	.	.	.	.	.	.	.	.	.	.	.	.	.	.	.	.	.	.	.	.	.	.	.	.	.	.	.	.
*	*	*	*	*	*	*	*	*	*	*	*	*	*	*	*	*	*	*v	*v	*	*	*	*	*	*	*	*	*	*	*
=62	=62	=62	=62	=62	=62	=62	=62	=62	=62	=62	=62	=62	=62	=62	=62	=62	=62	=62	=62	=62	=62	=62	=62	=62	=62	=62	=62	=62	=62
*	*	*	*	*	*	*	*	*	*^	*	*	*	*	*	*	*	*	*	*	*	*	*	*	*	*	*	*	*	*
!	!	!	!	!	!	!	!	!	!	!LO:TX:t=P:dot.color=dodgerblue:problem	!	!	!	!	!	!	!	!	!	!	!	!	!	!	!	!	!LO:TX:b:t=V&colon; S&colon;	!	!	!
8d 8D\	16b'\)	.	.	4.D\]	.	.	.	.	4A/]	4.A/	.	.	.	.	2.f#/]	.	.	.	(8dd\L]	.	.	.	2.r	.	.	.	2.r	.	.	.
.	(16dd\LL	.	.	.	.	.	.	.	.	.	.	.	.	.	.	.	.	.	.	.	.	.	.	.	.	.	.	.	.	.
8r	16b\	.	.	.	.	.	.	.	.	.	.	.	.	.	.	.	.	.	8a\J)	.	.	.	.	.	.	.	.	.	.	.
.	16cc\	.	.	.	.	.	.	.	.	.	.	.	.	.	.	.	.	.	.	.	.	.	.	.	.	.	.	.	.	.
8F#| 8D\	16a\	.	.	.	.	.	.	.	8A/	.	nią	un	.	.	.	.	.	.	8b\	nią	-co_un	.	.	.	.	.	.	.	.	.
.	16b\JJ	.	.	.	.	.	.	.	.	.	.	.	.	.	.	.	.	.	.	.	.	.	.	.	.	.	.	.	.	.
!	!	!	!	!	!	!	!	!	!LO:S:color=dodgerblue	!	!	!	!	!	!	!	!	!	!LO:S:color=dodgerblue	!	!	!	!	!	!	!	!	!	!	!
8F#| 8D\	16a/LL	.	.	4D\	-nek,	-lo	.	.	(8A/|	4.ryy	bie-	can-	.	.	.	.	.	.	(8cc\|	bie-	can-	.	.	.	.	.	.	.	.	.
.	16f#/	.	.	.	.	.	.	.	.	.	.	.	.	.	.	.	.	.	.	.	.	.	.	.	.	.	.	.	.	.
8r	16d/	.	.	.	.	.	.	.	8B/)|	.	-ży	-di-	.	.	.	.	.	.	8b\)|	-ży	-di-	.	.	.	.	.	.	.	.	.
.	16f#/	.	.	.	.	.	.	.	.	.	.	.	.	.	.	.	.	.	.	.	.	.	.	.	.	.	.	.	.	.
8c 8F# 8D\	16a/	.	.	8r	.	.	.	.	8c/|	.	ba-	-do_a-	.	.	.	.	.	.	8a\|	ba-	-do_a-	.	.	.	.	.	.	.	.	.
!	!LO:TX:b:t=V&colon; S&colon;	!	!	!	!	!	!	!	!	!	!	!	!	!	!	!	!	!	!	!	!	!	!	!	!	!	!	!	!	!
.	16dd/JJ)	.	.	.	.	.	.	.	.	.	.	.	.	.	.	.	.	.	.	.	.	.	.	.	.	.	.	.	.	.
*	*	*	*	*	*	*	*	*	*v	*v	*	*	*	*	*	*	*	*	*	*	*	*	*	*	*	*	*	*	*	*
!!LO:PB:g=original
=63	=63	=63	=63	=63	=63	=63	=63	=63	=63	=63	=63	=63	=63	=63	=63	=63	=63	=63	=63	=63	=63	=63	=63	=63	=63	=63	=63	=63	=63
8B 8G\	8b 8g/	.	.	8r	.	.	.	.	8B/|	-ra-	-gnel-	.	.	8g/	-nek,	-lo	.	8b/|	-ra-	-gnel-	.	2.r	.	.	.	2.r	.	.	.
8r	8r	.	.	8r	.	.	.	.	8G/|	-nek,	-lo	.	.	8r	.	.	.	8g/|	-nek,	-lo	.	.	.	.	.	.	.	.	.
8G 8GG/	8e 8B/	.	.	8E\	a	che	.	.	8r	.	.	.	.	8e/	a	che	.	8r	.	.	.	.	.	.	.	.	.	.	.
8G 8GG/	8d 8B/	.	.	[4.D^\	nad	scor-	.	.	4r	.	.	.	.	[4.d^/	nad	scor-	.	4r	.	.	.	.	.	.	.	.	.	.	.
8r	8r	.	.	.	.	.	.	.	.	.	.	.	.	.	.	.	.	.	.	.	.	.	.	.	.	.	.	.	.
8D 8GG/	8g 8B/	.	.	.	.	.	.	.	8r	.	.	.	.	.	.	.	.	8r	.	.	.	.	.	.	.	.	.	.	.
=64	=64	=64	=64	=64	=64	=64	=64	=64	=64	=64	=64	=64	=64	=64	=64	=64	=64	=64	=64	=64	=64	=64	=64	=64	=64	=64	=64	=64	=64
*	*	*	*	*^	*	*	*	*	*	*	*	*	*	*^	*	*	*	*	*	*	*	*	*	*	*	*	*	*	*
8D 8GG/	8b 8B/	.	.	8D/L]	4.ryy	.	.	.	.	2.r	.	.	.	.	8d/L]	4.ryy	.	.	.	2.r	.	.	.	2.r	.	.	.	2.r	.	.	.
8r	8r	.	.	8BB/J	.	.	.	.	.	.	.	.	.	.	8B/J	.	.	.	.	.	.	.	.	.	.	.	.	.	.	.	.
8G 8D 8GG/	8dd 8b 8g\	.	.	8D\	.	nią	-raz-	.	.	.	.	.	.	.	8d/	.	nią	-raz-	.	.	.	.	.	.	.	.	.	.	.	.	.
!	!	!	!	!LO:S:color=grey	!LO:TX:t=P:stem.color=red:problem	!	!	!	!	!	!	!	!	!	!LO:S:color=grey	!LO:TX:t=P:stem.color=red:problem	!	!	!	!	!	!	!	!	!	!	!	!	!	!	!
8G 8D 8GG/	8gg 8b 8g\	.	.	(8G\	8G/L	le-	-zan-	.	.	.	.	.	.	.	(<8g/	8g/L	le-	-zan-	.	.	.	.	.	.	.	.	.	.	.	.	.
8r	8r	.	.	8F#\)	8F#/J	-ci	.	.	.	.	.	.	.	.	8f#/)	8f#/J	-ci	.	.	.	.	.	.	.	.	.	.	.	.	.	.
8D 8GG/	8g 8d 8B/	.	.	8G\	8ryy	mo-	-do	.	.	.	.	.	.	.	8g/	8ryy	mo-	-da	.	.	.	.	.	.	.	.	.	.	.	.	.
*	*	*	*	*v	*v	*	*	*	*	*	*	*	*	*	*v	*v	*	*	*	*	*	*	*	*	*	*	*	*	*	*	*
=65	=65	=65	=65	=65	=65	=65	=65	=65	=65	=65	=65	=65	=65	=65	=65	=65	=65	=65	=65	=65	=65	=65	=65	=65	=65	=65	=65	=65	=65
8D 8DD/	8a 8f# 8c/	.	.	(4A\	-ty-	va_e	.	.	8r	.	.	.	.	4a/	-ty-	va	.	8a\L	nad	scor-	.	2.r	.	.	.	2.r	.	.	.
8r	8r	.	.	.	.	.	.	.	8r	.	.	.	.	.	.	.	.	8ff#\J	.	.	.	.	.	.	.	.	.	.	.
8D/	8g 8e 8A/	.	.	8D\)	.	ri-	.	.	8A/	a	che	.	.	8g/	-lek,	ri-	.	8ee\	nią	-raz-	.	.	.	.	.	.	.	.	.
8D/	8f# 8d 8A/	.	.	4D\	-lek,	-tor-	.	.	4A/	nad	scor-	.	.	[4.f#/	nad	-tor-	.	[4.dd\	le-	-zan-	.	.	.	.	.	.	.	.	.
8r	8r	.	.	.	.	.	.	.	.	.	.	.	.	.	.	.	.	.	.	.	.	.	.	.	.	.	.	.	.
8D 8DD/	8a 8f# 8d/	.	.	8D\	a	-na,	.	.	8A/	nią	-raz-	.	.	.	.	.	.	.	.	.	.	.	.	.	.	.	.	.	.
=66	=66	=66	=66	=66	=66	=66	=66	=66	=66	=66	=66	=66	=66	=66	=66	=66	=66	=66	=66	=66	=66	=66	=66	=66	=66	=66	=66	=66	=66
*	*	*	*	*^	*	*	*	*	*^	*	*	*	*	*^	*	*	*	*^	*	*	*	*	*	*	*	*	*	*	*
8D 8DD/	8dd 8f# 8d/	.	.	4D\	4.ryy	nad	scor-	.	.	4A/	4.ryy	le-	-zan-	.	.	4f#/]	4.ryy	.	.	.	8dd\L]	4.ryy	.	.	.	2.r	.	.	.	2.r	.	.	.
8r	8r	.	.	.	.	.	.	.	.	.	.	.	.	.	.	.	.	.	.	.	8a\J	.	.	.	.	.	.	.	.	.	.	.	.
8D/	8f# 8d/	.	.	8D\	.	nią	-raz-	.	.	8A/	.	-ci,	-do	.	.	8f#/	.	nią	-na,	.	8b\	.	-ci,	-do	.	.	.	.	.	.	.	.	.
!	!	!	!	!	!LO:TX:t=P:stem.color=grey:problem	!	!	!	!	!	!LO:TX:t=P:stem.color=grey:problem	!	!	!	!	!	!LO:TX:t=P:stem.color=grey:problem	!	!	!	!	!LO:TX:t=P:stem.color=grey:problem	!	!	!	!	!	!	!	!	!	!	!
8D/	8a 8f#/	.	.	8D\	4D/	le-	-zan-	.	.	8A\|	8A\L	le-	va	.	.	8f#/	8f#/L	le-	<..>-	.	8cc\|	8cc\L	le-	va	.	.	.	.	.	.	.	.	.
8r	8r	.	.	8D\	.	-ci	-do	.	.	8B\|	8B\J	-ci	e	.	.	8f#/	8f#/J	-ci	-lei	.	8b\|	8b\J	-ci	e	.	.	.	.	.	.	.	.	.
!	!	!	!	!	!LO:TX:t=P:stem.color=grey:problem	!	!	!	!	!	!	!	!	!	!	!	!LO:TX:t=P:stem.color=grey:problem	!	!	!	!	!	!	!	!	!	!	!	!	!	!	!	!
8D 8DD/	8cc 8a 8f#/	.	.	8D\	8D/	mo-	ri-	.	.	8c\|	8ryy	mo-	ri-	.	.	8f#/	8f#\	mo-	ri-	.	8a\|	8ryy	mo-	ri-	.	.	.	.	.	.	.	.	.
*	*	*	*	*	*	*	*	*	*	*v	*v	*	*	*	*	*	*	*	*	*	*v	*v	*	*	*	*	*	*	*	*	*	*	*
*	*	*	*	*	*	*	*	*	*	*	*	*	*	*	*v	*v	*	*	*	*	*	*	*	*	*	*	*	*	*	*	*
!!LO:LB:g=original
=67	=67	=67	=67	=67	=67	=67	=67	=67	=67	=67	=67	=67	=67	=67	=67	=67	=67	=67	=67	=67	=67	=67	=67	=67	=67	=67	=67	=67	=67	=67
8G 8GG/	8b 8g/	.	.	4G\	4ryy	-ty-	-tor-	.	.	8B\|	-ty-	-tor-	.	.	8g'/	-ty-	-tor-	.	8b\	-ty-	-tor-	.	2.r	.	.	.	2.r	.	.	.
8r	8r	.	.	.	.	.	.	.	.	8d'\	-lek,	-na.	.	.	8g'/	-lek,	-na	.	8b\	-lek,	-na.	.	.	.	.	.	.	.	.	.
8r	8r	.	.	8G\	8r§	-lek,	-na	.	.	8r	.	.	.	.	8r	.	.	.	8r	.	.	.	.	.	.	.	.	.	.	.
*	*	*	*	*	*	*ij	*	*	*	*	*ij	*	*	*	*	*ij	*	*	*	*	*	*	*	*	*	*	*	*	*	*
!	!	!	!	!	!	!	!	!	!LO:HP:a	!	!	!	!	!LO:HP:a	!	!	!	!LO:HP:a	!	!	!	!LO:HP:a	!	!	!	!	!	!	!	!
!	!	!LO:DY:rj	!	!	!	!	!	!	!LO:DY:a:rj	!	!	!	!	!LO:DY:a:rj	!	!	!	!LO:DY:a:rj	!	!	!	!LO:DY:a:rj	!	!	!	!	!	!	!	!
(4B\	(4b/	mf	.	4B\	4ryy	na	.	.	mf >	4B\	na	far-	.	mf >	4b\	na	.	mf >	4b\	na	Far-	mf >	.	.	.	.	.	.	.	.
8A\	8dd#X/	.	.	8A\	8ryy	ba-	.	.	]	8B\	ba-	-fal-	.	]	8b\	ba-	.	]	8dd#X\	ba-	-fal-	]	.	.	.	.	.	.	.	.
*	*	*	*	*v	*v	*	*	*	*	*	*	*	*	*	*	*	*	*	*	*	*	*	*	*	*	*	*	*	*	*
=68	=68	=68	=68	=68	=68	=68	=68	=68	=68	=68	=68	=68	=68	=68	=68	=68	=68	=68	=68	=68	=68	=68	=68	=68	=68	=68	=68	=68	=68
4G\	4.ee 4.e/)	.	.	4G\	-ran-	.	.	.	4B\	-ran-	-let-	.	.	4b\	-ran-	.	.	4.ee\	-ran-	-let-	.	2.r	.	.	.	2.r	.	.	.
8BB/	.	.	.	8BB/	-ka	.	.	.	8B\	-ka	-ta	.	.	8g/	-ka	.	.	.	.	.	.	.	.	.	.	.	.	.	.
!	!	!	!	!	!	!	!	!LO:HP:a	!	!	!	!	!LO:HP:a	!	!	!	!LO:HP:b	!	!	!	!	!	!	!	!	!	!	!	!
4G\	(4b/	.	.	4G\	bez	.	.	>	4B\	bez	lu-	.	>	4e/	bez	.	>	8b\	-ka	-ta	.	.	.	.	.	.	.	.	.
.	.	.	.	.	.	.	.	.	.	.	.	.	.	.	.	.	.	8b\	bez	lu-	.	.	.	.	.	.	.	.	.
8F#\	8dd#X 8a/	.	.	8F#\	u-	.	.	]	8B\	u-	-mi-	.	]	8a/	u-	.	]	8dd#X\	u-	-mi-	.	.	.	.	.	.	.	.	.
=69	=69	=69	=69	=69	=69	=69	=69	=69	=69	=69	=69	=69	=69	=69	=69	=69	=69	=69	=69	=69	=69	=69	=69	=69	=69	=69	=69	=69	=69
*	*^	*	*	*	*	*	*	*	*	*	*	*	*	*	*	*	*	*	*	*	*	*	*	*	*	*	*	*	*
!	!	!	!	!	!	!	!	!	!LO:HP:a	!	!	!	!	!LO:HP:a	!	!	!	!LO:HP:b	!	!	!	!LO:HP:a	!	!	!	!	!	!	!	!
4E\	4.ee 4.g/)	4.ryy	.	.	4E\	-stan-	.	.	>	4.B\	-stan-	-no-	.	>	4g/	-stan-	.	>	4ee\	-stan-	-no-	>	2.r	.	.	.	2.r	.	.	.
8D\)	.	.	.	.	8D\	-ku	.	.	]	.	.	.	.	]	8f#/	-ku	.	]	8g/	-ku	-sa	]	.	.	.	.	.	.	.	.
!	!	!	!LO:DY:rj	!	!	!	!	!	!LO:DY:a:rj	!	!	!	!	!LO:DY:a:rj	!	!	!	!LO:DY:a:rj	!	!	!	!LO:DY:a:rj	!	!	!	!	!	!	!	!
(4C 4CC/	4g/	(4.e\	p	.	4C\	wo-	.	.	p	8c\	-ku	-sa	.	p	4e/	wo-	.	p	4g/	wo-	sul	p	.	.	.	.	.	.	.	.
.	.	.	.	.	.	.	.	.	.	8c\	wo-	sul	.	.	.	.	.	.	.	.	.	.	.	.	.	.	.	.	.	.
8E 8EE/	8cc/	.	.	.	8E\	-ła:	.	.	.	8c\	-ła:	suo	.	.	8g/	-ła:	.	.	8cc\	-ła:	suo	.	.	.	.	.	.	.	.	.
=70	=70	=70	=70	=70	=70	=70	=70	=70	=70	=70	=70	=70	=70	=70	=70	=70	=70	=70	=70	=70	=70	=70	=70	=70	=70	=70	=70	=70	=70	=70
4G 4GG/)	4.b 4.g/	4.d\)	.	.	4.G;\	baś,	crin	.	.	8d'\	baś,	crin	.	.	8d'/	baś,	.	.	8b|\	baś,	crin	.	2.r	.	.	.	2.r	.	.	.
!LO:TX:t=P:fermata:color=grey:problem	!LO:TX:t=P:fermata:color=grey:problem	!	!	!	!	!	!	!	!	!	!	!	!	!	!	!	!	!	!	!	!	!	!	!	!	!	!	!	!	!
.	.	.	.	.	.	.	.	.	.	4d^^;\	baś,	vi-	.	.	4g^^<;/	baś	.	.	4b^^;\	baś	vi-	.	.	.	.	.	.	.	.	.
8GG/	.	.	.	.	.	.	.	.	.	.	.	.	.	.	.	.	.	.	.	.	.	.	.	.	.	.	.	.	.	.
!	!LO:TX:a:t=rall:color=dodgerblue	!	!	!	!LO:S:color=red	!	!	!	!	!LO:S:color=grey	!	!	!	!	!	!	!	!	!LO:TX:a:i:t=rallentando.:note=podkreślone na niebiesko	!	!	!	!	!	!	!	!	!	!	!
(4C 4CC/	4g/	(4e\	.	.	(>4C/	mój	si	.	.	(8d\L	mój	-spa	.	.	4e/	mój	.	.	4g/	mój	-spa	.	.	.	.	.	.	.	.	.
.	.	.	.	.	.	.	.	.	.	8c\J)	.	.	.	.	.	.	.	.	.	.	.	.	.	.	.	.	.	.	.	.
8AA 8AAA/	8cc 8a/	8e\	.	.	8AA/)	ba-	.	.	.	8e\	ba-	si	.	.	16a/LL	ba-	.	.	8cc\	ba-	si	.	.	.	.	.	.	.	.	.
*	*	*	*	*	*	*Xij	*	*	*	*	*Xij	*	*	*	*	*Xij	*	*	*	*	*	*	*	*	*	*	*	*	*	*
.	.	.	.	.	.	.	.	.	.	.	.	.	.	.	16g/JJ	.	.	.	.	.	.	.	.	.	.	.	.	.	.	.
*	*v	*v	*	*	*	*	*	*	*	*	*	*	*	*	*	*	*	*	*	*	*	*	*	*	*	*	*	*	*	*
!!LO:PB:g=original
=71	=71	=71	=71	=71	=71	=71	=71	=71	=71	=71	=71	=71	=71	=71	=71	=71	=71	=71	=71	=71	=71	=71	=71	=71	=71	=71	=71	=71	=71
!	!	!	!	!	!	!	!	!LO:DY:a:rj	!	!	!	!	!LO:DY:a:rj	!	!	!	!LO:DY:a:rj	!	!	!	!LO:DY:a:rj	!	!	!	!	!	!	!	!
N(>8.BBL 8.BBB/)	4b 4f# 4d#X/)	.	.	[2.BB/	-ran-	po-	.	pp	[2.d#X\	-ran-	po-	.	pp	[2.f#/	-ran-	.	pp	[2.b\	-ran-	po-	pp	2.r	.	.	.	2.r	.	.	.
16D#X/L	.	.	.	.	.	.	.	.	.	.	.	.	.	.	.	.	.	.	.	.	.	.	.	.	.	.	.	.	.
16F#/	8r	.	.	.	.	.	.	.	.	.	.	.	.	.	.	.	.	.	.	.	.	.	.	.	.	.	.	.	.
16A/JJ	.	.	.	.	.	.	.	.	.	.	.	.	.	.	.	.	.	.	.	.	.	.	.	.	.	.	.	.	.
!LO:TX:t=P:problem=mixed beam	!	!	!	!	!	!	!	!	!	!	!	!	!	!	!	!	!	!	!	!	!	!	!	!	!	!	!	!	!
16B/LL	4ryy	.	.	.	.	.	.	.	.	.	.	.	.	.	.	.	.	.	.	.	.	.	.	.	.	.	.	.	.
16d#X>\	.	.	.	.	.	.	.	.	.	.	.	.	.	.	.	.	.	.	.	.	.	.	.	.	.	.	.	.	.
16f#>\	.	.	.	.	.	.	.	.	.	.	.	.	.	.	.	.	.	.	.	.	.	.	.	.	.	.	.	.	.
16g>\	.	.	.	.	.	.	.	.	.	.	.	.	.	.	.	.	.	.	.	.	.	.	.	.	.	.	.	.	.
16b>\	8ryy	.	.	.	.	.	.	.	.	.	.	.	.	.	.	.	.	.	.	.	.	.	.	.	.	.	.	.	.
16dd#X>\JJ	.	.	.	.	.	.	.	.	.	.	.	.	.	.	.	.	.	.	.	.	.	.	.	.	.	.	.	.	.
=72	=72	=72	=72	=72	=72	=72	=72	=72	=72	=72	=72	=72	=72	=72	=72	=72	=72	=72	=72	=72	=72	=72	=72	=72	=72	=72	=72	=72	=72
2.r	16ff#\LL	.	.	2.BB/]	.	.	.	.	2.d#\]	.	.	.	.	2.f#/]	.	.	.	2.b\]	.	.	.	2.r	.	.	.	2.r	.	.	.
.	16gg\	.	.	.	.	.	.	.	.	.	.	.	.	.	.	.	.	.	.	.	.	.	.	.	.	.	.	.	.
.	16bb\	.	.	.	.	.	.	.	.	.	.	.	.	.	.	.	.	.	.	.	.	.	.	.	.	.	.	.	.
.	16aa#X\	.	4	.	.	.	.	.	.	.	.	.	.	.	.	.	.	.	.	.	.	.	.	.	.	.	.	.	.
.	16aan\	.	5	.	.	.	.	.	.	.	.	.	.	.	.	.	.	.	.	.	.	.	.	.	.	.	.	.	.
.	16ff#\JJ	.	.	.	.	.	.	.	.	.	.	.	.	.	.	.	.	.	.	.	.	.	.	.	.	.	.	.	.
.	16dd#X/LL	.	.	.	.	.	.	.	.	.	.	.	.	.	.	.	.	.	.	.	.	.	.	.	.	.	.	.	.
*	*	*	*below	*	*	*	*	*	*	*	*	*	*	*	*	*	*	*	*	*	*	*	*	*	*	*	*	*	*
.	16b/	.	1	.	.	.	.	.	.	.	.	.	.	.	.	.	.	.	.	.	.	.	.	.	.	.	.	.	.
.	16a/	.	4	.	.	.	.	.	.	.	.	.	.	.	.	.	.	.	.	.	.	.	.	.	.	.	.	.	.
.	16f#/	.	.	.	.	.	.	.	.	.	.	.	.	.	.	.	.	.	.	.	.	.	.	.	.	.	.	.	.
.	16d#X/	.	.	.	.	.	.	.	.	.	.	.	.	.	.	.	.	.	.	.	.	.	.	.	.	.	.	.	.
.	16B/JJ	.	.	.	.	.	.	.	.	.	.	.	.	.	.	.	.	.	.	.	.	.	.	.	.	.	.	.	.
=73	=73	=73	=73	=73	=73	=73	=73	=73	=73	=73	=73	=73	=73	=73	=73	=73	=73	=73	=73	=73	=73	=73	=73	=73	=73	=73	=73	=73	=73
8EE/	8e/N)	.	.	8E\	-ku!	-sa.	.	.	8e\	-ku!	-sa	.	.	8e/	-ku!	.	.	8e/	-ku!	-sa	.	4r	.	.	.	4r	.	.	.
8r	8r	.	.	8r	.	.	.	.	8r	.	.	.	.	8r	.	.	.	8r	.	.	.	.	.	.	.	.	.	.	.
8B 8E'\	8r	.	.	8r	.	.	.	.	8r	.	.	.	.	8r	.	.	.	8r	.	.	.	8r	.	.	.	8r	.	.	.
8B 8E'\	(4gg#X 4ee 4g#X\	.	.	4r	.	.	.	.	4r	.	.	.	.	4r	.	.	.	4r	.	.	.	4E\	Mo-	Quan-	.	4g#X/	Mo-	Quan-	.
8r	.	.	.	.	.	.	.	.	.	.	.	.	.	.	.	.	.	.	.	.	.	.	.	.	.	.	.	.	.
8BB 8EE'/	8aa 8ff# 8a\	.	.	8r	.	.	.	.	8r	.	.	.	.	8r	.	.	.	8r	.	.	.	8F#\	-tyl-	-do_il	.	8a/	-tyl-	-do_il	.
=74	=74	=74	=74	=74	=74	=74	=74	=74	=74	=74	=74	=74	=74	=74	=74	=74	=74	=74	=74	=74	=74	=74	=74	=74	=74	=74	=74	=74	=74
8BB 8EE'/	4bb 4gg#X 4b\	.	.	2.r	.	.	.	.	2.r	.	.	.	.	2.r	.	.	.	2.r	.	.	.	4G#X\	-ka	far-	.	4b\	-ka	far-	.
8r	.	.	.	.	.	.	.	.	.	.	.	.	.	.	.	.	.	.	.	.	.	.	.	.	.	.	.	.	.
8B 8E'\	8eee 8gg# 8ee\	.	.	.	.	.	.	.	.	.	.	.	.	.	.	.	.	.	.	.	.	8G#\	ró-	-fal-	.	8ee\	ró-	-fal-	.
8B 8E'\	4ddd#X 4gg# 4dd#X\	.	.	.	.	.	.	.	.	.	.	.	.	.	.	.	.	.	.	.	.	4F#\	-zecz-	-lin	.	4dd#X\	-zecz-	-lin	.
8r	.	.	.	.	.	.	.	.	.	.	.	.	.	.	.	.	.	.	.	.	.	.	.	.	.	.	.	.	.
8BB 8EE'/	8ccc#X 8gg# 8cc#X\)	.	.	.	.	.	.	.	.	.	.	.	.	.	.	.	.	.	.	.	.	8E\	-ką	suo-	.	8cc#X\	-ką	suo-	.
!!LO:LB:g=original
=75	=75	=75	=75	=75	=75	=75	=75	=75	=75	=75	=75	=75	=75	=75	=75	=75	=75	=75	=75	=75	=75	=75	=75	=75	=75	=75	=75	=75	=75
!	!LO:TX:b:i:t=legierissimo.	!	!	!	!	!	!	!	!	!	!	!	!	!	!	!	!	!	!	!	!	!	!	!	!	!	!	!	!
.	.	.	.	.	.	.	.	.	.	.	.	.	.	.	.	.	.	.	.	.	.	(8qF#/	.	.	.	(8qdd#X/	.	.	.
8BB 8EE'/	16fff# 16ff#\	.	.	2.r	.	.	.	.	2.r	.	.	.	.	2.r	.	.	.	2.r	.	.	.	4E\)	go-	-laz-	.	4cc#X\)	go-	-laz-	.
*	*8va	*	*	*	*	*	*	*	*	*	*	*	*	*	*	*	*	*	*	*	*	*	*	*	*	*	*	*	*
.	(16aaa\LL	.	.	.	.	.	.	.	.	.	.	.	.	.	.	.	.	.	.	.	.	.	.	.	.	.	.	.	.
8r	16fff#\	.	.	.	.	.	.	.	.	.	.	.	.	.	.	.	.	.	.	.	.	.	.	.	.	.	.	.	.
.	16ggg#X\	.	.	.	.	.	.	.	.	.	.	.	.	.	.	.	.	.	.	.	.	.	.	.	.	.	.	.	.
8B 8A 8F# 8E\	16eee\	.	.	.	.	.	.	.	.	.	.	.	.	.	.	.	.	.	.	.	.	8D#X\	-ni,	-za	.	8b\	-nię	-za	.
.	16fff#\JJ	.	.	.	.	.	.	.	.	.	.	.	.	.	.	.	.	.	.	.	.	.	.	.	.	.	.	.	.
8B 8A 8F# 8E'\	16ddd#X\)	.	.	.	.	.	.	.	.	.	.	.	.	.	.	.	.	.	.	.	.	4B\	i	lo	.	4d#X/	i	lo	.
.	(16fff#\LL	.	.	.	.	.	.	.	.	.	.	.	.	.	.	.	.	.	.	.	.	.	.	.	.	.	.	.	.
8r	16ddd#\	.	.	.	.	.	.	.	.	.	.	.	.	.	.	.	.	.	.	.	.	.	.	.	.	.	.	.	.
.	16eee\	.	.	.	.	.	.	.	.	.	.	.	.	.	.	.	.	.	.	.	.	.	.	.	.	.	.	.	.
!	!LO:ACC:color=grey	!	!	!	!	!	!	!	!	!	!	!	!	!	!	!	!	!	!	!	!	!	!	!	!	!	!	!	!
8BB 8EE'/	16ccc#X\	.	.	.	.	.	.	.	.	.	.	.	.	.	.	.	.	.	.	.	.	8A#X\	już,	rag-	.	8e/	już,	rag-	.
.	16ddd#\JJ	.	.	.	.	.	.	.	.	.	.	.	.	.	.	.	.	.	.	.	.	.	.	.	.	.	.	.	.
=76	=76	=76	=76	=76	=76	=76	=76	=76	=76	=76	=76	=76	=76	=76	=76	=76	=76	=76	=76	=76	=76	=76	=76	=76	=76	=76	=76	=76	=76
8BB 8EE'/	16bb\)	.	.	2.r	.	.	.	.	2.r	.	.	.	.	2.r	.	.	.	2.r	.	.	.	4An\	już	-gi_un-	.	4f#/	już	-gi_un-	.
.	(16ddd#X\LL	.	.	.	.	.	.	.	.	.	.	.	.	.	.	.	.	.	.	.	.	.	.	.	.	.	.	.	.
8r	16bb\	.	.	.	.	.	.	.	.	.	.	.	.	.	.	.	.	.	.	.	.	.	.	.	.	.	.	.	.
!	!LO:ACC:color=grey	!	!	!	!	!	!	!	!	!	!	!	!	!	!	!	!	!	!	!	!	!	!	!	!	!	!	!	!
.	16ccc#X\	.	.	.	.	.	.	.	.	.	.	.	.	.	.	.	.	.	.	.	.	.	.	.	.	.	.	.	.
!LO:SIC:v:n=1:s=8c#	!	!	!	!	!	!	!	!	!	!	!	!	!	!	!	!	!	!	!	!	!	!	!	!	!	!	!	!	!
8c 8A 8E'\	16aa\	.	.	.	.	.	.	.	.	.	.	.	.	.	.	.	.	.	.	.	.	[8C^>/	trzy-	-ge	.	[8a^>/	chwy-	-ge_o-	.
.	16bb\JJ	.	.	.	.	.	.	.	.	.	.	.	.	.	.	.	.	.	.	.	.	.	.	.	.	.	.	.	.
8B 8A 8E'\	16gg#X\)	.	.	.	.	.	.	.	.	.	.	.	.	.	.	.	.	.	.	.	.	8C/]	.	.	.	8a/]	.	.	.
.	(16bb\LL	.	.	.	.	.	.	.	.	.	.	.	.	.	.	.	.	.	.	.	.	.	.	.	.	.	.	.	.
8r	16gg#\	.	.	.	.	.	.	.	.	.	.	.	.	.	.	.	.	.	.	.	.	8BB/	-ma	la	.	8g#X/	-tam	-gni	.
.	16aa\	.	.	.	.	.	.	.	.	.	.	.	.	.	.	.	.	.	.	.	.	.	.	.	.	.	.	.	.
8BB 8EE'/	16ff#\	.	.	.	.	.	.	.	.	.	.	.	.	.	.	.	.	.	.	.	.	8D#X/	go	ra-	.	8f#/	go	ra-	.
.	16gg#\JJ	.	.	.	.	.	.	.	.	.	.	.	.	.	.	.	.	.	.	.	.	.	.	.	.	.	.	.	.
=77	=77	=77	=77	=77	=77	=77	=77	=77	=77	=77	=77	=77	=77	=77	=77	=77	=77	=77	=77	=77	=77	=77	=77	=77	=77	=77	=77	=77	=77
!	!	!	!	!	!	!	!	!	!	!	!	!	!	!	!	!	!	!LO:TX:a:t=Chór	!	!	!	!	!	!	!	!	!	!	!
8BB 8EE'/	8ee/)	.	.	2.r	.	.	.	.	4r	.	.	.	.	4r	.	.	.	4r	.	.	.	[2.E\	w_dło-	-gaz-	.	4e/	w_dło-	-gaz-	.
*	*X8va	*	*	*	*	*	*	*	*	*	*	*	*	*	*	*	*	*	*	*	*	*	*	*	*	*	*	*	*
8r	8r	.	.	.	.	.	.	.	.	.	.	.	.	.	.	.	.	.	.	.	.	.	.	.	.	.	.	.	.
8B 8E'\	8r	.	.	.	.	.	.	.	8r	.	.	.	.	8r	.	.	.	8r	.	.	.	.	.	.	.	8B/	-nie,	-za,	.
!	!	!	!	!	!	!	!	!	!	!	!	!	!LO:DY:a:rj	!	!	!	!LO:DY:a:rj	!	!	!	!LO:DY:a:rj	!	!	!	!	!	!	!	!
8B 8E'\	(4gg#X 4ee 4g#X\	.	.	.	.	.	.	.	8B'\	mo-	quan-	.	ppp	4e/	mo-	.	ppp	4g#X/	mo-	Quan-	ppp	.	.	.	.	8r	.	.	.
8r	.	.	.	.	.	.	.	.	8B'\	-tyl-	-do	.	.	.	.	.	.	.	.	.	.	.	.	.	.	8ee\L	mo-	rag-	.
8BB 8EE'/	8aa 8ff# 8a\)	.	.	.	.	.	.	.	8B'\	-ka	suo-	.	.	8f#/	-tyl-	.	.	8a/	-tyl-	-do_il	.	.	.	.	.	8ff#\J	.	.	.
=78	=78	=78	=78	=78	=78	=78	=78	=78	=78	=78	=78	=78	=78	=78	=78	=78	=78	=78	=78	=78	=78	=78	=78	=78	=78	=78	=78	=78	=78
8BB 8EE'/	(4bb 4gg#X 4b\	.	.	4r	.	.	.	.	2.B\	go-	-laz-	.	.	8g#X/	-ka	.	.	8b/	-ka	far-	.	2.E\]	.	.	.	(4gg#X\	-tyl-	-gi_un-	.
8r	.	.	.	.	.	.	.	.	.	.	.	.	.	8r	.	.	.	8r	.	.	.	.	.	.	.	.	.	.	.
8B 8E'\	8eee 8gg# 8ee\)	.	.	8r	.	.	.	.	.	.	.	.	.	8g#/	ró-	.	.	8ee\	ró-	-fal-	.	.	.	.	.	8ee\)	.	-ge_il	.
!	!	!	!	!	!	!	!	!LO:DY:a:rj	!	!	!	!	!	!	!	!	!	!	!	!	!	!	!	!	!	!	!	!	!
8B 8E'\	(4ddd#X 4ff# 4dd#X\	.	.	8B'\	mo-	quan-	.	ppp	.	.	.	.	.	8f#/	-zecz-	.	.	8dd#X\	-zecz-	-lin	.	.	.	.	.	4b/	-ka	far-	.
8r	.	.	.	8G#X'\	-tyl-	-do	.	.	.	.	.	.	.	8r	.	.	.	8r	.	.	.	.	.	.	.	.	.	.	.
!	!LO:TX:b:t=V&colon; S&colon;	!	!	!	!	!	!	!	!	!	!	!	!	!LO:TX:b:t=V&colon; S&colon;	!	!	!	!	!	!	!	!	!	!	!	!LO:TX:b:t=V&colon; S&colon;	!	!	!
!	!LO:ACC:color=grey	!	!	!	!	!	!	!	!	!	!	!	!	!	!	!	!	!	!	!	!	!	!	!	!	!	!	!	!
8BB 8EE'/	8ccc#X 8ee 8cc#X\)	.	.	8E'\	-ka	suo-	.	.	.	.	.	.	.	8e/	-ką	.	.	8cc#X\	-ką	suo-	.	.	.	.	.	8g#X/	ró-	-fal-	.
!!LO:PB:g=original
=79	=79	=79	=79	=79	=79	=79	=79	=79	=79	=79	=79	=79	=79	=79	=79	=79	=79	=79	=79	=79	=79	=79	=79	=79	=79	=79	=79	=79	=79
*	*	*	*	*^	*	*	*	*	*	*	*	*	*	*	*	*	*	*	*	*	*	*	*	*	*	*	*	*	*
!	!	!	!	!	!LO:T:color=grey	!	!	!	!	!	!	!	!	!	!LO:S:color=grey	!	!	!LO:HP:a	!LO:S:color=grey	!	!	!LO:HP:a	!LO:N:vis=4	!	!	!	!LO:S:color=grey	!	!	!
8BB 8BBB/	(4ccc#X 4ff# 4ee 4cc#X\	>	.	2.BB/	[4.BB/§	go-	-laz-	.	.	4B\	-ni	-za	.	.	(4e/	go-	.	>	(4cc#X\	go-	-laz-	>	[4.BB/	-nie,	-za	.	(4a/	-zecz-	-li-	.
8r	.	.	.	.	.	.	.	.	.	.	.	.	.	.	.	.	.	.	.	.	.	.	.	.	.	.	.	.	.	.
8B 8BB\	8bb 8ff# 8dd#X 8b\)	]	.	.	.	.	.	.	.	8r	.	.	.	.	8d#X/)	-ni,	.	]	8b\)	-ni,	-za	]	.	.	.	.	8f#/)	-ką	-no,	.
8B 8BB\	(4ff# 4dd#\	.	.	.	4BB/]§	.	.	.	.	8B\|	go-	si	.	.	8d#X/	i	.	.	8f#/	i	lo	.	4BB/]	.	.	.	4b\	go-	quan-	.
8r	.	.	.	.	.	.	.	.	.	8B\|	-ni	lo	.	.	8r	.	.	.	8r	.	.	.	.	.	.	.	.	.	.	.
8BB 8BBB/	8gg#X 8ee\)	.	.	.	8BB/§	.	.	.	.	8B\|	i	rag-	.	.	8e/	już,	.	.	8g#X/	już,	rag-	.	8BB/	i	co-	.	8b\	-nię	-do_ei	.
*	*	*	*	*v	*v	*	*	*	*	*	*	*	*	*	*	*	*	*	*	*	*	*	*	*	*	*	*	*	*	*
=80	=80	=80	=80	=80	=80	=80	=80	=80	=80	=80	=80	=80	=80	=80	=80	=80	=80	=80	=80	=80	=80	=80	=80	=80	=80	=80	=80	=80	=80
*^	*	*	*	*	*	*	*	*	*	*	*	*	*	*	*	*	*	*	*	*	*	*	*	*	*	*	*	*	*
!	!	!	!	!	!	!	!	!	!	!	!	!	!	!	!	!	!	!	!	!	!	!	!	!	!	!	!LO:S:color=grey	!	!	!
8BB 8BBB/	4.ryy	16aa 16ff#\	.	.	16BB/	-ni	-za	.	.	16B\|	już	-gi_un-	.	.	16f#/	już	.	.	16a/	już,	-gi_un-	.	16BB/	już	-si	.	(8b'\	już	suo-	.
.	.	16r	.	.	16r	.	.	.	.	16r	.	.	.	.	16r	.	.	.	16r	.	.	.	16r	.	.	.	.	.	.	.
!	!	!	!	!	!LO:TX:a:i:t=rallent.	!	!	!	!	!LO:TX:a:i:t=rallentando.	!	!	!	!	!LO:TX:a:i:t=rallentando.	!	!	!	!LO:TX:a:i:t=rallentando.	!	!	!	!	!	!	!	!LO:TX:a:i:t=rallentando.	!	!	!
8r	.	[4ccc#X [4aa [4cc#X\	.	.	[4F#^^\	juž	quan-	.	.	[4d#X^^\	trzy-	-ge	.	.	[4a^^</	trzy-	.	.	[4cc#X^^\	trzy-	-ge	.	[4BB^>/	trzy-	quan-	.	[4aa^^\)	mam	-laz-	.
16BLL 16BB'\	.	.	.	.	.	.	.	.	.	.	.	.	.	.	.	.	.	.	.	.	.	.	.	.	.	.	.	.	.	.
16BJJ 16BB'\	.	.	.	.	.	.	.	.	.	.	.	.	.	.	.	.	.	.	.	.	.	.	.	.	.	.	.	.	.	.
8B/L	4.B 4.BB\	8ccc#]L 8aa] 8cc#\]	.	.	8F#\]	.	.	.	.	8d#\]	.	.	.	.	8a/]	.	.	.	8cc#\]	.	.	.	8BB/]	.	-do	.	(8aa\]	.	.	.
!	!	!	!	!	!	!	!	!	!	!	!	!	!	!	!	!	!	!	!	!	!	!	!	!	!	!	!LO:SIC:v:s=8cc#\	!	!	!
8B/	.	8bb 8gg#X 8b\	.	.	8G#X\	trzy-	-do	.	.	8e\	-ma	la	.	.	8g#X/	-ma	.	.	8b\	-ma	la	.	8BB/	-ma	ei	.	8cc\)	.	-za,	.
8B/J	.	8aaJ 8dd#X 8a\	.	.	8B\	-ma	suo-	.	.	8f#\	go	ra-	.	.	8f#/	go	.	.	8a\	go	ra-	.	8BB/	go	suo-	.	8dd#X\	go	suo-	.
*v	*v	*	*	*	*	*	*	*	*	*	*	*	*	*	*	*	*	*	*	*	*	*	*	*	*	*	*	*	*	*
=81	=81	=81	=81	=81	=81	=81	=81	=81	=81	=81	=81	=81	=81	=81	=81	=81	=81	=81	=81	=81	=81	=81	=81	=81	=81	=81	=81	=81	=81
4B 4E\	4gg#X 4ee 4g#X\	.	.	4E\	w_dło-	-laz-	.	.	4e\	w_dło-	-gaz-	.	.	4e/	w_dło-	.	.	8g#X\	w_dło-	-gaz-	.	4E\	w_dło-	-laz-	.	4ee\	w_dło-	-laz-	.
.	.	.	.	.	.	.	.	.	.	.	.	.	.	.	.	.	.	8b\	-ni,	-za.	.	.	.	.	.	.	.	.	.
8r	8r	.	.	8E\	-ni,	-za	.	.	8B\	-ni,	-za.	.	.	8e/	-ni,	.	.	8r	.	.	.	16E\	-ni,	-za;	.	16b\	-ni,	-za,	.
!	!	!	!	!	!	!	!	!	!	!	!	!	!	!	!	!	!	!	!	!	!	!	!	!	!	!LO:TX:a:i:t=più lento.	!	!	!
.	.	.	.	.	.	.	.	.	.	.	.	.	.	.	.	.	.	.	.	.	.	16r	.	.	.	16r	.	.	.
!	!	!	!	!	!	!	!	!	!	!	!	!	!	!	!	!	!	!	!	!	!	!LO:TX:a:i:t=dolente	!	!	!	!	!	!	!
4r	8gnL 8e'/	.	.	4r	.	.	.	.	4r	.	.	.	.	4r	.	.	.	4r	.	.	.	8E\	mo-	e	.	8gn/	mo-	e	.
.	(8g 8e/	.	.	.	.	.	.	.	.	.	.	.	.	.	.	.	.	.	.	.	.	8E\	-ty-	l'a-	.	8g/	-ty-	l'a-	.
8r	8aJ 8f#/	.	.	8r	.	.	.	.	8r	.	.	.	.	8r	.	.	.	8r	.	.	.	8F#\	-lek	-gnel-	.	8a/	-lek	-gnel-	.
=82	=82	=82	=82	=82	=82	=82	=82	=82	=82	=82	=82	=82	=82	=82	=82	=82	=82	=82	=82	=82	=82	=82	=82	=82	=82	=82	=82	=82	=82
!	!	!	!	!	!	!	!	!	!	!	!	!	!	!	!	!	!	!	!	!	!	!	!	!	!LO:DY:a	!	!	!	!LO:DY:a
4r	8b 8g/)	.	.	2.r	.	.	.	.	2.r	.	.	.	.	2.r	.	.	.	2.r	.	.	.	8G\	zaw-	-li-	<	(8b/	zaw-	-li-	mf
.	[4gg [>4b\	.	.	.	.	.	.	.	.	.	.	.	.	.	.	.	.	.	.	.	.	[4B^^\	.	-no_ac-	[	[4gg^^\)	.	-no_ac-	.
8r	.	.	.	.	.	.	.	.	.	.	.	.	.	.	.	.	.	.	.	.	.	.	.	.	.	.	.	.	.
!	!	!	!	!	!	!	!	!	!	!	!	!	!	!	!	!	!	!	!	!	!	!	!	!	!LO:HP:a	!	!	!	!LO:HP:a
(4.c#X (4.AA\	8gg]L 8b\]	.	.	.	.	.	.	.	.	.	.	.	.	.	.	.	.	.	.	.	.	8B\]	.	.	>	8gg\]	.	.	>
.	8ff# 8a\	.	.	.	.	.	.	.	.	.	.	.	.	.	.	.	.	.	.	.	.	8A\	-sze	-cor-	.	8ff#\	-sze	-cor-	.
!	!LO:TX:t=P:problem=brak początku łuku	!	!	!	!	!	!	!	!	!	!	!	!	!	!	!	!	!	!	!	!	!	!	!	!	!	!	!	!
.	(<8eeJ 8g\	.	.	.	.	.	.	.	.	.	.	.	.	.	.	.	.	.	.	.	.	8G\	u-	-re_al-	]]	8ee\	u-	-re_al-	]]
!!LO:LB:g=original
=83	=83	=83	=83	=83	=83	=83	=83	=83	=83	=83	=83	=83	=83	=83	=83	=83	=83	=83	=83	=83	=83	=83	=83	=83	=83	=83	=83	=83	=83
*	*^	*	*	*	*	*	*	*	*	*	*	*	*	*	*	*	*	*	*	*	*	*	*	*	*	*	*	*	*
4d) 4D\)	4b 4f#/)	4.ryy	.	.	4r	.	.	.	.	4r	.	.	.	.	4r	.	.	.	4r	.	.	.	8F#\	-cie-	-lor,	.	[4.dd\	-cie-	-lor	.
.	.	.	.	.	.	.	.	.	.	.	.	.	.	.	.	.	.	.	.	.	.	.	8D\	-ka,	l'a-	.	.	.	.	.
8r	8r	.	.	.	8r	.	.	.	.	8r	.	.	.	.	8r	.	.	.	8r	.	.	.	8E\	mo-	-gnel-	.	.	.	.	.
!	!	!	!	!	!	!	!	!	!LO:DY:a:rj	!	!	!	!	!LO:DY:a:rj	!	!	!	!LO:DY:a:rj	!	!	!	!LO:DY:a:rj	!	!	!	!	!	!	!	!
(4.B (4.GG\	(<8dd/L	(4.fn\	.	.	(4.GG/	ach!	.	.	ppp	(4.B\	ach!	ah	.	ppp	(4.d/	ach!	.	ppp	[4.g/	ach!	ah	ppp	4.Fn\	-ty-	-li-	.	8dd\]	.	.	.
.	8cc/	.	.	.	.	.	.	.	.	.	.	.	.	.	.	.	.	.	.	.	.	.	.	.	.	.	8cc\	-ka,	l'a-	.
.	8dd/J)	.	.	.	.	.	.	.	.	.	.	.	.	.	.	.	.	.	.	.	.	.	.	.	.	.	8dd\	mo-	-gnel-	.
=84	=84	=84	=84	=84	=84	=84	=84	=84	=84	=84	=84	=84	=84	=84	=84	=84	=84	=84	=84	=84	=84	=84	=84	=84	=84	=84	=84	=84	=84	=84
*	*	*	*	*	*	*	*	*	*	*	*	*	*	*	*	*	*	*	*	*	*	*	*^	*	*	*	*^	*	*	*
!	!	!	!	!	!	!	!	!	!	!	!	!	!	!	!	!	!	!	!	!	!	!	!	!	!	!	!LO:DY:a:rj	!	!	!	!	!LO:DY:b:rj
8c) 8C\)	8ee/	8e\)	.	.	8C/)	.	.	.	.	8c\)	.	.	.	.	8e/)	.	.	.	8g/]	.	.	.	8E\	4.ryy	-lek	-no	p	8ee\	4.ryy	-ty-	-lin	p
8r	8r	8ryy	.	.	8r	.	.	.	.	8r	.	.	.	.	8r	.	.	.	8r	.	.	.	8r	.	.	.	.	16e/LL	.	-lek	rin-	.
.	.	.	.	.	.	.	.	.	.	.	.	.	.	.	.	.	.	.	.	.	.	.	.	.	.	.	.	16f#/JJ	.	.	.	.
8r	8r	8ryy	.	.	8r	.	.	.	.	8r	.	.	.	.	8r	.	.	.	8r	.	.	.	8E\	.	u-	corre	.	16g/LL	.	u-	-cor-	.
.	.	.	.	.	.	.	.	.	.	.	.	.	.	.	.	.	.	.	.	.	.	.	.	.	.	.	.	16a/JJ	.	.	-re	.
(4BB/	(4g 4B/	4.ryy	.	.	4r	.	.	.	.	4r	.	.	.	.	4r	.	.	.	4r	.	.	.	4.BB/	4BB/	-cie-	al-	.	4.b/	4b/	-cie-	al-	.
8BBB/	8f# 8d#X 8A/	.	.	.	8r	.	.	.	.	8r	.	.	.	.	8r	.	.	.	8r	.	.	.	.	8BB/§	.	.	.	.	8b/§	.	.	.
*	*v	*v	*	*	*	*	*	*	*	*	*	*	*	*	*	*	*	*	*	*	*	*	*	*	*	*	*	*v	*v	*	*	*
=85	=85	=85	=85	=85	=85	=85	=85	=85	=85	=85	=85	=85	=85	=85	=85	=85	=85	=85	=85	=85	=85	=85	=85	=85	=85	=85	=85	=85	=85	=85
8EE/)	8e 8G/)	.	.	2.r	.	.	.	.	2.r	.	.	.	.	4r	.	.	.	4r	.	.	.	4E\	4BB/§	-ka.	-lor.	.	4b§ 4e/	-ka.	lor.	.
8r	8r	.	.	.	.	.	.	.	.	.	.	.	.	.	.	.	.	.	.	.	.	.	.	.	.	.	.	.	.	.
8B 8E\	8r	.	.	.	.	.	.	.	.	.	.	.	.	8r	.	.	.	8r	.	.	.	8r	8ryy	.	.	.	8r	.	.	.
!	!	!	!	!	!	!	!	!	!	!	!	!	!	!	!	!	!LO:DY:a:rj	!	!	!	!LO:DY:a:rj	!	!	!	!	!	!	!	!	!
4B 4E\	(4b 4g/	.	.	.	.	.	.	.	.	.	.	.	.	4g/	i	.	p	4b\	i	l'a-	p	4r	4ryy	.	.	.	4r	.	.	.
8B 8E\	8dd#X 8a 8f#/	.	.	.	.	.	.	.	.	.	.	.	.	8f#/	już,	.	.	8dd#X\	już,	-gnel-	.	8r	8ryy	.	.	.	8r	.	.	.
*	*	*	*	*	*	*	*	*	*	*	*	*	*	*	*	*	*	*	*	*	*	*v	*v	*	*	*	*	*	*	*
=86	=86	=86	=86	=86	=86	=86	=86	=86	=86	=86	=86	=86	=86	=86	=86	=86	=86	=86	=86	=86	=86	=86	=86	=86	=86	=86	=86	=86	=86
4B 4E\	4.ee 4.g 4.e/)	.	.	4r	.	.	.	.	4r	.	.	.	.	[4.e/	już,	.	.	[4.ee\	już,	-lin	.	4r	.	.	.	[4.ee\	już!	si	.
8E 8EE/	.	.	.	8r	.	.	.	.	8r	.	.	.	.	.	.	.	.	.	.	.	.	8r	.	.	.	.	.	.	.
!	!	!	!	!	!	!	!	!LO:DY:a:rj	!	!	!	!	!LO:DY:a:rj	!	!	!	!	!	!	!	!	!	!	!	!	!	!	!	!
4E 4EE/	(4g 4e/	.	.	4E\	i	.	.	p	4G/	i	l'a-	.	p	4e/]	.	.	.	4ee\]	.	.	.	4E\	i	l'a-	.	4ee\]	.	.	.
8C 8CC/	8cc 8g 8e/	.	.	8C\	juž	.	.	.	8c\	juž,	-gnel-	.	.	8r	.	.	.	8r	.	.	.	8C\	już,	-gnel-	.	8r	.	.	.
!!LO:PB:g=original
=87	=87	=87	=87	=87	=87	=87	=87	=87	=87	=87	=87	=87	=87	=87	=87	=87	=87	=87	=87	=87	=87	=87	=87	=87	=87	=87	=87	=87	=87
8G 8GG/	4b 4g 4d/)	.	.	[4.GG/	już,	.	.	.	[4.B\	juž,	-lin	.	.	4r	.	.	.	4r	.	.	.	[4.GG/	już,	-lin	.	4r	.	.	.
8r	.	.	.	.	.	.	.	.	.	.	.	.	.	.	.	.	.	.	.	.	.	.	.	.	.	.	.	.	.
8B 8G\	8r	.	.	.	.	.	.	.	.	.	.	.	.	8r	.	.	.	8r	.	.	.	.	.	.	.	8r	.	.	.
!	!	!	!	!	!	!	!	!	!	!	!	!	!	!	!	!	!LO:DY:a:rj	!	!	!	!LO:DY:a:rj	!	!	!	!	!	!	!	!
4B 4G\	(4b 4g/	.	.	4GG/]	.	.	.	.	4B\]	.	.	.	.	8g/	trzy-	rin-	p	8b\	trzy-	rin-	p	4GG/]	.	.	.	8b\	trzy-	rin-	.
.	.	.	.	.	.	.	.	.	.	.	.	.	.	8g/	-ma	-cor-	.	8b\	-ma	-cor-	.	.	.	.	.	8b\	-mam	-cor-	.
8B 8F#\	8dd#X 8a/	.	.	8r	.	.	.	.	8r	.	.	.	.	8f#/	go	-re_al-	.	8dd#X\	go	-re_al-	.	8r	.	.	.	8dd#X\	go	-re_al-	.
=88	=88	=88	=88	=88	=88	=88	=88	=88	=88	=88	=88	=88	=88	=88	=88	=88	=88	=88	=88	=88	=88	=88	=88	=88	=88	=88	=88	=88	=88
*	*^	*	*	*	*	*	*	*	*	*	*	*	*	*	*	*	*	*	*	*	*	*	*	*	*	*	*	*	*
4B 4E\	4.ee 4.g/)	4.ryy	.	.	4r	.	.	.	.	4r	.	.	.	.	[4.e/	w_dło-	-lor	.	(4.ee\	w_dło-	-lor	.	4r	.	.	.	(4.ee\	w_dło-	-lor	.
8B 8D\	.	.	.	.	8r	.	.	.	.	8r	.	.	.	.	.	.	.	.	.	.	.	.	8r	.	.	.	.	.	.	.
!	!	!	!	!	!	!	!	!	!	!	!	!	!	!LO:DY:a:rj	!	!	!	!	!	!	!	!	!	!	!	!	!	!	!	!
4c 4C\	8g/L	4e\	.	.	8E\	trzy-	.	.	.	8G/	trzy-	rin-	.	p	4e/]	-ni,	.	.	4g/)	-ni,	.	.	8E\	trzy-	rin-	.	4g/)	-ni,	.	.
.	8dd/	.	.	.	8E\	-ma	.	.	.	8G/	-ma	-cor-	.	.	.	.	.	.	.	.	.	.	8E\	-ma	-cor-	.	.	.	.	.
8c 8E\	8cc/J	8e\	.	.	8C/	go	.	.	.	8c/	go	-re_al-	.	.	8r	.	.	.	8r	.	.	.	8C\	go	-re_al-	.	8r	.	.	.
*	*v	*v	*	*	*	*	*	*	*	*	*	*	*	*	*	*	*	*	*	*	*	*	*	*	*	*	*	*	*	*
=89	=89	=89	=89	=89	=89	=89	=89	=89	=89	=89	=89	=89	=89	=89	=89	=89	=89	=89	=89	=89	=89	=89	=89	=89	=89	=89	=89	=89	=89
!	!	!	!	!	!	!	!	!	!LO:S:color=red	!	!	!	!	!	!	!	!	!	!	!	!	!	!	!	!	!	!	!	!
4.G;\	4.b 4.g 4.d;/	.	.	4GG;/	w_dło-	.	.	.	(4B;\	w_dło-	-lor	.	.	4r;	.	.	.	4r;	.	.	.	4G;\	w_dło-	-lor	.	4r;	.	.	.
.	.	.	.	8GG/	-ni,	.	.	.	8G/)	-ni,	.	.	.	8r	.	.	.	8r	.	.	.	8GG/	-ni,	.	.	8r	.	.	.
!	!LO:TX:b:t=lento:color=dodgerblue	!LO:DY:rj	!	!	!	!	!	!	!	!	!	!	!LO:DY:a:t=lento e f.:note=podkreślone na niebiesko	!	!	!	!	!	!	!	!LO:DY:a:t=lento e f.:note=podkreślone na niebiesko	!	!	!	!	!	!	!	!LO:DY:a:t=lento e f.:note=podkreślone na niebiesko
8G|L 8E\	8g|L 8e/	f	.	8E\	mo-	vez-	.	.	8G/	mo-	vez-	.	f	8e/	mo-	.	.	8g/	mo-	vez-	f	8G\	mo-	vez-	.	8g/	mo-	vez-	f
*	*	*	*	*	*	*	*	*	*	*ij	*	*	*	*	*ij	*	*	*	*	*	*	*	*	*	*	*	*	*	*
(8G 8E\	(8g 8e/	.	.	8G\	-ty-	-zo-	.	.	8G/	-ty-	-zo-	.	.	8e/	-ty-	.	.	8g/	-ty-	-zo-	.	8G\	-ty-	-zo-	.	8g/	-ty-	-zosa	.
8AJ 8F#\	8aJ 8f#/	.	.	8F#\	-lek	-sa_im-	.	.	8A/	-lek	-sa_im-	.	.	8f#/	-lek	.	.	8a/	-lek	-sa_im-	.	8A\	-lek	-sa_im-	.	8a/	-lek	im-	.
=90	=90	=90	=90	=90	=90	=90	=90	=90	=90	=90	=90	=90	=90	=90	=90	=90	=90	=90	=90	=90	=90	=90	=90	=90	=90	=90	=90	=90	=90
*	*^	*	*	*	*	*	*	*	*	*	*	*	*	*	*	*	*	*	*	*	*	*	*	*	*	*	*	*	*
!	!	!	!	!	!	!	!	!	!	!	!	!	!	!LO:HP:b:	!	!	!	!LO:HP:a	!	!	!	!LO:HP:b	!	!	!	!	!	!	!	!
8B 8G\)	8b 8g/)	4.ryy	.	.	(4.E\	zaw-	-ma-	.	.	(8B/	zaw-	-ma-	.	<	(8g/	zaw-	.	<	(8b/	zaw-	-ma-	<	(4.B\	zaw-	-ma-	.	(8b/	zaw-	-ma-	.
!	!	!	!LO:DY:b=2	!	!	!	!	!	!	!	!	!	!	!	!	!	!	!	!	!	!	!	!	!	!	!	!	!	!	!
4g> 4e> 4B\	(4.bb 4.gg 4.ee 4.b^^/	.	sf	.	.	.	.	.	.	[4g\)	.	.	.	[	[4b/)	.	.	[	[4gg\)	.	.	[	.	.	.	.	[4bb\)	.	.	.
!	!	!	!	!	!	!	!	!	!	!LO:S:color=grey	!	!	!	!	!	!	!	!	!	!	!	!	!	!	!	!	!	!	!	!
8AA| 8AAA/	.	8A|>\	.	.	4.A 4.AA\	.	.	.	.	(8g\]	.	.	.	.	8b/]	.	.	.	8gg\]	.	.	.	4.c#X\	.	.	.	8bb\]	.	.	.
8f#X>L 8c#X 8A\	8aaL 8ff# 8cc#X 8a^^/)	8ryy	.	.	.	.	.	.	.	8f#\)	-sze	-gin	.	.	8a/	-sze	.	.	8ff#\	-sze	-gin	.	.	.	.	.	8aa\	-sze	-gin	.
8e>J 8c# 8A\	8ggJ 8ee 8cc# 8a^^/	8ryy	.	.	.	.	.	.	.	8e\	u-	im	.	.	8g/	u-	.	.	8ee\	u-	im-	.	.	.	.	.	8gg\	u-	im-	.
*	*	*	*	*	*	*	*	*	*	*	*Xij	*	*	*	*	*Xij	*	*	*	*	*	*	*	*	*	*	*	*	*	*
!!LO:LB:g=original
=91	=91	=91	=91	=91	=91	=91	=91	=91	=91	=91	=91	=91	=91	=91	=91	=91	=91	=91	=91	=91	=91	=91	=91	=91	=91	=91	=91	=91	=91	=91
!	!	!	!	!	!	!	!	!	!	!LO:S:color=grey	!	!	!	!	!	!	!	!	!	!	!	!	!	!	!	!	!	!	!	!
!	!	!	!	!	!	!	!	!	!	!LO:TX:a:i:t=a tempo.	!	!	!	!	!LO:S:color=grey	!	!	!	!LO:TX:a:i:t=a tempo.	!	!	!	!	!	!	!	!LO:TX:a:i:t=a tempo.	!	!	!
(<4.d 4.D\	(4.ff#/	8dd\L	.	.	4.D\)	sze	-gin	.	.	(4.d\	-cie-	.	.	.	(4.a/	-cie-	ma-	.	[4.dd\	-cie-	-ma-	.	4.d\)	.	.	.	(4.ff#\	-cie-	-ma-	.
!	!	!	!LO:HP:b=2	!	!	!	!	!	!	!	!	!	!	!	!	!	!	!	!	!	!	!	!	!	!	!	!	!	!	!
.	.	8a\	>	.	.	.	.	.	.	.	.	.	.	.	.	.	.	.	.	.	.	.	.	.	.	.	.	.	.	.
.	.	8ccn\J	.	.	.	.	.	.	.	.	.	.	.	.	.	.	.	.	.	.	.	.	.	.	.	.	.	.	.	.
!	!	!	!	!	!	!	!	!	!LO:DY:a	!	!	!	!	!LO:DY:a	!	!	!	!LO:HP:a	!LO:S:color=grey	!	!	!LO:HP:a	!	!	!	!	!	!	!	!LO:HP:a
4.G\	4.ffn 4.b/	8g\L	.	.	4.G 4.GG\	u-	vez-	.	>	8B\L)	-ka,	.	.	>	4g/)	-ka,	-gin	>	(8dd\]	.	.	>	8B\L	-sze,	-gin	.	8ffn\)	.	.	>
.	.	.	.	.	.	.	.	.	.	.	.	.	.	.	.	.	.	.	.	.	.	.	8qd/	.	.	.	.	.	.	.
!	!	!	!	!	!	!	!	!	!	!	!	!	!	!	!	!	!	!	!	!	!	!	!	!	!	!LO:HP:a	!	!	!	!
.	.	8d\	.	.	.	.	.	.	.	8d§ 8c\J	.	.	.	.	.	.	.	.	8cc\)	-ka,	-gin	.	8c\J	.	.	>	8ee\	-ka,	-gin	.
.	.	8fn\J	.	.	.	.	.	.	.	8fn\	mo-	.	.	.	8g/	mo-	vez-	.	8dd\	mo-	vez-	.	8B\	mo-	vez-	.	8dd\	mo-	vez-	.
*	*v	*v	*	*	*	*	*	*	*	*	*	*	*	*	*	*	*	*	*	*	*	*	*	*	*	*	*	*	*	*
=92	=92	=92	=92	=92	=92	=92	=92	=92	=92	=92	=92	=92	=92	=92	=92	=92	=92	=92	=92	=92	=92	=92	=92	=92	=92	=92	=92	=92	=92
*	*	*^	*	*^	*	*	*	*	*^	*	*	*	*	*^	*	*	*	*^	*	*	*	*^	*	*	*	*^	*	*	*
8e> 8c\)	8ee 8cc/)	.	.	.	8C/	4.ryy	-cie-	-zo-	.	.	8e\	4.ryy	-ty-	.	.	.	8e/	4.ryy	-ty-	-zo-	.	8ee\	4.ryy	-ty-	-zo-	.	8c\	4.ryy	-ty-	-zo-	.	8ee\	4.ryy	-ty-	-zo-	.
(16E\LL	(16e/LL	.	.	.	16E\LL	.	-ka,	-sa	.	.	16E/LL	.	-lek	.	.	.	16e/LL	.	-lek	-sa	.	16e/LL	.	-lek	-sa	.	16E\LL	.	-lek	-sa	.	16e/LL	.	-lek	-sa	.
16F#\	16f#/	.	.	.	16F#\JJ	.	.	.	.	.	16F#/JJ	.	.	.	.	.	16f#/JJ	.	.	.	.	16f#/JJ	.	.	.	.	16F#\JJ	.	.	.	.	16f#/JJ	.	.	.	.
16G\	16g/	.	.	.	16G\LL	.	u-	di	.	.	16G/LL	.	u-	.	.	.	16g/LL	.	u-	di	.	16g/LL	.	u-	di	.	16G\LL	.	u-	di	.	16g/LL	.	u-	di	.
16A\JJ	16a/JJ	]	.	.	16A\JJ	.	.	.	.	]	16A/JJ	.	.	.	.	]	16a/JJ	.	.	.	]	16a/JJ	.	.	.	]	16A\JJ	.	.	.	]	16a/JJ	.	.	.	]
!	!	!	!LO:DY:b=2	!	!	!	!	!	!	!LO:DY:a:rj	!	!	!	!	!	!LO:DY:a:rj	!	!	!	!	!LO:DY:a:rj	!	!	!	!	!LO:DY:a:rj	!	!	!	!	!LO:DY:a:rj	!	!	!	!	!LO:DY:a:rj
8B\)	8b/)	p	p	.	(4.B\	4B\	-cie-	can-	.	p	[4.B\	4B\	-cie-	[can]-	.	p	(4.b\	4b\	-cie-	can	p	4.b\	4b\	-cie-	can-	p	(4.B\	4B\	-cie-	can-	p	[4.b/	4b/	-cie-	can-	p
8r	8r	.	.	.	.	.	.	.	.	.	.	.	.	.	.	.	.	.	.	.	.	.	.	.	.	.	.	.	.	.	.	.	.	.	.	.
(8BB/	(8d#X 8A 8F#/	.	.	.	.	8B\§	.	.	.	.	.	8B\§	.	.	.	.	.	8b\§	.	.	.	.	8b\§	.	.	.	.	8B\§	.	.	.	.	8b/§	.	.	.
*	*	*v	*v	*	*v	*v	*	*	*	*	*	*	*	*	*	*	*v	*v	*	*	*	*v	*v	*	*	*	*v	*v	*	*	*	*v	*v	*	*	*
*	*	*	*	*	*	*	*	*	*v	*v	*	*	*	*	*	*	*	*	*	*	*	*	*	*	*	*	*	*	*	*
=93	=93	=93	=93	=93	=93	=93	=93	=93	=93	=93	=93	=93	=93	=93	=93	=93	=93	=93	=93	=93	=93	=93	=93	=93	=93	=93	=93	=93	=93
!	!	!	!	!	!	!	!	!LO:DY:a	!	!	!	!	!LO:DY:a	!	!	!	!LO:DY:a	!	!	!	!LO:DY:a	!	!	!	!LO:DY:a	!	!	!	!LO:DY:a
8E 8EE/)	8e 8G/)	.	.	([<2.E\)	.	.	.	ppp	(4.B\]	.	.	.	ppp	[2.e/)	.	.	ppp	[>2.g/	.	.	ppp	2.G\)	.	.	ppp	(4.b\]	.	.	ppp
!	!	!LO:HP:a	!	!	!	!	!	!	!	!	!	!	!	!	!	!	!	!	!	!	!	!	!	!	!	!	!	!	!
8r	8r	<	.	.	.	.	.	.	.	.	.	.	.	.	.	.	.	.	.	.	.	.	.	.	.	.	.	.	.
8E 8EE/	8e 8G/	.	.	.	.	.	.	.	.	.	.	.	.	.	.	.	.	.	.	.	.	.	.	.	.	.	.	.	.
8C 8EE/	8e 8c 8G/	.	.	.	.	.	.	.	4.c\	.	.	.	.	.	.	.	.	.	.	.	.	.	.	.	.	[4.ee\)	.	.	.
8r	8r	.	.	.	.	.	.	.	.	.	.	.	.	.	.	.	.	.	.	.	.	.	.	.	.	.	.	.	.
8C 8EE/	8e 8c 8G/	[[	.	.	.	.	.	.	.	.	.	.	.	.	.	.	.	.	.	.	.	.	.	.	.	.	.	.	.
=94	=94	=94	=94	=94	=94	=94	=94	=94	=94	=94	=94	=94	=94	=94	=94	=94	=94	=94	=94	=94	=94	=94	=94	=94	=94	=94	=94	=94	=94
!	!LO:S:s=1:note:problem=note-level slur	!LO:HP:a	!	!	!	!	!	!	!	!	!	!	!	!	!	!	!	!	!	!	!	!	!	!	!	!	!	!	!
8AA 8EE/	(8eL 8c#X 8G/	>	.	4.E\]	.	.	.	.	4.c#X\	.	.	.	.	(>4.e/]	.	.	.	(>4.g/]	.	.	.	[4.A\	.	.	.	(4.ee\]	.	.	.
8r	8a/)	.	.	.	.	.	.	.	.	.	.	.	.	.	.	.	.	.	.	.	.	.	.	.	.	.	.	.	.
8AA/	8eJ 8c#/	.	.	.	.	.	.	.	.	.	.	.	.	.	.	.	.	.	.	.	.	.	.	.	.	.	.	.	.
8BB 8BBB/	8.f#/L	.	.	4.BB/	.	.	.	.	4.d#X\	.	.	.	.	4.B/)	.	.	.	4.f#/)	.	.	.	4A\]	.	.	.	(4.b\)	.	.	.
8r	.	.	.	.	.	.	.	.	.	.	.	.	.	.	.	.	.	.	.	.	.	.	.	.	.	.	.	.	.
.	16g/K	]	.	.	.	.	.	.	.	.	.	.	.	.	.	.	.	.	.	.	.	.	.	.	.	.	.	.	.
!	!LO:TX:b:t=V&colon; S&colon;	!	!	!	!	!	!	!	!	!	!	!	!	!LO:TX:b:t=V&colon; S&colon;	!	!	!	!	!	!	!	!	!	!	!	!LO:TX:b:t=V&colon; S&colon;	!	!	!
8BB 8BBB/	8f#/J	.	.	.	.	.	.	.	.	.	.	.	.	.	.	.	.	.	.	.	.	8B\	.	.	.	.	.	.	.
!!LO:PB:g=original
=95	=95	=95	=95	=95	=95	=95	=95	=95	=95	=95	=95	=95	=95	=95	=95	=95	=95	=95	=95	=95	=95	=95	=95	=95	=95	=95	=95	=95	=95
*^	*^	*	*	*	*	*	*	*	*	*	*	*	*	*	*	*	*	*	*	*	*	*	*	*	*	*	*	*	*
8E/	(4.EE\	8e/	8e\	.	.	4.E\	.	.	.	.	4.e\	.	.	.	.	[2.e/	-ka.	.	.	[2.e/	-ka.	-dor	.	[2.E\	.	.	.	8b\)	-ka,	-dor	.
!	!	!	!	!LO:HP:a	!	!	!	!	!	!	!	!	!	!	!	!	!	!	!	!	!	!	!	!	!	!	!	!	!	!	!
8r	.	8r	8ryy	<	.	.	.	.	.	.	.	.	.	.	.	.	.	.	.	.	.	.	.	.	.	.	.	8r	.	.	.
8E/	.	8e 8G/	8ryy	.	.	.	.	.	.	.	.	.	.	.	.	.	.	.	.	.	.	.	.	.	.	.	.	8b\	u-	di	.
.	.	.	.	.	.	.	.	.	.	.	.	.	.	.	.	.	.	.	.	.	.	.	.	.	.	.	.	(8qdd/	.	.	.
8C/	4.CC\	8e 8G/	4.ryy	.	.	4.C\	.	.	.	.	4.G/	.	.	.	.	.	.	.	.	.	.	.	.	.	.	.	.	[4.cc\)	-cie-	can-	.
8r	.	8r	.	.	.	.	.	.	.	.	.	.	.	.	.	.	.	.	.	.	.	.	.	.	.	.	.	.	.	.	.
8C/	.	8e 8c/	.	[[	.	.	.	.	.	.	.	.	.	.	.	.	.	.	.	.	.	.	.	.	.	.	.	.	.	.	.
=96	=96	=96	=96	=96	=96	=96	=96	=96	=96	=96	=96	=96	=96	=96	=96	=96	=96	=96	=96	=96	=96	=96	=96	=96	=96	=96	=96	=96	=96	=96	=96
!	!	!	!	!LO:HP:a	!	!	!	!	!	!	!	!	!	!	!	!	!	!	!	!	!	!	!	!	!	!	!	!	!	!	!
4AA/	4.AAA\	4f# 4e 4c/	4.ryy	>	.	4.AA/)	.	.	.	.	2.F#/	.	.	.	.	4e/]	.	.	.	4e/]	.	.	.	(4.E\]	.	.	.	(4.cc\]	.	.	.
8AA/	.	8f# 8e 8c/	.	.	.	.	.	.	.	.	.	.	.	.	.	8r	.	.	.	8r	.	.	.	.	.	.	.	.	.	.	.
4BB/	4.BBB\	8.f#/L	4d#X\	.	.	4.BB/	-ka,	-dor.	.	.	.	.	.	.	.	4r	.	.	.	4r	.	.	.	4.D#X\)	.	.	.	4.b\)	.	.	.
.	.	16g/K	.	]	.	.	.	.	.	.	.	.	.	.	.	.	.	.	.	.	.	.	.	.	.	.	.	.	.	.	.
8BB/	.	8f#/J	8d# 8A\	.	.	.	.	.	.	.	.	.	.	.	.	8r	.	.	.	8r	.	.	.	.	.	.	.	.	.	.	.
*v	*v	*	*	*	*	*	*	*	*	*	*	*	*	*	*	*	*	*	*	*	*	*	*	*	*	*	*	*	*	*	*
*	*v	*v	*	*	*	*	*	*	*	*	*	*	*	*	*	*	*	*	*	*	*	*	*	*	*	*	*	*	*	*
=97	=97	=97	=97	=97	=97	=97	=97	=97	=97	=97	=97	=97	=97	=97	=97	=97	=97	=97	=97	=97	=97	=97	=97	=97	=97	=97	=97	=97	=97
*	*	*	*	*^	*	*	*	*	*	*	*	*	*	*	*	*	*	*	*	*	*	*	*	*	*	*	*	*	*
8BB 8EE/)	4e 4G/	.	.	4.E\	4E\	mo-	Quan-	.	.	4E/)	-ka.	dor	.	.	2.r	.	.	.	2.r	.	.	.	4E\	-ka.	dor.	.	4e/	-ka	-dor	.
*	*ped	*	*	*	*	*	*	*	*	*	*	*	*	*	*	*	*	*	*	*	*	*	*	*	*	*	*	*	*	*
8r	.	.	.	.	.	.	.	.	.	.	.	.	.	.	.	.	.	.	.	.	.	.	.	.	.	.	.	.	.	.
8G| 8BB 8EE/	8r	.	.	.	8E\	.	.	.	.	8r	.	.	.	.	.	.	.	.	.	.	.	.	8r	.	.	.	8r	.	.	.
!	!	!LO:DY:rj	!	!	!	!	!	!	!LO:DY:a:rj	!	!	!	!	!	!	!	!	!	!	!	!	!	!	!	!	!	!	!	!	!
8G| 8BB 8EE/	4r	pp	.	[4.B\	4.ryy	-tyl-	-do_il	.	pp	4r	.	.	.	.	.	.	.	.	.	.	.	.	4r	.	.	.	4r	.	.	.
8r	.	.	.	.	.	.	.	.	.	.	.	.	.	.	.	.	.	.	.	.	.	.	.	.	.	.	.	.	.	.
8G| 8BB 8EE/	8r	.	.	.	.	.	.	.	.	8r	.	.	.	.	.	.	.	.	.	.	.	.	8r	.	.	.	8r	.	.	.
*	*	*	*	*v	*v	*	*	*	*	*	*	*	*	*	*	*	*	*	*	*	*	*	*	*	*	*	*	*	*	*
=98	=98	=98	=98	=98	=98	=98	=98	=98	=98	=98	=98	=98	=98	=98	=98	=98	=98	=98	=98	=98	=98	=98	=98	=98	=98	=98	=98	=98	=98
!	!	!	!	!LO:S:color=grey	!	!	!	!	!	!	!	!	!	!	!	!	!	!	!	!	!	!	!	!	!	!	!	!	!
8G| 8BB 8EE/	2.r	.	.	(8B\]	.	.	.	.	2.r	.	.	.	.	2.r	.	.	.	2.r	.	.	.	2.r	.	.	.	2.r	.	.	.
8r	.	.	.	8A#X\)	-ka	far-	.	.	.	.	.	.	.	.	.	.	.	.	.	.	.	.	.	.	.	.	.	.	.
8G| 8BB 8EE/	.	.	.	8B\	ró-	-fal-	.	.	.	.	.	.	.	.	.	.	.	.	.	.	.	.	.	.	.	.	.	.	.
8G| 8BB 8EE/	.	.	.	8G\L	-zecz-	-lin	.	.	.	.	.	.	.	.	.	.	.	.	.	.	.	.	.	.	.	.	.	.	.
8r	.	.	.	8F#\J	.	.	.	.	.	.	.	.	.	.	.	.	.	.	.	.	.	.	.	.	.	.	.	.	.
8G| 8BB 8EE/	.	.	.	8G\	-ką	suo-	.	.	.	.	.	.	.	.	.	.	.	.	.	.	.	.	.	.	.	.	.	.	.
=99	=99	=99	=99	=99	=99	=99	=99	=99	=99	=99	=99	=99	=99	=99	=99	=99	=99	=99	=99	=99	=99	=99	=99	=99	=99	=99	=99	=99	=99
*	*	*	*	*	*	*	*	*	*^	*	*	*	*	*	*	*	*	*	*	*	*	*	*	*	*	*	*	*	*
!	!	!	!	!	!	!	!	!	!	!	!	!	!	!LO:DY:a	!	!	!	!	!	!	!	!	!	!	!	!	!	!	!	!
8G| 8BB 8EE/	2.r	.	.	[2.E\	go-	-laz-	.	.	4.E/	4E/	i	Lō	.	pp	2.r	.	.	.	2.r	.	.	.	2.r	.	.	.	2.r	.	.	.
8r	.	.	.	.	.	.	.	.	.	.	.	.	.	.	.	.	.	.	.	.	.	.	.	.	.	.	.	.	.	.
8B| 8G 8E\	.	.	.	.	.	.	.	.	.	8E/§	.	.	.	.	.	.	.	.	.	.	.	.	.	.	.	.	.	.	.	.
8B| 8G 8E\	.	.	.	.	.	.	.	.	[4.e\	4.ryy	już,	ras-	.	.	.	.	.	.	.	.	.	.	.	.	.	.	.	.	.	.
8r	.	.	.	.	.	.	.	.	.	.	.	.	.	.	.	.	.	.	.	.	.	.	.	.	.	.	.	.	.	.
8B| 8G 8E\	.	.	.	.	.	.	.	.	.	.	.	.	.	.	.	.	.	.	.	.	.	.	.	.	.	.	.	.	.	.
*	*	*	*	*	*	*	*	*	*v	*v	*	*	*	*	*	*	*	*	*	*	*	*	*	*	*	*	*	*	*	*
=100	=100	=100	=100	=100	=100	=100	=100	=100	=100	=100	=100	=100	=100	=100	=100	=100	=100	=100	=100	=100	=100	=100	=100	=100	=100	=100	=100	=100	=100
!	!	!	!	!	!	!	!	!	!LO:S:color=grey	!	!	!	!	!	!	!	!	!	!	!	!	!	!	!	!	!	!	!	!
8B| 8G 8E\	2.r	.	.	2.E\_	.	.	.	.	(8e\]	.	.	.	.	2.r	.	.	.	2.r	.	.	.	2.r	.	.	.	2.r	.	.	.
8r	.	.	.	.	.	.	.	.	8d#X\)	już	-<...>-	.	.	.	.	.	.	.	.	.	.	.	.	.	.	.	.	.	.
8B| 8G 8E\	.	.	.	.	.	.	.	.	8e\	go	-<...	.	.	.	.	.	.	.	.	.	.	.	.	.	.	.	.	.	.
8B| 8G 8E\	.	.	.	.	.	.	.	.	8B\L	trzy-	.	.	.	.	.	.	.	.	.	.	.	.	.	.	.	.	.	.	.
8r	.	.	.	.	.	.	.	.	8A#X\J	.	.	.	.	.	.	.	.	.	.	.	.	.	.	.	.	.	.	.	.
8B| 8G 8E\	.	.	.	.	.	.	.	.	8B\	-ma	la_ra-	.	.	.	.	.	.	.	.	.	.	.	.	.	.	.	.	.	.
!!LO:LB:g=original
=101	=101	=101	=101	=101	=101	=101	=101	=101	=101	=101	=101	=101	=101	=101	=101	=101	=101	=101	=101	=101	=101	=101	=101	=101	=101	=101	=101	=101	=101
*	*	*	*	*	*	*	*	*	*	*	*	*	*	*^	*	*	*	*^	*	*	*	*	*	*	*	*	*	*	*
!	!	!	!	!	!	!	!	!	!	!	!	!	!	!	!	!	!	!	!	!	!	!	!LO:DY:a:rj	!	!	!	!	!	!	!	!
8B 8G 8E\	8r	.	.	2.E\_	.	.	.	.	2.G/	w_dło-	-gaz-	.	.	4r	4g/§	.	.	.	4.g/	4g/	mo-	quan-	pp	2.r	.	.	.	2.r	.	.	.
8r	8r	.	.	.	.	.	.	.	.	.	.	.	.	.	.	.	.	.	.	.	.	.	.	.	.	.	.	.	.	.	.
8r	8b| 8g 8e/	.	.	.	.	.	.	.	.	.	.	.	.	8r	8g/§	.	.	.	.	8g/	.	.	.	.	.	.	.	.	.	.	.
!	!	!	!	!	!	!	!	!	!	!	!	!	!	!	!	!	!	!LO:DY:a:rj	!	!	!	!	!	!	!	!	!	!	!	!	!
4r	8ee| 8g 8e/	.	.	.	.	.	.	.	.	.	.	.	.	[4.g/	4.ryy	zaw-	il	pp	[4.gg\	4.ryy	-ty-	-do_il	.	.	.	.	.	.	.	.	.
.	8r	.	.	.	.	.	.	.	.	.	.	.	.	.	.	.	.	.	.	.	.	.	.	.	.	.	.	.	.	.	.
8r	8b| 8g 8e/	.	.	.	.	.	.	.	.	.	.	.	.	.	.	.	.	.	.	.	.	.	.	.	.	.	.	.	.	.	.
*	*	*	*	*	*	*	*	*	*	*	*	*	*	*v	*v	*	*	*	*	*	*	*	*	*	*	*	*	*	*	*	*
*	*	*	*	*	*	*	*	*	*	*	*	*	*	*	*	*	*	*v	*v	*	*	*	*	*	*	*	*	*	*	*
=102	=102	=102	=102	=102	=102	=102	=102	=102	=102	=102	=102	=102	=102	=102	=102	=102	=102	=102	=102	=102	=102	=102	=102	=102	=102	=102	=102	=102	=102
*	*	*	*	*	*	*	*	*	*	*	*	*	*	*	*	*	*	*^	*	*	*	*	*	*	*	*	*	*	*
4r	8ee| 8g 8e/	.	.	4E\]	-[ni]	za	.	.	4B\	-ni	-za	.	.	4g/]	.	.	.	8gg\L]	8ryy	.	.	.	2.r	.	.	.	2.r	.	.	.
*	*Xped	*	*	*	*	*	*	*	*	*	*	*	*	*	*	*	*	*	*	*	*	*	*	*	*	*	*	*	*	*
!	!	!	!	!	!	!	!	!	!	!	!	!	!	!	!	!	!	!	!LO:TX:t=P:stem.color=red:problem	!	!	!	!	!	!	!	!	!	!	!
.	8r	.	.	.	.	.	.	.	.	.	.	.	.	.	.	.	.	8ff#\J	8ff#\	.	far-	.	.	.	.	.	.	.	.	.
8r	8g/	.	.	8r	.	.	.	.	8r	.	.	.	.	8b/	-sze,	far-	.	8ee\	8ryy	-lek	-fal-	.	.	.	.	.	.	.	.	.
!	!LO:TX:b:t=rall:color=dodgerblue	!	!	!LO:S:color=grey	!	!	!	!	!	!	!	!	!	!LO:S:color=grey	!	!	!	!LO:S:color=grey	!LO:TX:t=P:stem.color=red:problem	!	!	!	!	!	!	!	!	!	!	!
!	!	!	!	!LO:TX:a:i:t=rallent.	!	!	!	!	!LO:TX:a:i:t=rallent.:note=podkreślone na niebiesko	!	!	!	!	!LO:TX:a:i:t=rallent.	!	!	!	!LO:TX:a:i:t=rallent.:note=podkreślone na niebiesko	!	!	!	!	!	!	!	!	!	!	!	!
8B\L|	8b/L|	.	.	(8B\	zaw-	.	.	.	8B/	zaw-	quan-	.	.	(8b/	zaw-	-fal-	.	(<8b/	8b/L	zaw-	-lin	.	.	.	.	.	.	.	.	.
8G\|	8g/|	.	.	8G\)	-sze	.	.	.	8G/	-sze	-do	.	.	8g/)	-sze	-lin	.	8g/)	8g/J	-sze	.	.	.	.	.	.	.	.	.	.
8F#\J|	8f#/J|	.	.	8F#\	u-	.	.	.	8F#/	u-	suo-	.	.	8f#/	u-	suo-	.	8f#/	8ryy	u-	suo-	.	.	.	.	.	.	.	.	.
*	*	*	*	*	*	*	*	*	*	*	*	*	*	*	*	*	*	*v	*v	*	*	*	*	*	*	*	*	*	*	*
=103	=103	=103	=103	=103	=103	=103	=103	=103	=103	=103	=103	=103	=103	=103	=103	=103	=103	=103	=103	=103	=103	=103	=103	=103	=103	=103	=103	=103	=103
!	!	!	!	!LO:N:vis=0.	!	!	!	!	!LO:N:vis=0.	!	!	!	!	!LO:N:vis=0.	!	!	!	!LO:N:vis=0.	!	!	!	!	!	!	!	!	!	!	!
4E\	4.e/	.	.	1.E\	-cie-	.	.	.	1.E/	-cie-	-laz-	.	.	1.e/	-cie-	-laz-	.	1.e/	-cie-	-laz-	.	2.r	.	.	.	2.r	.	.	.
8r	.	.	.	.	.	.	.	.	.	.	.	.	.	.	.	.	.	.	.	.	.	.	.	.	.	.	.	.	.
4.E 4.EE/	[4.g 4.e [4.B/	.	.	.	.	.	.	.	.	.	.	.	.	.	.	.	.	.	.	.	.	.	.	.	.	.	.	.	.
!	!	!	!	!	!	!	!	!	!	!	!	!	!	!	!	!	!	!LO:TX:t=P:problem=kreska taktowa dopisana w partiach chóru	!	!	!	!	!	!	!	!	!	!	!
=104	=104	=104	=104	=104	=104	=104	=104	=104	=104	=104	=104	=104	=104	=104	=104	=104	=104	=104	=104	=104	=104	=104	=104	=104	=104	=104	=104	=104	=104
4.BB 4.BBB/	4.g] 4.e 4.B/]	.	.	.	.	.	.	.	.	.	.	.	.	.	.	.	.	.	.	.	.	2.r	.	.	.	2.r	.	.	.
4.GG 4.GGG/	4.b 4.e 4.B/	.	.	.	.	.	.	.	.	.	.	.	.	.	.	.	.	.	.	.	.	.	.	.	.	.	.	.	.
=105	=105	=105	=105	=105	=105	=105	=105	=105	=105	=105	=105	=105	=105	=105	=105	=105	=105	=105	=105	=105	=105	=105	=105	=105	=105	=105	=105	=105	=105
*8ba	*	*	*	*	*	*	*	*	*	*	*	*	*	*	*	*	*	*	*	*	*	*	*	*	*	*	*	*	*
2.EEE;/	2.e;/	.	.	4E\	-ka.	.	.	.	4E/	-ka.	-za	.	.	4e/	-ka.	-za.	.	4e/	-ka.	-za.	.	2.r	.	.	.	2.r	.	.	.
.	.	.	.	8r	.	.	.	.	8r	.	.	.	.	8r	.	.	.	8r	.	.	.	.	.	.	.	.	.	.	.
.	.	.	.	4r	.	.	.	.	4r	.	.	.	.	4r	.	.	.	4r	.	.	.	.	.	.	.	.	.	.	.
!LO:TX:t=P:problem=fermata pod kreską taktową	!LO:TX:b:t=Attacca	!	!	!	!	!	!	!	!	!	!	!	!	!LO:TX:a:t=fine	!	!	!	!	!	!	!	!	!	!	!	!LO:TX:t=P:problem=fermata nad kreską taktową	!	!	!
.	.	.	.	8r	.	.	.	.	8r	.	.	.	.	8r	.	.	.	8r	.	.	.	.	.	.	.	.	.	.	.
*X8ba	*	*	*	*	*	*	*	*	*	*	*	*	*	*	*	*	*	*	*	*	*	*	*	*	*	*	*	*	*
==	==	==	==	==	==	==	==	==	==	==	==	==	==	==	==	==	==	==	==	==	==	==	==	==	==	==	==	==	==
*-	*-	*-	*-	*-	*-	*-	*-	*-	*-	*-	*-	*-	*-	*-	*-	*-	*-	*-	*-	*-	*-	*-	*-	*-	*-	*-	*-	*-	*-
!!!system-decoration: s1,s2[g1][(s7,s8)]
!!!RDF**kern: > = above
!!!RDF**kern: < = below
!!!RDF**kern: | = vertical stroke
!!!RDF**kern: N = linked
!!!RDF**kern: @ = marked note, color=dodgerblue
!!!RDF**kern: § = marked note, color=grey
!!!RDF**dynam: p = "p."
!!!RDF**dynam: f = "f."
!!!RDF**dynam: sf = "sf."
!!!RDF**dynam: pp = "pp."
!!!RDF**dynam: ppp = "ppp."
!!!RDF**dynam: mf = "mf."
!!!ENC: Andrzej Kubiczek
!!!END: 2021-10-01
!!!ENC: Andrzej Kubiczek
!!!END: 2021-10-16
